(.../pcb-gcode-3.6.2.4/pcb-gcode.ulp)
(Copyright 2005 - 2012 by John Johnson)
(See readme.txt for licensing terms.)
(This file generated from the board:)
(.../LagoVista.EaglePCB.Tests/KegeratorController.brd)
(Current profile is .../pcb-gcode-3.6.2.4/profiles/generic.pp  )
(This file generated 4/8/2017 10:05)
(Settings from pcb-machine.h)
(spindle on time = 3.0000)
(  Tool Size)
(0.1778 )
(spindle speed = 30000.0000)
(tool change at 0.0000 0.0000 25.4000 )
(feed rate xy = F508.00 )
(feed rate z  = F254.00 )
(Z Axis Settings)
(  High     Up        Down     Drill)
(12.7000 	2.5400 	-0.1778 	-0.8128 )
(Settings from pcb-defaults.h)
(isolate min = 0.0254)
(isolate max = 0.5080)
(isolate step = 0.1270)
(Generated top outlines, top drill, bottom outlines, bottom drill, )
(Unit of measure: mm)
(Metric Mode)
G21
(Absolute Coordinates)
G90
S30000
G00 Z12.7000 
G00 X0.0000 Y0.0000 
M03
G04 P3.000000
G00 Z2.5400 
G00 X0.9651 Y1.0242 
G01 Z-0.1778 F254.00 
G01 X0.9233 Y1.0966 F508.00 
G01 X0.9017 Y1.1774 
G01 X0.9017 Y78.1976 
G01 X0.9233 Y78.2784 
G01 X0.9651 Y78.3507 
G01 X1.0242 Y78.4099 
G01 X1.0966 Y78.4517 
G01 X1.1774 Y78.4733 
G01 X10.6327 Y78.4733 
G01 X10.6577 Y78.4759 
G01 X10.6743 Y78.4733 
G01 X10.6911 Y78.4733 
G01 X10.7154 Y78.4668 
G01 X10.7403 Y78.4628 
G01 X10.7556 Y78.4560 
G01 X10.7719 Y78.4517 
G01 X10.7937 Y78.4391 
G01 X10.8167 Y78.4288 
G01 X10.8297 Y78.4182 
G01 X10.8443 Y78.4099 
G01 X10.8621 Y78.3921 
G01 X10.8816 Y78.3762 
G01 X10.8915 Y78.3626 
G01 X10.9034 Y78.3507 
G01 X10.9160 Y78.3289 
G01 X10.9308 Y78.3086 
G01 X10.9368 Y78.2929 
G01 X10.9452 Y78.2784 
G01 X10.9517 Y78.2540 
G01 X10.9607 Y78.2305 
G01 X10.9625 Y78.2138 
G01 X10.9668 Y78.1976 
G01 X10.9668 Y78.1724 
G01 X10.9694 Y78.1474 
G01 X10.9668 Y78.1308 
G01 X10.9668 Y78.1140 
G01 X10.9603 Y78.0897 
G01 X10.9563 Y78.0648 
G01 X10.9495 Y78.0495 
G01 X10.9452 Y78.0332 
G01 X10.9326 Y78.0114 
G01 X10.9223 Y77.9884 
G01 X10.9118 Y77.9754 
G01 X10.9034 Y77.9608 
G01 X10.8856 Y77.9430 
G01 X10.8697 Y77.9235 
G01 X10.8561 Y77.9136 
G01 X10.8443 Y77.9017 
G01 X10.8355 Y77.8967 
G01 X10.7422 Y77.8034 
G01 X10.6588 Y77.6886 
G01 X10.5944 Y77.5621 
G01 X10.5505 Y77.4272 
G01 X10.5283 Y77.2870 
G01 X10.5283 Y76.8223 
G01 X10.5537 Y76.8223 
G01 X10.5537 Y77.3023 
G01 X10.5874 Y77.4716 
G01 X10.6534 Y77.6311 
G01 X10.7493 Y77.7746 
G01 X10.8714 Y77.8967 
G01 X11.0149 Y77.9926 
G01 X11.1744 Y78.0586 
G01 X11.3437 Y78.0923 
G01 X11.5163 Y78.0923 
G01 X11.6856 Y78.0586 
G01 X11.8451 Y77.9926 
G01 X11.9886 Y77.8967 
G01 X12.1107 Y77.7746 
G01 X12.2066 Y77.6311 
G01 X12.2726 Y77.4716 
G01 X12.3063 Y77.3023 
G01 X12.3063 Y76.8223 
G01 X12.3317 Y76.8223 
G01 X12.3317 Y77.2870 
G01 X12.3095 Y77.4272 
G01 X12.2656 Y77.5621 
G01 X12.2012 Y77.6886 
G01 X12.1178 Y77.8034 
G01 X12.0245 Y77.8967 
G01 X12.0157 Y77.9017 
G01 X12.0039 Y77.9136 
G01 X11.9903 Y77.9235 
G01 X11.9744 Y77.9430 
G01 X11.9566 Y77.9608 
G01 X11.9482 Y77.9754 
G01 X11.9377 Y77.9884 
G01 X11.9274 Y78.0114 
G01 X11.9148 Y78.0332 
G01 X11.9105 Y78.0495 
G01 X11.9037 Y78.0648 
G01 X11.8997 Y78.0897 
G01 X11.8932 Y78.1140 
G01 X11.8932 Y78.1308 
G01 X11.8906 Y78.1474 
G01 X11.8932 Y78.1724 
G01 X11.8932 Y78.1976 
G01 X11.8975 Y78.2138 
G01 X11.8993 Y78.2305 
G01 X11.9083 Y78.2540 
G01 X11.9148 Y78.2784 
G01 X11.9232 Y78.2929 
G01 X11.9292 Y78.3086 
G01 X11.9440 Y78.3289 
G01 X11.9566 Y78.3507 
G01 X11.9685 Y78.3626 
G01 X11.9784 Y78.3762 
G01 X11.9979 Y78.3921 
G01 X12.0157 Y78.4099 
G01 X12.0303 Y78.4183 
G01 X12.0433 Y78.4288 
G01 X12.0663 Y78.4391 
G01 X12.0881 Y78.4517 
G01 X12.1044 Y78.4560 
G01 X12.1197 Y78.4628 
G01 X12.1445 Y78.4668 
G01 X12.1689 Y78.4733 
G01 X12.1857 Y78.4733 
G01 X12.2022 Y78.4759 
G01 X12.2273 Y78.4733 
G01 X13.2992 Y78.4733 
G01 X13.3800 Y78.4517 
G01 X13.4524 Y78.4099 
G01 X13.5115 Y78.3507 
G01 X13.5383 Y78.3043 
G01 X13.5533 Y78.2784 
G01 X13.5749 Y78.1976 
G01 X13.5749 Y78.1140 
G01 X13.5533 Y78.0332 
G01 X13.5140 Y77.9652 
G01 X13.5549 Y77.9926 
G01 X13.7144 Y78.0586 
G01 X13.8837 Y78.0923 
G01 X14.0563 Y78.0923 
G01 X14.2256 Y78.0586 
G01 X14.3851 Y77.9926 
G01 X14.4260 Y77.9653 
G01 X14.3876 Y78.0317 
G01 X14.3651 Y78.1140 
G01 X14.3651 Y78.1976 
G01 X14.3867 Y78.2784 
G01 X14.4023 Y78.3054 
G01 X14.4285 Y78.3507 
G01 X14.4876 Y78.4099 
G01 X14.5584 Y78.4507 
G01 X14.6408 Y78.4733 
G01 X15.8392 Y78.4733 
G01 X15.9200 Y78.4517 
G01 X15.9924 Y78.4099 
G01 X16.0515 Y78.3507 
G01 X16.0783 Y78.3043 
G01 X16.0933 Y78.2784 
G01 X16.1149 Y78.1976 
G01 X16.1149 Y78.1140 
G01 X16.0933 Y78.0332 
G01 X16.0540 Y77.9652 
G01 X16.0949 Y77.9926 
G01 X16.2544 Y78.0586 
G01 X16.4237 Y78.0923 
G01 X16.5963 Y78.0923 
G01 X16.7656 Y78.0586 
G01 X16.9251 Y77.9926 
G01 X16.9660 Y77.9653 
G01 X16.9276 Y78.0317 
G01 X16.9051 Y78.1140 
G01 X16.9051 Y78.1976 
G01 X16.9267 Y78.2784 
G01 X16.9423 Y78.3054 
G01 X16.9685 Y78.3507 
G01 X17.0276 Y78.4099 
G01 X17.0984 Y78.4507 
G01 X17.1808 Y78.4733 
G01 X39.5967 Y78.4733 
G01 X39.6134 Y78.4759 
G01 X39.6384 Y78.4733 
G01 X39.6635 Y78.4733 
G01 X39.6798 Y78.4689 
G01 X39.6965 Y78.4672 
G01 X39.7200 Y78.4582 
G01 X39.7443 Y78.4517 
G01 X39.7588 Y78.4433 
G01 X39.7745 Y78.4372 
G01 X39.7949 Y78.4224 
G01 X39.8167 Y78.4099 
G01 X39.8285 Y78.3980 
G01 X39.8422 Y78.3881 
G01 X39.8580 Y78.3685 
G01 X39.8758 Y78.3507 
G01 X39.8780 Y78.3469 
G01 X39.8802 Y78.3507 
G01 X39.8980 Y78.3685 
G01 X39.9138 Y78.3881 
G01 X39.9274 Y78.3980 
G01 X39.9393 Y78.4099 
G01 X39.9611 Y78.4224 
G01 X39.9815 Y78.4372 
G01 X39.9972 Y78.4433 
G01 X40.0117 Y78.4517 
G01 X40.0360 Y78.4582 
G01 X40.0595 Y78.4672 
G01 X40.0762 Y78.4689 
G01 X40.0925 Y78.4733 
G01 X40.1176 Y78.4733 
G01 X40.1426 Y78.4759 
G01 X40.1593 Y78.4733 
G01 X48.7407 Y78.4733 
G01 X48.7574 Y78.4759 
G01 X48.7824 Y78.4733 
G01 X48.8075 Y78.4733 
G01 X48.8238 Y78.4689 
G01 X48.8405 Y78.4672 
G01 X48.8640 Y78.4582 
G01 X48.8883 Y78.4517 
G01 X48.9028 Y78.4433 
G01 X48.9186 Y78.4372 
G01 X48.9389 Y78.4224 
G01 X48.9607 Y78.4099 
G01 X48.9725 Y78.3980 
G01 X48.9862 Y78.3881 
G01 X49.0020 Y78.3685 
G01 X49.0198 Y78.3507 
G01 X49.0220 Y78.3469 
G01 X49.0242 Y78.3507 
G01 X49.0420 Y78.3685 
G01 X49.0578 Y78.3881 
G01 X49.0714 Y78.3980 
G01 X49.0833 Y78.4099 
G01 X49.1051 Y78.4224 
G01 X49.1254 Y78.4372 
G01 X49.1412 Y78.4433 
G01 X49.1557 Y78.4517 
G01 X49.1800 Y78.4582 
G01 X49.2035 Y78.4672 
G01 X49.2202 Y78.4689 
G01 X49.2365 Y78.4733 
G01 X49.2616 Y78.4733 
G01 X49.2866 Y78.4759 
G01 X49.3032 Y78.4733 
G01 X57.6307 Y78.4733 
G01 X57.6474 Y78.4759 
G01 X57.6724 Y78.4733 
G01 X57.6975 Y78.4733 
G01 X57.7138 Y78.4689 
G01 X57.7305 Y78.4672 
G01 X57.7540 Y78.4582 
G01 X57.7783 Y78.4517 
G01 X57.7928 Y78.4433 
G01 X57.8085 Y78.4372 
G01 X57.8289 Y78.4224 
G01 X57.8507 Y78.4099 
G01 X57.8625 Y78.3980 
G01 X57.8762 Y78.3881 
G01 X57.8920 Y78.3685 
G01 X57.9098 Y78.3507 
G01 X57.9120 Y78.3469 
G01 X57.9142 Y78.3507 
G01 X57.9320 Y78.3685 
G01 X57.9478 Y78.3881 
G01 X57.9614 Y78.3980 
G01 X57.9733 Y78.4099 
G01 X57.9951 Y78.4224 
G01 X58.0154 Y78.4372 
G01 X58.0312 Y78.4433 
G01 X58.0457 Y78.4517 
G01 X58.0700 Y78.4582 
G01 X58.0935 Y78.4672 
G01 X58.1102 Y78.4689 
G01 X58.1265 Y78.4733 
G01 X58.1516 Y78.4733 
G01 X58.1766 Y78.4759 
G01 X58.1932 Y78.4733 
G01 X66.5207 Y78.4733 
G01 X66.5374 Y78.4759 
G01 X66.5624 Y78.4733 
G01 X66.5875 Y78.4733 
G01 X66.6038 Y78.4689 
G01 X66.6205 Y78.4672 
G01 X66.6440 Y78.4582 
G01 X66.6683 Y78.4517 
G01 X66.6828 Y78.4432 
G01 X66.6986 Y78.4372 
G01 X66.7189 Y78.4224 
G01 X66.7407 Y78.4099 
G01 X66.7526 Y78.3980 
G01 X66.7662 Y78.3881 
G01 X66.7820 Y78.3685 
G01 X66.7998 Y78.3507 
G01 X66.8020 Y78.3469 
G01 X66.8042 Y78.3507 
G01 X66.8220 Y78.3685 
G01 X66.8378 Y78.3881 
G01 X66.8514 Y78.3980 
G01 X66.8633 Y78.4099 
G01 X66.8851 Y78.4224 
G01 X66.9054 Y78.4372 
G01 X66.9211 Y78.4432 
G01 X66.9357 Y78.4517 
G01 X66.9600 Y78.4582 
G01 X66.9835 Y78.4672 
G01 X67.0002 Y78.4689 
G01 X67.0165 Y78.4733 
G01 X67.0416 Y78.4733 
G01 X67.0666 Y78.4759 
G01 X67.0832 Y78.4733 
G01 X75.1567 Y78.4733 
G01 X75.1734 Y78.4759 
G01 X75.1984 Y78.4733 
G01 X75.2235 Y78.4733 
G01 X75.2398 Y78.4689 
G01 X75.2565 Y78.4672 
G01 X75.2800 Y78.4582 
G01 X75.3043 Y78.4517 
G01 X75.3188 Y78.4433 
G01 X75.3345 Y78.4372 
G01 X75.3549 Y78.4224 
G01 X75.3767 Y78.4099 
G01 X75.3885 Y78.3980 
G01 X75.4022 Y78.3881 
G01 X75.4180 Y78.3685 
G01 X75.4358 Y78.3507 
G01 X75.4380 Y78.3469 
G01 X75.4402 Y78.3507 
G01 X75.4580 Y78.3685 
G01 X75.4738 Y78.3881 
G01 X75.4874 Y78.3980 
G01 X75.4993 Y78.4099 
G01 X75.5211 Y78.4224 
G01 X75.5415 Y78.4372 
G01 X75.5572 Y78.4433 
G01 X75.5717 Y78.4517 
G01 X75.5960 Y78.4582 
G01 X75.6195 Y78.4672 
G01 X75.6362 Y78.4689 
G01 X75.6525 Y78.4733 
G01 X75.6776 Y78.4733 
G01 X75.7026 Y78.4759 
G01 X75.7193 Y78.4733 
G01 X79.7287 Y78.4733 
G01 X79.7453 Y78.4759 
G01 X79.7704 Y78.4733 
G01 X79.7955 Y78.4733 
G01 X79.8118 Y78.4689 
G01 X79.8285 Y78.4672 
G01 X79.8520 Y78.4582 
G01 X79.8763 Y78.4517 
G01 X79.8908 Y78.4432 
G01 X79.9065 Y78.4372 
G01 X79.9269 Y78.4224 
G01 X79.9487 Y78.4099 
G01 X79.9605 Y78.3980 
G01 X79.9742 Y78.3881 
G01 X79.9900 Y78.3685 
G01 X80.0078 Y78.3507 
G01 X80.0100 Y78.3469 
G01 X80.0122 Y78.3507 
G01 X80.0300 Y78.3685 
G01 X80.0458 Y78.3881 
G01 X80.0594 Y78.3980 
G01 X80.0713 Y78.4099 
G01 X80.0931 Y78.4224 
G01 X80.1135 Y78.4372 
G01 X80.1292 Y78.4432 
G01 X80.1437 Y78.4517 
G01 X80.1680 Y78.4582 
G01 X80.1915 Y78.4672 
G01 X80.2082 Y78.4689 
G01 X80.2245 Y78.4733 
G01 X80.2496 Y78.4733 
G01 X80.2746 Y78.4759 
G01 X80.2913 Y78.4733 
G01 X100.4226 Y78.4733 
G01 X100.5033 Y78.4517 
G01 X100.5757 Y78.4099 
G01 X100.6349 Y78.3507 
G01 X100.6767 Y78.2784 
G01 X100.6983 Y78.1976 
G01 X100.6983 Y1.1774 
G01 X100.6767 Y1.0966 
G01 X100.6349 Y1.0242 
G01 X100.5757 Y0.9651 
G01 X100.5033 Y0.9233 
G01 X100.4226 Y0.9017 
G01 X1.1774 Y0.9017 
G01 X1.0966 Y0.9233 
G01 X1.0242 Y0.9651 
G01 X0.9651 Y1.0242 
G00 Z2.5400 
G00 X3.4573 Y3.6660 
G01 Z-0.1778 F254.00 
G01 X4.3769 Y2.9326 F508.00 
G01 X5.4719 Y2.5028 
G01 X6.6449 Y2.4149 
G01 X7.7917 Y2.6767 
G01 X8.8104 Y3.2648 
G01 X9.6104 Y4.1271 
G01 X10.1208 Y5.1869 
G01 X10.2961 Y6.3500 
G01 X10.1208 Y7.5131 
G01 X9.6104 Y8.5729 
G01 X8.8104 Y9.4352 
G01 X8.2451 Y9.7615 
G01 X8.1869 Y9.8197 
G01 X8.1442 Y9.8930 
G01 X8.1226 Y9.9738 
G01 X8.1226 Y10.0574 
G01 X8.1442 Y10.1381 
G01 X8.1860 Y10.2105 
G01 X8.2442 Y10.2687 
G01 X8.3110 Y10.3077 
G01 X7.9753 Y10.3077 
G01 X7.9333 Y10.3251 
G01 X7.9083 Y10.3500 
G01 X7.8998 Y10.3182 
G01 X7.8918 Y10.2833 
G01 X7.8890 Y10.2779 
G01 X7.8875 Y10.2721 
G01 X7.8695 Y10.2411 
G01 X7.8528 Y10.2093 
G01 X7.8487 Y10.2049 
G01 X7.8457 Y10.1997 
G01 X7.8203 Y10.1744 
G01 X7.7959 Y10.1481 
G01 X7.7908 Y10.1449 
G01 X7.7865 Y10.1406 
G01 X7.7555 Y10.1227 
G01 X7.7251 Y10.1036 
G01 X7.7194 Y10.1018 
G01 X7.7142 Y10.0988 
G01 X7.6795 Y10.0895 
G01 X7.6452 Y10.0789 
G01 X7.6392 Y10.0787 
G01 X7.6334 Y10.0772 
G01 X7.5975 Y10.0772 
G01 X7.5617 Y10.0758 
G01 X7.5558 Y10.0772 
G01 X7.5498 Y10.0772 
G01 X7.5152 Y10.0864 
G01 X6.6449 Y10.2851 
G01 X5.4719 Y10.1972 
G01 X4.3769 Y9.7674 
G01 X3.4573 Y9.0340 
G01 X2.7947 Y8.0622 
G01 X2.4480 Y6.9381 
G01 X2.4480 Y5.7619 
G01 X2.7947 Y4.6378 
G01 X3.4573 Y3.6660 
G00 Z2.5400 
G00 X3.3598 Y11.5227 
G01 Z-0.1778 F254.00 
G01 X3.4973 Y11.6226 F508.00 
G01 X3.6174 Y11.7427 
G01 X3.7173 Y11.8802 
G01 X3.7944 Y12.0316 
G01 X3.8094 Y12.0777 
G01 X3.7827 Y12.0777 
G01 X3.7709 Y12.0414 
G01 X3.6955 Y11.8935 
G01 X3.5980 Y11.7593 
G01 X3.4807 Y11.6420 
G01 X3.3465 Y11.5445 
G01 X3.1986 Y11.4691 
G01 X3.1623 Y11.4573 
G01 X3.1623 Y11.4306 
G01 X3.2084 Y11.4456 
G01 X3.3598 Y11.5227 
G00 Z2.5400 
G00 X2.4257 Y11.4573 
G01 Z-0.1778 F254.00 
G01 X2.3894 Y11.4691 F508.00 
G01 X2.2415 Y11.5445 
G01 X2.1073 Y11.6420 
G01 X1.9900 Y11.7593 
G01 X1.8925 Y11.8935 
G01 X1.8171 Y12.0414 
G01 X1.8053 Y12.0777 
G01 X1.7786 Y12.0777 
G01 X1.7936 Y12.0316 
G01 X1.8707 Y11.8802 
G01 X1.9706 Y11.7427 
G01 X2.0907 Y11.6226 
G01 X2.2282 Y11.5227 
G01 X2.3796 Y11.4456 
G01 X2.4257 Y11.4306 
G01 X2.4257 Y11.4573 
G00 Z2.5400 
G00 X1.8053 Y12.8143 
G01 Z-0.1778 F254.00 
G01 X1.8171 Y12.8506 F508.00 
G01 X1.8925 Y12.9985 
G01 X1.9900 Y13.1327 
G01 X2.1073 Y13.2500 
G01 X2.2415 Y13.3475 
G01 X2.3894 Y13.4229 
G01 X2.5472 Y13.4741 
G01 X2.7110 Y13.5001 
G01 X2.8770 Y13.5001 
G01 X3.0408 Y13.4741 
G01 X3.1986 Y13.4229 
G01 X3.3465 Y13.3475 
G01 X3.4807 Y13.2500 
G01 X3.5980 Y13.1327 
G01 X3.6955 Y12.9985 
G01 X3.7709 Y12.8506 
G01 X3.7827 Y12.8143 
G01 X3.8094 Y12.8143 
G01 X3.7944 Y12.8604 
G01 X3.7173 Y13.0118 
G01 X3.6551 Y13.0974 
G01 X3.6376 Y13.1171 
G01 X3.6306 Y13.1310 
G01 X3.6215 Y13.1437 
G01 X3.6120 Y13.1683 
G01 X3.6002 Y13.1919 
G01 X3.5971 Y13.2071 
G01 X3.5915 Y13.2217 
G01 X3.5887 Y13.2479 
G01 X3.5834 Y13.2738 
G01 X3.5844 Y13.2893 
G01 X3.5827 Y13.3048 
G01 X3.5869 Y13.3309 
G01 X3.5885 Y13.3572 
G01 X3.5934 Y13.3720 
G01 X3.5958 Y13.3874 
G01 X3.6066 Y13.4115 
G01 X3.6149 Y13.4365 
G01 X3.6235 Y13.4495 
G01 X3.6298 Y13.4638 
G01 X3.6464 Y13.4843 
G01 X3.6610 Y13.5063 
G01 X3.6726 Y13.5166 
G01 X3.6824 Y13.5288 
G01 X3.7038 Y13.5443 
G01 X3.7235 Y13.5617 
G01 X3.7375 Y13.5687 
G01 X3.7501 Y13.5779 
G01 X3.7747 Y13.5873 
G01 X3.7983 Y13.5991 
G01 X3.8136 Y13.6023 
G01 X3.8281 Y13.6079 
G01 X3.8543 Y13.6106 
G01 X3.8728 Y13.6144 
G01 X3.7186 Y13.6658 
G01 X3.6874 Y13.6741 
G01 X3.6791 Y13.6790 
G01 X3.6699 Y13.6820 
G01 X3.6430 Y13.6998 
G01 X3.6151 Y13.7159 
G01 X3.6082 Y13.7228 
G01 X3.6002 Y13.7281 
G01 X3.5787 Y13.7522 
G01 X3.2803 Y14.0507 
G01 X3.1986 Y14.0091 
G01 X3.0408 Y13.9579 
G01 X2.8770 Y13.9319 
G01 X2.7110 Y13.9319 
G01 X2.5472 Y13.9579 
G01 X2.4934 Y13.9753 
G01 X2.4982 Y13.9716 
G01 X2.5059 Y13.9616 
G01 X2.5153 Y13.9532 
G01 X2.5312 Y13.9286 
G01 X2.5491 Y13.9053 
G01 X2.5539 Y13.8936 
G01 X2.5608 Y13.8831 
G01 X2.5699 Y13.8552 
G01 X2.5811 Y13.8281 
G01 X2.5827 Y13.8156 
G01 X2.5866 Y13.8035 
G01 X2.5882 Y13.7743 
G01 X2.5920 Y13.7452 
G01 X2.5903 Y13.7327 
G01 X2.5910 Y13.7201 
G01 X2.5849 Y13.6914 
G01 X2.5811 Y13.6623 
G01 X2.5762 Y13.6506 
G01 X2.5736 Y13.6383 
G01 X2.5603 Y13.6122 
G01 X2.5491 Y13.5851 
G01 X2.5414 Y13.5751 
G01 X2.5357 Y13.5638 
G01 X2.5161 Y13.5420 
G01 X2.4982 Y13.5188 
G01 X2.4882 Y13.5111 
G01 X2.4797 Y13.5017 
G01 X2.4552 Y13.4857 
G01 X2.4319 Y13.4679 
G01 X2.4202 Y13.4630 
G01 X2.4096 Y13.4562 
G01 X2.3817 Y13.4471 
G01 X2.3776 Y13.4454 
G01 X2.2282 Y13.3693 
G01 X2.0907 Y13.2694 
G01 X1.9706 Y13.1493 
G01 X1.8707 Y13.0118 
G01 X1.7936 Y12.8604 
G01 X1.7786 Y12.8143 
G01 X1.8053 Y12.8143 
G00 Z2.5400 
G00 X3.7790 Y14.4500 
G01 Z-0.1778 F254.00 
G01 X3.7755 Y14.4630 F508.00 
G01 X3.7675 Y14.4824 
G01 X3.7648 Y14.5032 
G01 X3.7593 Y14.5235 
G01 X3.7593 Y14.5444 
G01 X3.7578 Y14.5558 
G01 X3.7293 Y14.4997 
G01 X3.7790 Y14.4500 
G00 Z2.5400 
G00 X3.0390 Y16.0144 
G01 Z-0.1778 F254.00 
G01 X3.0193 Y16.0296 F508.00 
G01 X2.9693 Y16.0947 
G01 X2.9364 Y16.1731 
G01 X2.9355 Y16.1801 
G01 X2.9255 Y16.2560 
G01 X2.9364 Y16.3389 
G01 X2.9684 Y16.4161 
G01 X2.9909 Y16.4454 
G01 X3.0193 Y16.4824 
G01 X3.0390 Y16.4976 
G01 X2.8770 Y16.4719 
G01 X2.7110 Y16.4719 
G01 X2.5490 Y16.4976 
G01 X2.5687 Y16.4824 
G01 X2.5979 Y16.4444 
G01 X2.6196 Y16.4161 
G01 X2.6507 Y16.3411 
G01 X2.6525 Y16.3319 
G01 X2.6625 Y16.2560 
G01 X2.6516 Y16.1731 
G01 X2.6196 Y16.0959 
G01 X2.5687 Y16.0296 
G01 X2.5490 Y16.0144 
G01 X2.7110 Y16.0401 
G01 X2.8770 Y16.0401 
G01 X3.0390 Y16.0144 
G00 Z2.5400 
G00 X3.7797 Y17.1486 
G01 Z-0.1778 F254.00 
G01 X3.7888 Y17.1556 F508.00 
G01 X3.8037 Y17.1705 
G01 X3.8218 Y17.1809 
G01 X3.8385 Y17.1937 
G01 X3.8579 Y17.2018 
G01 X3.8695 Y17.2085 
G01 X3.7992 Y17.2085 
G01 X3.7797 Y17.1486 
G00 Z2.5400 
G00 X3.7992 Y17.8435 
G01 Z-0.1778 F254.00 
G01 X3.8695 Y17.8435 F508.00 
G01 X3.8579 Y17.8502 
G01 X3.8385 Y17.8583 
G01 X3.8218 Y17.8710 
G01 X3.8037 Y17.8815 
G01 X3.7888 Y17.8964 
G01 X3.7797 Y17.9033 
G01 X3.7992 Y17.8435 
G00 Z2.5400 
G00 X3.0946 Y18.5367 
G01 Z-0.1778 F254.00 
G01 X3.0898 Y18.5403 F508.00 
G01 X3.0821 Y18.5504 
G01 X3.0727 Y18.5588 
G01 X3.0568 Y18.5834 
G01 X3.0389 Y18.6067 
G01 X3.0341 Y18.6183 
G01 X3.0272 Y18.6289 
G01 X3.0181 Y18.6568 
G01 X3.0069 Y18.6839 
G01 X3.0053 Y18.6964 
G01 X3.0014 Y18.7084 
G01 X2.9998 Y18.7377 
G01 X2.9960 Y18.7668 
G01 X2.9976 Y18.7793 
G01 X2.9970 Y18.7919 
G01 X3.0031 Y18.8206 
G01 X3.0069 Y18.8497 
G01 X3.0117 Y18.8613 
G01 X3.0144 Y18.8737 
G01 X3.0277 Y18.8998 
G01 X3.0389 Y18.9269 
G01 X3.0466 Y18.9369 
G01 X3.0523 Y18.9482 
G01 X3.0719 Y18.9700 
G01 X3.0898 Y18.9932 
G01 X3.0998 Y19.0009 
G01 X3.1083 Y19.0103 
G01 X3.1328 Y19.0263 
G01 X3.1561 Y19.0441 
G01 X3.1678 Y19.0490 
G01 X3.1784 Y19.0558 
G01 X3.2063 Y19.0649 
G01 X3.2104 Y19.0666 
G01 X3.3598 Y19.1427 
G01 X3.4973 Y19.2426 
G01 X3.6174 Y19.3627 
G01 X3.7173 Y19.5002 
G01 X3.7944 Y19.6516 
G01 X3.8094 Y19.6977 
G01 X3.7827 Y19.6977 
G01 X3.7709 Y19.6614 
G01 X3.6955 Y19.5135 
G01 X3.5980 Y19.3793 
G01 X3.4807 Y19.2620 
G01 X3.3465 Y19.1645 
G01 X3.1986 Y19.0891 
G01 X3.0408 Y19.0379 
G01 X2.8770 Y19.0119 
G01 X2.7110 Y19.0119 
G01 X2.5472 Y19.0379 
G01 X2.3894 Y19.0891 
G01 X2.2415 Y19.1645 
G01 X2.1073 Y19.2620 
G01 X1.9900 Y19.3793 
G01 X1.8925 Y19.5135 
G01 X1.8171 Y19.6614 
G01 X1.8053 Y19.6977 
G01 X1.7786 Y19.6977 
G01 X1.7936 Y19.6516 
G01 X1.8707 Y19.5002 
G01 X1.9706 Y19.3627 
G01 X2.0907 Y19.2426 
G01 X2.2282 Y19.1427 
G01 X2.3776 Y19.0666 
G01 X2.3817 Y19.0649 
G01 X2.4096 Y19.0558 
G01 X2.4202 Y19.0490 
G01 X2.4319 Y19.0441 
G01 X2.4551 Y19.0263 
G01 X2.4797 Y19.0103 
G01 X2.4882 Y19.0009 
G01 X2.4982 Y18.9932 
G01 X2.5161 Y18.9700 
G01 X2.5357 Y18.9482 
G01 X2.5414 Y18.9369 
G01 X2.5491 Y18.9269 
G01 X2.5603 Y18.8998 
G01 X2.5736 Y18.8737 
G01 X2.5762 Y18.8613 
G01 X2.5811 Y18.8497 
G01 X2.5849 Y18.8206 
G01 X2.5910 Y18.7919 
G01 X2.5903 Y18.7793 
G01 X2.5920 Y18.7668 
G01 X2.5882 Y18.7377 
G01 X2.5866 Y18.7084 
G01 X2.5827 Y18.6964 
G01 X2.5811 Y18.6839 
G01 X2.5699 Y18.6568 
G01 X2.5608 Y18.6289 
G01 X2.5539 Y18.6183 
G01 X2.5491 Y18.6067 
G01 X2.5312 Y18.5834 
G01 X2.5153 Y18.5588 
G01 X2.5059 Y18.5504 
G01 X2.4982 Y18.5404 
G01 X2.4934 Y18.5367 
G01 X2.5472 Y18.5541 
G01 X2.7110 Y18.5801 
G01 X2.8770 Y18.5801 
G01 X3.0408 Y18.5541 
G01 X3.0946 Y18.5367 
G00 Z2.5400 
G00 X3.7827 Y20.4343 
G01 Z-0.1778 F254.00 
G01 X3.8094 Y20.4343 F508.00 
G01 X3.7944 Y20.4804 
G01 X3.7173 Y20.6318 
G01 X3.6174 Y20.7693 
G01 X3.4973 Y20.8894 
G01 X3.3598 Y20.9893 
G01 X3.2104 Y21.0654 
G01 X3.2063 Y21.0671 
G01 X3.1784 Y21.0762 
G01 X3.1678 Y21.0830 
G01 X3.1561 Y21.0879 
G01 X3.1328 Y21.1057 
G01 X3.1083 Y21.1217 
G01 X3.0998 Y21.1311 
G01 X3.0898 Y21.1388 
G01 X3.0719 Y21.1620 
G01 X3.0523 Y21.1838 
G01 X3.0466 Y21.1951 
G01 X3.0389 Y21.2051 
G01 X3.0277 Y21.2322 
G01 X3.0144 Y21.2583 
G01 X3.0117 Y21.2706 
G01 X3.0069 Y21.2823 
G01 X3.0031 Y21.3114 
G01 X2.9970 Y21.3401 
G01 X2.9976 Y21.3527 
G01 X2.9960 Y21.3652 
G01 X2.9998 Y21.3943 
G01 X3.0014 Y21.4235 
G01 X3.0053 Y21.4356 
G01 X3.0069 Y21.4481 
G01 X3.0181 Y21.4752 
G01 X3.0272 Y21.5031 
G01 X3.0341 Y21.5136 
G01 X3.0389 Y21.5253 
G01 X3.0568 Y21.5486 
G01 X3.0727 Y21.5732 
G01 X3.0821 Y21.5816 
G01 X3.0898 Y21.5916 
G01 X3.0946 Y21.5953 
G01 X3.0408 Y21.5779 
G01 X2.8770 Y21.5519 
G01 X2.7110 Y21.5519 
G01 X2.5472 Y21.5779 
G01 X2.4934 Y21.5953 
G01 X2.4982 Y21.5916 
G01 X2.5059 Y21.5816 
G01 X2.5153 Y21.5732 
G01 X2.5312 Y21.5486 
G01 X2.5491 Y21.5253 
G01 X2.5539 Y21.5136 
G01 X2.5608 Y21.5031 
G01 X2.5699 Y21.4752 
G01 X2.5811 Y21.4481 
G01 X2.5827 Y21.4356 
G01 X2.5866 Y21.4235 
G01 X2.5882 Y21.3943 
G01 X2.5920 Y21.3652 
G01 X2.5903 Y21.3527 
G01 X2.5910 Y21.3401 
G01 X2.5849 Y21.3114 
G01 X2.5811 Y21.2823 
G01 X2.5762 Y21.2706 
G01 X2.5736 Y21.2583 
G01 X2.5603 Y21.2322 
G01 X2.5491 Y21.2051 
G01 X2.5414 Y21.1951 
G01 X2.5357 Y21.1838 
G01 X2.5161 Y21.1620 
G01 X2.4982 Y21.1388 
G01 X2.4882 Y21.1311 
G01 X2.4797 Y21.1217 
G01 X2.4552 Y21.1057 
G01 X2.4319 Y21.0879 
G01 X2.4202 Y21.0830 
G01 X2.4096 Y21.0762 
G01 X2.3817 Y21.0671 
G01 X2.3776 Y21.0654 
G01 X2.2282 Y20.9893 
G01 X2.0907 Y20.8894 
G01 X1.9706 Y20.7693 
G01 X1.8707 Y20.6318 
G01 X1.7936 Y20.4804 
G01 X1.7786 Y20.4343 
G01 X1.8053 Y20.4343 
G01 X1.8171 Y20.4706 
G01 X1.8925 Y20.6185 
G01 X1.9900 Y20.7527 
G01 X2.1073 Y20.8700 
G01 X2.2415 Y20.9675 
G01 X2.3894 Y21.0429 
G01 X2.5472 Y21.0941 
G01 X2.7110 Y21.1201 
G01 X2.8770 Y21.1201 
G01 X3.0408 Y21.0941 
G01 X3.1986 Y21.0429 
G01 X3.3465 Y20.9675 
G01 X3.4807 Y20.8700 
G01 X3.5980 Y20.7527 
G01 X3.6955 Y20.6185 
G01 X3.7709 Y20.4706 
G01 X3.7827 Y20.4343 
G00 Z2.5400 
G00 X3.7837 Y22.1414 
G01 Z-0.1778 F254.00 
G01 X3.8031 Y22.1495 F508.00 
G01 X3.8213 Y22.1599 
G01 X3.8415 Y22.1654 
G01 X3.8609 Y22.1734 
G01 X3.8817 Y22.1761 
G01 X3.9020 Y22.1816 
G01 X3.9230 Y22.1816 
G01 X3.9438 Y22.1843 
G01 X3.9646 Y22.1816 
G01 X3.9856 Y22.1816 
G01 X4.0059 Y22.1762 
G01 X4.0267 Y22.1734 
G01 X4.0461 Y22.1654 
G01 X4.0591 Y22.1619 
G01 X3.9325 Y22.2885 
G01 X3.7992 Y22.2885 
G01 X3.7709 Y22.2014 
G01 X3.7085 Y22.0790 
G01 X3.7173 Y22.0905 
G01 X3.7340 Y22.1033 
G01 X3.7489 Y22.1181 
G01 X3.7670 Y22.1286 
G01 X3.7837 Y22.1414 
G00 Z2.5400 
G00 X3.7992 Y22.9235 
G01 Z-0.1778 F254.00 
G01 X3.8695 Y22.9235 F508.00 
G01 X3.8579 Y22.9302 
G01 X3.8385 Y22.9383 
G01 X3.8218 Y22.9510 
G01 X3.8037 Y22.9615 
G01 X3.7888 Y22.9764 
G01 X3.7797 Y22.9833 
G01 X3.7992 Y22.9235 
G00 Z2.5400 
G00 X3.7513 Y26.3546 
G01 Z-0.1778 F254.00 
G01 X3.8714 Y26.4747 F508.00 
G01 X3.9713 Y26.6122 
G01 X4.0484 Y26.7636 
G01 X4.0634 Y26.8097 
G01 X4.0367 Y26.8097 
G01 X4.0249 Y26.7734 
G01 X3.9495 Y26.6255 
G01 X3.8520 Y26.4913 
G01 X3.7347 Y26.3740 
G01 X3.6005 Y26.2765 
G01 X3.4526 Y26.2011 
G01 X3.4163 Y26.1893 
G01 X3.4163 Y26.1626 
G01 X3.4624 Y26.1776 
G01 X3.6138 Y26.2547 
G01 X3.7513 Y26.3546 
G00 Z2.5400 
G00 X2.6797 Y26.1893 
G01 Z-0.1778 F254.00 
G01 X2.6434 Y26.2011 F508.00 
G01 X2.4955 Y26.2765 
G01 X2.3613 Y26.3740 
G01 X2.2440 Y26.4913 
G01 X2.1465 Y26.6255 
G01 X2.0711 Y26.7734 
G01 X2.0593 Y26.8097 
G01 X2.0326 Y26.8097 
G01 X2.0476 Y26.7636 
G01 X2.1247 Y26.6122 
G01 X2.2246 Y26.4747 
G01 X2.3447 Y26.3546 
G01 X2.4822 Y26.2547 
G01 X2.6336 Y26.1776 
G01 X2.6797 Y26.1626 
G01 X2.6797 Y26.1893 
G00 Z2.5400 
G00 X2.0593 Y27.5463 
G01 Z-0.1778 F254.00 
G01 X2.0711 Y27.5826 F508.00 
G01 X2.1465 Y27.7305 
G01 X2.2440 Y27.8647 
G01 X2.3613 Y27.9820 
G01 X2.4955 Y28.0795 
G01 X2.6434 Y28.1549 
G01 X2.8012 Y28.2061 
G01 X2.9650 Y28.2321 
G01 X3.1310 Y28.2321 
G01 X3.2948 Y28.2061 
G01 X3.4526 Y28.1549 
G01 X3.6005 Y28.0795 
G01 X3.7347 Y27.9820 
G01 X3.8520 Y27.8647 
G01 X3.9495 Y27.7305 
G01 X4.0249 Y27.5826 
G01 X4.0367 Y27.5463 
G01 X4.0634 Y27.5463 
G01 X4.0484 Y27.5924 
G01 X3.9777 Y27.7312 
G01 X3.9632 Y27.7549 
G01 X3.9484 Y27.7752 
G01 X3.9424 Y27.7910 
G01 X3.9340 Y27.8055 
G01 X3.9274 Y27.8298 
G01 X3.9184 Y27.8533 
G01 X3.9167 Y27.8700 
G01 X3.9123 Y27.8863 
G01 X3.9123 Y27.9114 
G01 X3.9097 Y27.9364 
G01 X3.9123 Y27.9531 
G01 X3.9123 Y27.9699 
G01 X3.9188 Y27.9942 
G01 X3.9228 Y28.0190 
G01 X3.9296 Y28.0344 
G01 X3.9340 Y28.0506 
G01 X3.9465 Y28.0724 
G01 X3.9567 Y28.0954 
G01 X3.9673 Y28.1085 
G01 X3.9758 Y28.1230 
G01 X3.9935 Y28.1408 
G01 X4.0094 Y28.1604 
G01 X4.0230 Y28.1703 
G01 X4.0349 Y28.1821 
G01 X4.0566 Y28.1947 
G01 X4.0770 Y28.2095 
G01 X4.0927 Y28.2155 
G01 X4.1073 Y28.2239 
G01 X4.1315 Y28.2304 
G01 X4.1550 Y28.2395 
G01 X4.1718 Y28.2412 
G01 X4.1880 Y28.2456 
G01 X4.2132 Y28.2456 
G01 X4.2382 Y28.2482 
G01 X4.2548 Y28.2456 
G01 X4.2716 Y28.2456 
G01 X4.2959 Y28.2391 
G01 X4.3207 Y28.2351 
G01 X4.3361 Y28.2283 
G01 X4.3451 Y28.2259 
G01 X3.6897 Y28.8813 
G01 X3.6005 Y28.8165 
G01 X3.4526 Y28.7411 
G01 X3.2948 Y28.6899 
G01 X3.1310 Y28.6639 
G01 X2.9650 Y28.6639 
G01 X2.8012 Y28.6899 
G01 X2.7474 Y28.7073 
G01 X2.7522 Y28.7036 
G01 X2.7599 Y28.6936 
G01 X2.7693 Y28.6852 
G01 X2.7852 Y28.6606 
G01 X2.8031 Y28.6373 
G01 X2.8079 Y28.6256 
G01 X2.8148 Y28.6151 
G01 X2.8239 Y28.5872 
G01 X2.8351 Y28.5601 
G01 X2.8367 Y28.5476 
G01 X2.8406 Y28.5355 
G01 X2.8422 Y28.5063 
G01 X2.8460 Y28.4772 
G01 X2.8443 Y28.4647 
G01 X2.8450 Y28.4521 
G01 X2.8389 Y28.4234 
G01 X2.8351 Y28.3943 
G01 X2.8302 Y28.3826 
G01 X2.8276 Y28.3703 
G01 X2.8143 Y28.3442 
G01 X2.8031 Y28.3171 
G01 X2.7954 Y28.3071 
G01 X2.7897 Y28.2958 
G01 X2.7701 Y28.2740 
G01 X2.7522 Y28.2508 
G01 X2.7422 Y28.2431 
G01 X2.7337 Y28.2337 
G01 X2.7092 Y28.2177 
G01 X2.6859 Y28.1999 
G01 X2.6742 Y28.1950 
G01 X2.6636 Y28.1882 
G01 X2.6357 Y28.1791 
G01 X2.6316 Y28.1774 
G01 X2.4822 Y28.1013 
G01 X2.3447 Y28.0014 
G01 X2.2246 Y27.8813 
G01 X2.1247 Y27.7438 
G01 X2.0476 Y27.5924 
G01 X2.0326 Y27.5463 
G01 X2.0593 Y27.5463 
G00 Z2.5400 
G00 X4.0964 Y29.3726 
G01 Z-0.1778 F254.00 
G01 X4.0767 Y29.4461 F508.00 
G01 X4.0767 Y29.4747 
G01 X4.0761 Y29.4712 
G01 X4.0569 Y29.4121 
G01 X4.0964 Y29.3726 
G00 Z2.5400 
G00 X3.2930 Y30.7464 
G01 Z-0.1778 F254.00 
G01 X3.2733 Y30.7615 F508.00 
G01 X3.2233 Y30.8267 
G01 X3.1904 Y30.9051 
G01 X3.1895 Y30.9121 
G01 X3.1795 Y30.9880 
G01 X3.1904 Y31.0709 
G01 X3.2224 Y31.1481 
G01 X3.2449 Y31.1774 
G01 X3.2733 Y31.2144 
G01 X3.2930 Y31.2296 
G01 X3.1310 Y31.2039 
G01 X2.9650 Y31.2039 
G01 X2.8030 Y31.2296 
G01 X2.8227 Y31.2144 
G01 X2.8519 Y31.1764 
G01 X2.8736 Y31.1481 
G01 X2.9047 Y31.0731 
G01 X2.9065 Y31.0639 
G01 X2.9165 Y30.9880 
G01 X2.9056 Y30.9051 
G01 X2.8736 Y30.8279 
G01 X2.8227 Y30.7615 
G01 X2.8030 Y30.7464 
G01 X2.9650 Y30.7721 
G01 X3.1310 Y30.7721 
G01 X3.2930 Y30.7464 
G00 Z2.5400 
G00 X4.0337 Y31.8806 
G01 Z-0.1778 F254.00 
G01 X4.0428 Y31.8876 F508.00 
G01 X4.0577 Y31.9025 
G01 X4.0758 Y31.9129 
G01 X4.0925 Y31.9257 
G01 X4.1119 Y31.9338 
G01 X4.1235 Y31.9405 
G01 X4.0532 Y31.9405 
G01 X4.0337 Y31.8806 
G00 Z2.5400 
G00 X4.0532 Y32.5755 
G01 Z-0.1778 F254.00 
G01 X4.1235 Y32.5755 F508.00 
G01 X4.1119 Y32.5822 
G01 X4.0925 Y32.5903 
G01 X4.0758 Y32.6031 
G01 X4.0577 Y32.6135 
G01 X4.0428 Y32.6284 
G01 X4.0337 Y32.6354 
G01 X4.0532 Y32.5755 
G00 Z2.5400 
G00 X3.3486 Y33.2687 
G01 Z-0.1778 F254.00 
G01 X3.3438 Y33.2723 F508.00 
G01 X3.3361 Y33.2824 
G01 X3.3267 Y33.2908 
G01 X3.3108 Y33.3154 
G01 X3.2929 Y33.3387 
G01 X3.2881 Y33.3503 
G01 X3.2812 Y33.3609 
G01 X3.2721 Y33.3888 
G01 X3.2609 Y33.4159 
G01 X3.2593 Y33.4284 
G01 X3.2554 Y33.4404 
G01 X3.2538 Y33.4697 
G01 X3.2500 Y33.4988 
G01 X3.2516 Y33.5113 
G01 X3.2510 Y33.5239 
G01 X3.2571 Y33.5526 
G01 X3.2609 Y33.5817 
G01 X3.2657 Y33.5933 
G01 X3.2684 Y33.6057 
G01 X3.2817 Y33.6318 
G01 X3.2929 Y33.6589 
G01 X3.3006 Y33.6689 
G01 X3.3063 Y33.6802 
G01 X3.3259 Y33.7020 
G01 X3.3438 Y33.7252 
G01 X3.3538 Y33.7329 
G01 X3.3623 Y33.7423 
G01 X3.3868 Y33.7583 
G01 X3.4101 Y33.7761 
G01 X3.4218 Y33.7810 
G01 X3.4324 Y33.7878 
G01 X3.4603 Y33.7969 
G01 X3.4644 Y33.7986 
G01 X3.6138 Y33.8747 
G01 X3.7513 Y33.9746 
G01 X3.8714 Y34.0947 
G01 X3.9713 Y34.2322 
G01 X4.0484 Y34.3836 
G01 X4.0634 Y34.4297 
G01 X4.0367 Y34.4297 
G01 X4.0249 Y34.3934 
G01 X3.9495 Y34.2455 
G01 X3.8520 Y34.1113 
G01 X3.7347 Y33.9940 
G01 X3.6005 Y33.8965 
G01 X3.4526 Y33.8211 
G01 X3.2948 Y33.7699 
G01 X3.1310 Y33.7439 
G01 X2.9650 Y33.7439 
G01 X2.8012 Y33.7699 
G01 X2.6434 Y33.8211 
G01 X2.4955 Y33.8965 
G01 X2.3613 Y33.9940 
G01 X2.2440 Y34.1113 
G01 X2.1465 Y34.2455 
G01 X2.0711 Y34.3934 
G01 X2.0593 Y34.4297 
G01 X2.0326 Y34.4297 
G01 X2.0476 Y34.3836 
G01 X2.1247 Y34.2322 
G01 X2.2246 Y34.0947 
G01 X2.3447 Y33.9746 
G01 X2.4822 Y33.8747 
G01 X2.6316 Y33.7986 
G01 X2.6357 Y33.7969 
G01 X2.6636 Y33.7878 
G01 X2.6742 Y33.7810 
G01 X2.6859 Y33.7761 
G01 X2.7092 Y33.7583 
G01 X2.7337 Y33.7423 
G01 X2.7422 Y33.7329 
G01 X2.7522 Y33.7252 
G01 X2.7701 Y33.7020 
G01 X2.7897 Y33.6802 
G01 X2.7954 Y33.6689 
G01 X2.8031 Y33.6589 
G01 X2.8143 Y33.6318 
G01 X2.8276 Y33.6057 
G01 X2.8302 Y33.5933 
G01 X2.8351 Y33.5817 
G01 X2.8389 Y33.5526 
G01 X2.8450 Y33.5239 
G01 X2.8443 Y33.5113 
G01 X2.8460 Y33.4988 
G01 X2.8422 Y33.4697 
G01 X2.8406 Y33.4404 
G01 X2.8367 Y33.4284 
G01 X2.8351 Y33.4159 
G01 X2.8239 Y33.3888 
G01 X2.8148 Y33.3609 
G01 X2.8079 Y33.3503 
G01 X2.8031 Y33.3387 
G01 X2.7852 Y33.3154 
G01 X2.7693 Y33.2908 
G01 X2.7599 Y33.2824 
G01 X2.7522 Y33.2723 
G01 X2.7474 Y33.2687 
G01 X2.8012 Y33.2861 
G01 X2.9650 Y33.3121 
G01 X3.1310 Y33.3121 
G01 X3.2948 Y33.2861 
G01 X3.3486 Y33.2687 
G00 Z2.5400 
G00 X4.0367 Y35.1663 
G01 Z-0.1778 F254.00 
G01 X4.0634 Y35.1663 F508.00 
G01 X4.0484 Y35.2124 
G01 X3.9713 Y35.3638 
G01 X3.8714 Y35.5012 
G01 X3.7513 Y35.6214 
G01 X3.6138 Y35.7213 
G01 X3.4644 Y35.7974 
G01 X3.4603 Y35.7991 
G01 X3.4324 Y35.8082 
G01 X3.4218 Y35.8150 
G01 X3.4101 Y35.8199 
G01 X3.3868 Y35.8377 
G01 X3.3623 Y35.8537 
G01 X3.3538 Y35.8631 
G01 X3.3438 Y35.8708 
G01 X3.3259 Y35.8940 
G01 X3.3063 Y35.9158 
G01 X3.3006 Y35.9271 
G01 X3.2929 Y35.9371 
G01 X3.2817 Y35.9642 
G01 X3.2684 Y35.9903 
G01 X3.2657 Y36.0026 
G01 X3.2609 Y36.0143 
G01 X3.2571 Y36.0434 
G01 X3.2510 Y36.0721 
G01 X3.2516 Y36.0847 
G01 X3.2500 Y36.0972 
G01 X3.2538 Y36.1263 
G01 X3.2554 Y36.1555 
G01 X3.2593 Y36.1676 
G01 X3.2609 Y36.1801 
G01 X3.2721 Y36.2072 
G01 X3.2812 Y36.2351 
G01 X3.2881 Y36.2456 
G01 X3.2929 Y36.2573 
G01 X3.3108 Y36.2806 
G01 X3.3267 Y36.3052 
G01 X3.3361 Y36.3136 
G01 X3.3438 Y36.3236 
G01 X3.3486 Y36.3273 
G01 X3.2948 Y36.3099 
G01 X3.1310 Y36.2839 
G01 X2.9650 Y36.2839 
G01 X2.8012 Y36.3099 
G01 X2.7474 Y36.3273 
G01 X2.7522 Y36.3236 
G01 X2.7599 Y36.3136 
G01 X2.7693 Y36.3052 
G01 X2.7852 Y36.2806 
G01 X2.8031 Y36.2573 
G01 X2.8079 Y36.2456 
G01 X2.8148 Y36.2351 
G01 X2.8239 Y36.2072 
G01 X2.8351 Y36.1801 
G01 X2.8367 Y36.1676 
G01 X2.8406 Y36.1555 
G01 X2.8422 Y36.1263 
G01 X2.8460 Y36.0972 
G01 X2.8443 Y36.0847 
G01 X2.8450 Y36.0721 
G01 X2.8389 Y36.0434 
G01 X2.8351 Y36.0143 
G01 X2.8302 Y36.0026 
G01 X2.8276 Y35.9903 
G01 X2.8143 Y35.9642 
G01 X2.8031 Y35.9371 
G01 X2.7954 Y35.9271 
G01 X2.7897 Y35.9158 
G01 X2.7701 Y35.8940 
G01 X2.7522 Y35.8708 
G01 X2.7422 Y35.8631 
G01 X2.7337 Y35.8537 
G01 X2.7092 Y35.8377 
G01 X2.6859 Y35.8199 
G01 X2.6742 Y35.8150 
G01 X2.6636 Y35.8082 
G01 X2.6357 Y35.7991 
G01 X2.6316 Y35.7974 
G01 X2.4822 Y35.7213 
G01 X2.3447 Y35.6214 
G01 X2.2246 Y35.5013 
G01 X2.1247 Y35.3638 
G01 X2.0476 Y35.2124 
G01 X2.0326 Y35.1663 
G01 X2.0593 Y35.1663 
G01 X2.0711 Y35.2026 
G01 X2.1465 Y35.3505 
G01 X2.2440 Y35.4847 
G01 X2.3613 Y35.6020 
G01 X2.4955 Y35.6995 
G01 X2.6434 Y35.7749 
G01 X2.8012 Y35.8261 
G01 X2.9650 Y35.8521 
G01 X3.1310 Y35.8521 
G01 X3.2948 Y35.8261 
G01 X3.4526 Y35.7749 
G01 X3.6005 Y35.6995 
G01 X3.7347 Y35.6020 
G01 X3.8520 Y35.4847 
G01 X3.9495 Y35.3505 
G01 X4.0249 Y35.2026 
G01 X4.0367 Y35.1663 
G00 Z2.5400 
G00 X4.0337 Y36.9606 
G01 Z-0.1778 F254.00 
G01 X4.0428 Y36.9676 F508.00 
G01 X4.0577 Y36.9825 
G01 X4.0758 Y36.9929 
G01 X4.0925 Y37.0057 
G01 X4.1119 Y37.0138 
G01 X4.1235 Y37.0205 
G01 X4.0532 Y37.0205 
G01 X4.0337 Y36.9606 
G00 Z2.5400 
G00 X4.0532 Y37.6555 
G01 Z-0.1778 F254.00 
G01 X4.1235 Y37.6555 F508.00 
G01 X4.1119 Y37.6622 
G01 X4.0925 Y37.6703 
G01 X4.0758 Y37.6830 
G01 X4.0577 Y37.6935 
G01 X4.0428 Y37.7084 
G01 X4.0337 Y37.7153 
G01 X4.0532 Y37.6555 
G00 Z2.5400 
G00 X4.0053 Y40.8326 
G01 Z-0.1778 F254.00 
G01 X4.1254 Y40.9527 F508.00 
G01 X4.2253 Y41.0902 
G01 X4.3024 Y41.2416 
G01 X4.3174 Y41.2877 
G01 X4.2907 Y41.2877 
G01 X4.2789 Y41.2514 
G01 X4.2035 Y41.1035 
G01 X4.1060 Y40.9693 
G01 X3.9887 Y40.8520 
G01 X3.8545 Y40.7545 
G01 X3.7066 Y40.6791 
G01 X3.6703 Y40.6673 
G01 X3.6703 Y40.6406 
G01 X3.7164 Y40.6556 
G01 X3.8678 Y40.7327 
G01 X4.0053 Y40.8326 
G00 Z2.5400 
G00 X2.9337 Y40.6673 
G01 Z-0.1778 F254.00 
G01 X2.8974 Y40.6791 F508.00 
G01 X2.7495 Y40.7545 
G01 X2.6153 Y40.8520 
G01 X2.4980 Y40.9693 
G01 X2.4005 Y41.1035 
G01 X2.3251 Y41.2514 
G01 X2.3133 Y41.2877 
G01 X2.2866 Y41.2877 
G01 X2.3016 Y41.2416 
G01 X2.3787 Y41.0902 
G01 X2.4786 Y40.9527 
G01 X2.5987 Y40.8326 
G01 X2.7362 Y40.7327 
G01 X2.8876 Y40.6556 
G01 X2.9337 Y40.6406 
G01 X2.9337 Y40.6673 
G00 Z2.5400 
G00 X2.3133 Y42.0243 
G01 Z-0.1778 F254.00 
G01 X2.3251 Y42.0606 F508.00 
G01 X2.4005 Y42.2085 
G01 X2.4980 Y42.3427 
G01 X2.6153 Y42.4600 
G01 X2.7495 Y42.5575 
G01 X2.8974 Y42.6329 
G01 X3.0552 Y42.6841 
G01 X3.2190 Y42.7101 
G01 X3.3850 Y42.7101 
G01 X3.5488 Y42.6841 
G01 X3.7066 Y42.6329 
G01 X3.8545 Y42.5575 
G01 X3.9887 Y42.4600 
G01 X4.1060 Y42.3427 
G01 X4.2035 Y42.2085 
G01 X4.2789 Y42.0606 
G01 X4.2907 Y42.0243 
G01 X4.3174 Y42.0243 
G01 X4.3024 Y42.0704 
G01 X4.2253 Y42.2218 
G01 X4.1254 Y42.3593 
G01 X4.0053 Y42.4794 
G01 X3.8678 Y42.5793 
G01 X3.7184 Y42.6554 
G01 X3.7143 Y42.6571 
G01 X3.6864 Y42.6662 
G01 X3.6758 Y42.6730 
G01 X3.6641 Y42.6779 
G01 X3.6408 Y42.6957 
G01 X3.6163 Y42.7117 
G01 X3.6078 Y42.7211 
G01 X3.5978 Y42.7288 
G01 X3.5799 Y42.7520 
G01 X3.5603 Y42.7738 
G01 X3.5546 Y42.7851 
G01 X3.5469 Y42.7951 
G01 X3.5357 Y42.8222 
G01 X3.5224 Y42.8483 
G01 X3.5197 Y42.8606 
G01 X3.5149 Y42.8723 
G01 X3.5111 Y42.9014 
G01 X3.5050 Y42.9301 
G01 X3.5056 Y42.9427 
G01 X3.5040 Y42.9552 
G01 X3.5078 Y42.9843 
G01 X3.5094 Y43.0135 
G01 X3.5133 Y43.0256 
G01 X3.5149 Y43.0381 
G01 X3.5261 Y43.0652 
G01 X3.5352 Y43.0931 
G01 X3.5421 Y43.1036 
G01 X3.5469 Y43.1153 
G01 X3.5648 Y43.1386 
G01 X3.5807 Y43.1632 
G01 X3.5901 Y43.1716 
G01 X3.5978 Y43.1816 
G01 X3.6026 Y43.1853 
G01 X3.5488 Y43.1679 
G01 X3.3850 Y43.1419 
G01 X3.2190 Y43.1419 
G01 X3.0552 Y43.1679 
G01 X3.0014 Y43.1853 
G01 X3.0062 Y43.1816 
G01 X3.0139 Y43.1716 
G01 X3.0233 Y43.1632 
G01 X3.0392 Y43.1386 
G01 X3.0571 Y43.1153 
G01 X3.0619 Y43.1036 
G01 X3.0688 Y43.0931 
G01 X3.0779 Y43.0652 
G01 X3.0891 Y43.0381 
G01 X3.0907 Y43.0256 
G01 X3.0946 Y43.0135 
G01 X3.0962 Y42.9843 
G01 X3.1000 Y42.9552 
G01 X3.0983 Y42.9427 
G01 X3.0990 Y42.9301 
G01 X3.0929 Y42.9014 
G01 X3.0891 Y42.8723 
G01 X3.0843 Y42.8606 
G01 X3.0816 Y42.8483 
G01 X3.0683 Y42.8222 
G01 X3.0571 Y42.7951 
G01 X3.0494 Y42.7851 
G01 X3.0437 Y42.7738 
G01 X3.0241 Y42.7520 
G01 X3.0062 Y42.7288 
G01 X2.9962 Y42.7211 
G01 X2.9877 Y42.7117 
G01 X2.9632 Y42.6957 
G01 X2.9399 Y42.6779 
G01 X2.9282 Y42.6730 
G01 X2.9176 Y42.6662 
G01 X2.8897 Y42.6571 
G01 X2.8856 Y42.6554 
G01 X2.7362 Y42.5793 
G01 X2.5987 Y42.4794 
G01 X2.4786 Y42.3593 
G01 X2.3787 Y42.2218 
G01 X2.3016 Y42.0704 
G01 X2.2866 Y42.0243 
G01 X2.3133 Y42.0243 
G00 Z2.5400 
G00 X4.1668 Y43.5929 
G01 Z-0.1778 F254.00 
G01 X4.2067 Y43.6160 F508.00 
G01 X4.2890 Y43.6385 
G01 X4.3727 Y43.6385 
G01 X4.4461 Y43.6188 
G01 X4.2771 Y43.7879 
G01 X4.2035 Y43.6435 
G01 X4.1668 Y43.5929 
G00 Z2.5400 
G00 X4.3072 Y44.5135 
G01 Z-0.1778 F254.00 
G01 X4.3358 Y44.5135 F508.00 
G01 X4.3241 Y44.5225 
G01 X4.2977 Y44.5427 
G01 X4.3072 Y44.5135 
G00 Z2.5400 
G00 X3.5470 Y45.2244 
G01 Z-0.1778 F254.00 
G01 X3.5273 Y45.2396 F508.00 
G01 X3.4889 Y45.2895 
G01 X3.4764 Y45.3059 
G01 X3.4573 Y45.3520 
G01 X3.4444 Y45.3831 
G01 X3.4335 Y45.4660 
G01 X3.4444 Y45.5489 
G01 X3.4580 Y45.5818 
G01 X3.4764 Y45.6261 
G01 X3.5273 Y45.6924 
G01 X3.5470 Y45.7076 
G01 X3.3850 Y45.6819 
G01 X3.2190 Y45.6819 
G01 X3.0570 Y45.7076 
G01 X3.0767 Y45.6924 
G01 X3.1276 Y45.6261 
G01 X3.1467 Y45.5799 
G01 X3.1596 Y45.5489 
G01 X3.1705 Y45.4660 
G01 X3.1596 Y45.3831 
G01 X3.1460 Y45.3502 
G01 X3.1276 Y45.3059 
G01 X3.1165 Y45.2914 
G01 X3.0767 Y45.2396 
G01 X3.0570 Y45.2244 
G01 X3.2190 Y45.2501 
G01 X3.3850 Y45.2501 
G01 X3.5470 Y45.2244 
G00 Z2.5400 
G00 X4.0886 Y46.0318 
G01 Z-0.1778 F254.00 
G01 X4.1620 Y46.0515 F508.00 
G01 X4.2457 Y46.0515 
G01 X4.2682 Y46.0455 
G01 X4.3191 Y46.0318 
G01 X4.1884 Y46.1626 
G01 X4.1060 Y46.0493 
G01 X4.0886 Y46.0318 
G00 Z2.5400 
G00 X4.3432 Y46.9058 
G01 Z-0.1778 F254.00 
G01 X4.3411 Y46.9138 F508.00 
G01 X4.3422 Y46.9068 
G00 Z2.5400 
G00 X3.6026 Y47.7467 
G01 Z-0.1778 F254.00 
G01 X3.5978 Y47.7503 F508.00 
G01 X3.5901 Y47.7604 
G01 X3.5807 Y47.7688 
G01 X3.5648 Y47.7934 
G01 X3.5469 Y47.8167 
G01 X3.5421 Y47.8284 
G01 X3.5352 Y47.8389 
G01 X3.5261 Y47.8668 
G01 X3.5149 Y47.8939 
G01 X3.5133 Y47.9064 
G01 X3.5094 Y47.9184 
G01 X3.5078 Y47.9477 
G01 X3.5040 Y47.9768 
G01 X3.5056 Y47.9893 
G01 X3.5050 Y48.0019 
G01 X3.5111 Y48.0306 
G01 X3.5149 Y48.0597 
G01 X3.5197 Y48.0713 
G01 X3.5224 Y48.0837 
G01 X3.5357 Y48.1098 
G01 X3.5469 Y48.1369 
G01 X3.5546 Y48.1469 
G01 X3.5603 Y48.1582 
G01 X3.5799 Y48.1800 
G01 X3.5978 Y48.2032 
G01 X3.6078 Y48.2109 
G01 X3.6163 Y48.2203 
G01 X3.6408 Y48.2363 
G01 X3.6641 Y48.2541 
G01 X3.6758 Y48.2590 
G01 X3.6864 Y48.2658 
G01 X3.7143 Y48.2749 
G01 X3.7184 Y48.2766 
G01 X3.8678 Y48.3527 
G01 X4.0053 Y48.4526 
G01 X4.1254 Y48.5727 
G01 X4.2253 Y48.7102 
G01 X4.3024 Y48.8616 
G01 X4.3174 Y48.9077 
G01 X4.2907 Y48.9077 
G01 X4.2789 Y48.8714 
G01 X4.2035 Y48.7235 
G01 X4.1060 Y48.5893 
G01 X3.9887 Y48.4720 
G01 X3.8545 Y48.3745 
G01 X3.7066 Y48.2991 
G01 X3.5488 Y48.2479 
G01 X3.3850 Y48.2219 
G01 X3.2190 Y48.2219 
G01 X3.0552 Y48.2479 
G01 X2.8974 Y48.2991 
G01 X2.7495 Y48.3745 
G01 X2.6153 Y48.4720 
G01 X2.4980 Y48.5893 
G01 X2.4005 Y48.7235 
G01 X2.3251 Y48.8714 
G01 X2.3133 Y48.9077 
G01 X2.2866 Y48.9077 
G01 X2.3016 Y48.8616 
G01 X2.3787 Y48.7102 
G01 X2.4786 Y48.5727 
G01 X2.5987 Y48.4526 
G01 X2.7362 Y48.3527 
G01 X2.8856 Y48.2766 
G01 X2.8897 Y48.2749 
G01 X2.9176 Y48.2658 
G01 X2.9282 Y48.2590 
G01 X2.9399 Y48.2541 
G01 X2.9632 Y48.2363 
G01 X2.9877 Y48.2203 
G01 X2.9962 Y48.2109 
G01 X3.0062 Y48.2032 
G01 X3.0241 Y48.1800 
G01 X3.0437 Y48.1582 
G01 X3.0494 Y48.1469 
G01 X3.0571 Y48.1369 
G01 X3.0683 Y48.1098 
G01 X3.0816 Y48.0837 
G01 X3.0842 Y48.0713 
G01 X3.0891 Y48.0597 
G01 X3.0929 Y48.0306 
G01 X3.0990 Y48.0019 
G01 X3.0983 Y47.9893 
G01 X3.1000 Y47.9768 
G01 X3.0962 Y47.9477 
G01 X3.0946 Y47.9184 
G01 X3.0907 Y47.9064 
G01 X3.0891 Y47.8939 
G01 X3.0779 Y47.8668 
G01 X3.0688 Y47.8389 
G01 X3.0619 Y47.8284 
G01 X3.0571 Y47.8167 
G01 X3.0392 Y47.7934 
G01 X3.0233 Y47.7688 
G01 X3.0139 Y47.7604 
G01 X3.0062 Y47.7503 
G01 X3.0014 Y47.7467 
G01 X3.0552 Y47.7641 
G01 X3.2190 Y47.7901 
G01 X3.3850 Y47.7901 
G01 X3.5488 Y47.7641 
G01 X3.6026 Y47.7467 
G00 Z2.5400 
G00 X4.2907 Y49.6443 
G01 Z-0.1778 F254.00 
G01 X4.3174 Y49.6443 F508.00 
G01 X4.3024 Y49.6904 
G01 X4.2253 Y49.8418 
G01 X4.1254 Y49.9793 
G01 X4.0053 Y50.0994 
G01 X3.8678 Y50.1993 
G01 X3.7184 Y50.2754 
G01 X3.7143 Y50.2771 
G01 X3.6864 Y50.2862 
G01 X3.6758 Y50.2930 
G01 X3.6641 Y50.2979 
G01 X3.6408 Y50.3157 
G01 X3.6163 Y50.3317 
G01 X3.6078 Y50.3411 
G01 X3.5978 Y50.3488 
G01 X3.5799 Y50.3720 
G01 X3.5603 Y50.3938 
G01 X3.5546 Y50.4051 
G01 X3.5469 Y50.4151 
G01 X3.5357 Y50.4422 
G01 X3.5224 Y50.4683 
G01 X3.5197 Y50.4807 
G01 X3.5149 Y50.4923 
G01 X3.5111 Y50.5214 
G01 X3.5050 Y50.5501 
G01 X3.5056 Y50.5627 
G01 X3.5040 Y50.5752 
G01 X3.5078 Y50.6043 
G01 X3.5094 Y50.6335 
G01 X3.5133 Y50.6456 
G01 X3.5149 Y50.6581 
G01 X3.5261 Y50.6852 
G01 X3.5352 Y50.7131 
G01 X3.5421 Y50.7236 
G01 X3.5469 Y50.7353 
G01 X3.5648 Y50.7586 
G01 X3.5807 Y50.7832 
G01 X3.5901 Y50.7916 
G01 X3.5978 Y50.8016 
G01 X3.6026 Y50.8053 
G01 X3.5488 Y50.7879 
G01 X3.3850 Y50.7619 
G01 X3.2190 Y50.7619 
G01 X3.0552 Y50.7879 
G01 X3.0014 Y50.8053 
G01 X3.0062 Y50.8016 
G01 X3.0139 Y50.7916 
G01 X3.0233 Y50.7832 
G01 X3.0392 Y50.7586 
G01 X3.0571 Y50.7353 
G01 X3.0619 Y50.7236 
G01 X3.0688 Y50.7131 
G01 X3.0779 Y50.6852 
G01 X3.0891 Y50.6581 
G01 X3.0907 Y50.6456 
G01 X3.0946 Y50.6335 
G01 X3.0962 Y50.6043 
G01 X3.1000 Y50.5752 
G01 X3.0983 Y50.5627 
G01 X3.0990 Y50.5501 
G01 X3.0929 Y50.5214 
G01 X3.0891 Y50.4923 
G01 X3.0842 Y50.4806 
G01 X3.0816 Y50.4683 
G01 X3.0683 Y50.4422 
G01 X3.0571 Y50.4151 
G01 X3.0494 Y50.4051 
G01 X3.0437 Y50.3938 
G01 X3.0241 Y50.3720 
G01 X3.0062 Y50.3488 
G01 X2.9962 Y50.3411 
G01 X2.9877 Y50.3317 
G01 X2.9632 Y50.3157 
G01 X2.9399 Y50.2979 
G01 X2.9282 Y50.2930 
G01 X2.9176 Y50.2862 
G01 X2.8898 Y50.2771 
G01 X2.8856 Y50.2754 
G01 X2.7362 Y50.1993 
G01 X2.5987 Y50.0994 
G01 X2.4786 Y49.9793 
G01 X2.3787 Y49.8418 
G01 X2.3016 Y49.6904 
G01 X2.2866 Y49.6443 
G01 X2.3133 Y49.6443 
G01 X2.3251 Y49.6806 
G01 X2.4005 Y49.8285 
G01 X2.4980 Y49.9627 
G01 X2.6153 Y50.0800 
G01 X2.7495 Y50.1775 
G01 X2.8974 Y50.2529 
G01 X3.0552 Y50.3041 
G01 X3.2190 Y50.3301 
G01 X3.3850 Y50.3301 
G01 X3.5488 Y50.3041 
G01 X3.7066 Y50.2529 
G01 X3.8545 Y50.1775 
G01 X3.9887 Y50.0800 
G01 X4.1060 Y49.9627 
G01 X4.2035 Y49.8285 
G01 X4.2789 Y49.6806 
G01 X4.2907 Y49.6443 
G00 Z2.5400 
G00 X4.2877 Y51.4386 
G01 Z-0.1778 F254.00 
G01 X4.2968 Y51.4456 F508.00 
G01 X4.3117 Y51.4605 
G01 X4.3298 Y51.4709 
G01 X4.3465 Y51.4837 
G01 X4.3659 Y51.4918 
G01 X4.3776 Y51.4985 
G01 X4.3072 Y51.4985 
G01 X4.2877 Y51.4386 
G00 Z2.5400 
G00 X4.3072 Y52.1335 
G01 Z-0.1778 F254.00 
G01 X4.3775 Y52.1335 F508.00 
G01 X4.3659 Y52.1402 
G01 X4.3465 Y52.1483 
G01 X4.3298 Y52.1610 
G01 X4.3117 Y52.1715 
G01 X4.2968 Y52.1864 
G01 X4.2877 Y52.1933 
G01 X4.3072 Y52.1335 
G00 Z2.5400 
G00 X4.1254 Y55.4307 
G01 Z-0.1778 F254.00 
G01 X4.2253 Y55.5682 F508.00 
G01 X4.3024 Y55.7196 
G01 X4.3174 Y55.7657 
G01 X4.2907 Y55.7657 
G01 X4.2789 Y55.7294 
G01 X4.2035 Y55.5815 
G01 X4.1060 Y55.4473 
G01 X3.9887 Y55.3300 
G01 X3.8545 Y55.2325 
G01 X3.7066 Y55.1571 
G01 X3.6703 Y55.1453 
G01 X3.6703 Y55.1186 
G01 X3.7164 Y55.1336 
G01 X3.8678 Y55.2107 
G01 X4.0053 Y55.3106 
G01 X4.1254 Y55.4307 
G00 Z2.5400 
G00 X4.2907 Y56.5023 
G01 Z-0.1778 F254.00 
G01 X4.3174 Y56.5023 F508.00 
G01 X4.3024 Y56.5484 
G01 X4.2253 Y56.6998 
G01 X4.1254 Y56.8373 
G01 X4.0053 Y56.9574 
G01 X3.8678 Y57.0573 
G01 X3.7184 Y57.1334 
G01 X3.7143 Y57.1351 
G01 X3.6864 Y57.1442 
G01 X3.6758 Y57.1510 
G01 X3.6641 Y57.1559 
G01 X3.6408 Y57.1737 
G01 X3.6163 Y57.1897 
G01 X3.6078 Y57.1991 
G01 X3.5978 Y57.2068 
G01 X3.5799 Y57.2300 
G01 X3.5603 Y57.2518 
G01 X3.5546 Y57.2631 
G01 X3.5469 Y57.2731 
G01 X3.5357 Y57.3002 
G01 X3.5224 Y57.3263 
G01 X3.5197 Y57.3386 
G01 X3.5149 Y57.3503 
G01 X3.5111 Y57.3794 
G01 X3.5050 Y57.4081 
G01 X3.5056 Y57.4207 
G01 X3.5040 Y57.4332 
G01 X3.5078 Y57.4623 
G01 X3.5094 Y57.4915 
G01 X3.5133 Y57.5036 
G01 X3.5149 Y57.5161 
G01 X3.5261 Y57.5432 
G01 X3.5352 Y57.5711 
G01 X3.5421 Y57.5816 
G01 X3.5469 Y57.5933 
G01 X3.5648 Y57.6166 
G01 X3.5807 Y57.6412 
G01 X3.5901 Y57.6496 
G01 X3.5978 Y57.6596 
G01 X3.6026 Y57.6633 
G01 X3.5488 Y57.6459 
G01 X3.3850 Y57.6199 
G01 X3.2190 Y57.6199 
G01 X3.0552 Y57.6459 
G01 X3.0014 Y57.6633 
G01 X3.0062 Y57.6596 
G01 X3.0139 Y57.6496 
G01 X3.0233 Y57.6412 
G01 X3.0392 Y57.6166 
G01 X3.0571 Y57.5933 
G01 X3.0619 Y57.5816 
G01 X3.0688 Y57.5711 
G01 X3.0779 Y57.5432 
G01 X3.0891 Y57.5161 
G01 X3.0907 Y57.5036 
G01 X3.0946 Y57.4915 
G01 X3.0962 Y57.4623 
G01 X3.1000 Y57.4332 
G01 X3.0983 Y57.4207 
G01 X3.0990 Y57.4081 
G01 X3.0929 Y57.3794 
G01 X3.0891 Y57.3503 
G01 X3.0842 Y57.3386 
G01 X3.0816 Y57.3263 
G01 X3.0683 Y57.3002 
G01 X3.0571 Y57.2731 
G01 X3.0494 Y57.2631 
G01 X3.0437 Y57.2518 
G01 X3.0241 Y57.2300 
G01 X3.0062 Y57.2068 
G01 X2.9962 Y57.1991 
G01 X2.9877 Y57.1897 
G01 X2.9632 Y57.1737 
G01 X2.9399 Y57.1559 
G01 X2.9282 Y57.1510 
G01 X2.9176 Y57.1442 
G01 X2.8897 Y57.1351 
G01 X2.8856 Y57.1334 
G01 X2.7362 Y57.0573 
G01 X2.5987 Y56.9574 
G01 X2.4786 Y56.8372 
G01 X2.3787 Y56.6998 
G01 X2.3016 Y56.5484 
G01 X2.2866 Y56.5023 
G01 X2.3133 Y56.5023 
G01 X2.3251 Y56.5386 
G01 X2.4005 Y56.6865 
G01 X2.4980 Y56.8207 
G01 X2.6153 Y56.9380 
G01 X2.7495 Y57.0355 
G01 X2.8974 Y57.1109 
G01 X3.0552 Y57.1621 
G01 X3.2190 Y57.1881 
G01 X3.3850 Y57.1881 
G01 X3.5488 Y57.1621 
G01 X3.7066 Y57.1109 
G01 X3.8545 Y57.0355 
G01 X3.9887 Y56.9380 
G01 X4.1060 Y56.8207 
G01 X4.2035 Y56.6865 
G01 X4.2789 Y56.5386 
G01 X4.2907 Y56.5023 
G00 Z2.5400 
G00 X4.2877 Y58.2966 
G01 Z-0.1778 F254.00 
G01 X4.2968 Y58.3036 F508.00 
G01 X4.3117 Y58.3185 
G01 X4.3298 Y58.3289 
G01 X4.3465 Y58.3417 
G01 X4.3659 Y58.3498 
G01 X4.3776 Y58.3565 
G01 X4.3072 Y58.3565 
G01 X4.2877 Y58.2966 
G00 Z2.5400 
G00 X4.3072 Y58.9915 
G01 Z-0.1778 F254.00 
G01 X4.3775 Y58.9915 F508.00 
G01 X4.3659 Y58.9982 
G01 X4.3465 Y59.0063 
G01 X4.3298 Y59.0190 
G01 X4.3117 Y59.0295 
G01 X4.2968 Y59.0444 
G01 X4.2877 Y59.0513 
G01 X4.3072 Y58.9915 
G00 Z2.5400 
G00 X3.5470 Y59.7024 
G01 Z-0.1778 F254.00 
G01 X3.5273 Y59.7176 F508.00 
G01 X3.4764 Y59.7839 
G01 X3.4444 Y59.8611 
G01 X3.4335 Y59.9440 
G01 X3.4444 Y60.0269 
G01 X3.4764 Y60.1041 
G01 X3.4845 Y60.1147 
G01 X3.5273 Y60.1704 
G01 X3.5470 Y60.1856 
G01 X3.3850 Y60.1599 
G01 X3.2190 Y60.1599 
G01 X3.0570 Y60.1856 
G01 X3.0767 Y60.1704 
G01 X3.1059 Y60.1324 
G01 X3.1276 Y60.1041 
G01 X3.1587 Y60.0291 
G01 X3.1605 Y60.0199 
G01 X3.1705 Y59.9440 
G01 X3.1596 Y59.8611 
G01 X3.1276 Y59.7839 
G01 X3.0767 Y59.7176 
G01 X3.0570 Y59.7024 
G01 X3.2190 Y59.7281 
G01 X3.3850 Y59.7281 
G01 X3.5470 Y59.7024 
G00 Z2.5400 
G00 X4.2877 Y60.8366 
G01 Z-0.1778 F254.00 
G01 X4.2968 Y60.8436 F508.00 
G01 X4.3117 Y60.8585 
G01 X4.3298 Y60.8689 
G01 X4.3465 Y60.8817 
G01 X4.3659 Y60.8898 
G01 X4.3776 Y60.8965 
G01 X4.3072 Y60.8965 
G01 X4.2877 Y60.8366 
G00 Z2.5400 
G00 X4.3072 Y61.5315 
G01 Z-0.1778 F254.00 
G01 X4.3775 Y61.5315 F508.00 
G01 X4.3659 Y61.5382 
G01 X4.3465 Y61.5463 
G01 X4.3298 Y61.5590 
G01 X4.3117 Y61.5695 
G01 X4.2968 Y61.5844 
G01 X4.2877 Y61.5913 
G01 X4.3072 Y61.5315 
G00 Z2.5400 
G00 X3.6026 Y62.2247 
G01 Z-0.1778 F254.00 
G01 X3.5978 Y62.2283 F508.00 
G01 X3.5901 Y62.2384 
G01 X3.5807 Y62.2468 
G01 X3.5648 Y62.2714 
G01 X3.5469 Y62.2947 
G01 X3.5421 Y62.3064 
G01 X3.5352 Y62.3169 
G01 X3.5261 Y62.3448 
G01 X3.5149 Y62.3719 
G01 X3.5133 Y62.3844 
G01 X3.5094 Y62.3964 
G01 X3.5078 Y62.4257 
G01 X3.5040 Y62.4548 
G01 X3.5056 Y62.4673 
G01 X3.5050 Y62.4799 
G01 X3.5111 Y62.5086 
G01 X3.5149 Y62.5377 
G01 X3.5197 Y62.5493 
G01 X3.5224 Y62.5617 
G01 X3.5357 Y62.5878 
G01 X3.5469 Y62.6149 
G01 X3.5546 Y62.6249 
G01 X3.5603 Y62.6362 
G01 X3.5799 Y62.6580 
G01 X3.5978 Y62.6812 
G01 X3.6078 Y62.6889 
G01 X3.6163 Y62.6983 
G01 X3.6408 Y62.7143 
G01 X3.6641 Y62.7321 
G01 X3.6758 Y62.7370 
G01 X3.6864 Y62.7438 
G01 X3.7143 Y62.7529 
G01 X3.7184 Y62.7546 
G01 X3.8678 Y62.8307 
G01 X4.0053 Y62.9306 
G01 X4.1254 Y63.0507 
G01 X4.2253 Y63.1882 
G01 X4.3024 Y63.3396 
G01 X4.3174 Y63.3857 
G01 X4.2907 Y63.3857 
G01 X4.2789 Y63.3494 
G01 X4.2035 Y63.2015 
G01 X4.1060 Y63.0673 
G01 X3.9887 Y62.9500 
G01 X3.8545 Y62.8525 
G01 X3.7066 Y62.7771 
G01 X3.5488 Y62.7259 
G01 X3.3850 Y62.6999 
G01 X3.2190 Y62.6999 
G01 X3.0552 Y62.7259 
G01 X2.8974 Y62.7771 
G01 X2.7495 Y62.8525 
G01 X2.6153 Y62.9500 
G01 X2.4980 Y63.0673 
G01 X2.4005 Y63.2015 
G01 X2.3251 Y63.3494 
G01 X2.3133 Y63.3857 
G01 X2.2866 Y63.3857 
G01 X2.3016 Y63.3396 
G01 X2.3787 Y63.1882 
G01 X2.4786 Y63.0507 
G01 X2.5987 Y62.9306 
G01 X2.7362 Y62.8307 
G01 X2.8856 Y62.7546 
G01 X2.8897 Y62.7529 
G01 X2.9176 Y62.7438 
G01 X2.9282 Y62.7370 
G01 X2.9399 Y62.7321 
G01 X2.9632 Y62.7143 
G01 X2.9877 Y62.6983 
G01 X2.9962 Y62.6889 
G01 X3.0062 Y62.6812 
G01 X3.0241 Y62.6580 
G01 X3.0437 Y62.6362 
G01 X3.0494 Y62.6249 
G01 X3.0571 Y62.6149 
G01 X3.0683 Y62.5878 
G01 X3.0816 Y62.5617 
G01 X3.0842 Y62.5493 
G01 X3.0891 Y62.5377 
G01 X3.0929 Y62.5086 
G01 X3.0990 Y62.4799 
G01 X3.0983 Y62.4673 
G01 X3.1000 Y62.4548 
G01 X3.0962 Y62.4257 
G01 X3.0946 Y62.3964 
G01 X3.0907 Y62.3844 
G01 X3.0891 Y62.3719 
G01 X3.0779 Y62.3448 
G01 X3.0688 Y62.3169 
G01 X3.0619 Y62.3064 
G01 X3.0571 Y62.2947 
G01 X3.0392 Y62.2714 
G01 X3.0233 Y62.2468 
G01 X3.0139 Y62.2384 
G01 X3.0062 Y62.2283 
G01 X3.0014 Y62.2247 
G01 X3.0552 Y62.2421 
G01 X3.2190 Y62.2681 
G01 X3.3850 Y62.2681 
G01 X3.5488 Y62.2421 
G01 X3.6026 Y62.2247 
G00 Z2.5400 
G00 X4.2907 Y64.1223 
G01 Z-0.1778 F254.00 
G01 X4.3174 Y64.1223 F508.00 
G01 X4.3024 Y64.1684 
G01 X4.2253 Y64.3198 
G01 X4.1254 Y64.4573 
G01 X4.0053 Y64.5774 
G01 X3.8678 Y64.6773 
G01 X3.7184 Y64.7534 
G01 X3.7142 Y64.7551 
G01 X3.6864 Y64.7642 
G01 X3.6758 Y64.7710 
G01 X3.6641 Y64.7759 
G01 X3.6409 Y64.7937 
G01 X3.6163 Y64.8097 
G01 X3.6078 Y64.8191 
G01 X3.5978 Y64.8268 
G01 X3.5799 Y64.8500 
G01 X3.5603 Y64.8718 
G01 X3.5546 Y64.8831 
G01 X3.5469 Y64.8931 
G01 X3.5357 Y64.9202 
G01 X3.5224 Y64.9463 
G01 X3.5197 Y64.9587 
G01 X3.5149 Y64.9703 
G01 X3.5111 Y64.9994 
G01 X3.5050 Y65.0281 
G01 X3.5056 Y65.0407 
G01 X3.5040 Y65.0532 
G01 X3.5078 Y65.0823 
G01 X3.5094 Y65.1116 
G01 X3.5133 Y65.1236 
G01 X3.5149 Y65.1361 
G01 X3.5261 Y65.1632 
G01 X3.5352 Y65.1911 
G01 X3.5421 Y65.2017 
G01 X3.5469 Y65.2133 
G01 X3.5647 Y65.2366 
G01 X3.5807 Y65.2612 
G01 X3.5901 Y65.2696 
G01 X3.5978 Y65.2796 
G01 X3.6026 Y65.2833 
G01 X3.5488 Y65.2659 
G01 X3.3850 Y65.2399 
G01 X3.2190 Y65.2399 
G01 X3.0552 Y65.2659 
G01 X3.0014 Y65.2833 
G01 X3.0062 Y65.2796 
G01 X3.0139 Y65.2696 
G01 X3.0233 Y65.2612 
G01 X3.0392 Y65.2366 
G01 X3.0571 Y65.2133 
G01 X3.0619 Y65.2017 
G01 X3.0688 Y65.1911 
G01 X3.0779 Y65.1632 
G01 X3.0891 Y65.1361 
G01 X3.0907 Y65.1236 
G01 X3.0946 Y65.1116 
G01 X3.0962 Y65.0823 
G01 X3.1000 Y65.0532 
G01 X3.0983 Y65.0407 
G01 X3.0990 Y65.0281 
G01 X3.0929 Y64.9994 
G01 X3.0891 Y64.9703 
G01 X3.0842 Y64.9587 
G01 X3.0816 Y64.9463 
G01 X3.0683 Y64.9202 
G01 X3.0571 Y64.8931 
G01 X3.0494 Y64.8831 
G01 X3.0437 Y64.8718 
G01 X3.0241 Y64.8500 
G01 X3.0062 Y64.8268 
G01 X2.9962 Y64.8191 
G01 X2.9877 Y64.8097 
G01 X2.9631 Y64.7937 
G01 X2.9399 Y64.7759 
G01 X2.9282 Y64.7710 
G01 X2.9176 Y64.7642 
G01 X2.8897 Y64.7551 
G01 X2.8856 Y64.7534 
G01 X2.7362 Y64.6773 
G01 X2.5987 Y64.5774 
G01 X2.4786 Y64.4573 
G01 X2.3787 Y64.3198 
G01 X2.3016 Y64.1684 
G01 X2.2866 Y64.1223 
G01 X2.3133 Y64.1223 
G01 X2.3251 Y64.1586 
G01 X2.4005 Y64.3065 
G01 X2.4980 Y64.4407 
G01 X2.6153 Y64.5580 
G01 X2.7495 Y64.6555 
G01 X2.8974 Y64.7309 
G01 X3.0552 Y64.7821 
G01 X3.2190 Y64.8081 
G01 X3.3850 Y64.8081 
G01 X3.5488 Y64.7821 
G01 X3.7066 Y64.7309 
G01 X3.8545 Y64.6555 
G01 X3.9887 Y64.5580 
G01 X4.1060 Y64.4407 
G01 X4.2035 Y64.3065 
G01 X4.2789 Y64.1586 
G01 X4.2907 Y64.1223 
G00 Z2.5400 
G00 X4.2877 Y65.9166 
G01 Z-0.1778 F254.00 
G01 X4.2968 Y65.9236 F508.00 
G01 X4.3117 Y65.9385 
G01 X4.3298 Y65.9489 
G01 X4.3465 Y65.9617 
G01 X4.3659 Y65.9698 
G01 X4.3776 Y65.9765 
G01 X4.3072 Y65.9765 
G01 X4.2877 Y65.9166 
G00 Z2.5400 
G00 X4.3072 Y66.6115 
G01 Z-0.1778 F254.00 
G01 X4.3775 Y66.6115 F508.00 
G01 X4.3659 Y66.6182 
G01 X4.3465 Y66.6263 
G01 X4.3298 Y66.6390 
G01 X4.3117 Y66.6495 
G01 X4.2968 Y66.6644 
G01 X4.2877 Y66.6714 
G01 X4.3072 Y66.6115 
G00 Z2.5400 
G00 X4.3769 Y70.2426 
G01 Z-0.1778 F254.00 
G01 X5.4719 Y69.8128 F508.00 
G01 X6.6449 Y69.7249 
G01 X7.7917 Y69.9867 
G01 X8.8104 Y70.5748 
G01 X9.6104 Y71.4371 
G01 X10.1208 Y72.4969 
G01 X10.2961 Y73.6600 
G01 X10.1208 Y74.8231 
G01 X9.6104 Y75.8829 
G01 X8.8104 Y76.7452 
G01 X7.7917 Y77.3333 
G01 X6.6449 Y77.5951 
G01 X5.4719 Y77.5072 
G01 X4.3769 Y77.0774 
G01 X3.4573 Y76.3440 
G01 X2.7947 Y75.3722 
G01 X2.4480 Y74.2481 
G01 X2.4480 Y73.0719 
G01 X2.7947 Y71.9478 
G01 X3.4573 Y70.9760 
G01 X4.3769 Y70.2426 
G00 Z2.5400 
G00 X8.6457 Y68.2985 
G01 Z-0.1778 F254.00 
G01 X8.6077 Y68.2326 F508.00 
G01 X8.5485 Y68.1735 
G01 X8.4827 Y68.1355 
G01 X8.6457 Y68.1355 
G01 X8.6457 Y68.2985 
G00 Z2.5400 
G00 X8.7565 Y67.4577 
G01 Z-0.1778 F254.00 
G01 X8.7665 Y67.4519 F508.00 
G01 X8.7773 Y67.4476 
G01 X8.7694 Y67.4577 
G01 X8.7565 Y67.4577 
G00 Z2.5400 
G00 X9.5770 Y67.4577 
G01 Z-0.1778 F254.00 
G01 X9.8028 Y67.1705 F508.00 
G01 X9.8006 Y67.1856 
G01 X9.7947 Y67.2077 
G01 X9.7947 Y67.2268 
G01 X9.7920 Y67.2458 
G01 X9.7947 Y67.2684 
G01 X9.7947 Y67.2913 
G01 X9.7997 Y67.3098 
G01 X9.8019 Y67.3288 
G01 X9.8104 Y67.3500 
G01 X9.8164 Y67.3720 
G01 X9.8259 Y67.3886 
G01 X9.8330 Y67.4064 
G01 X9.8467 Y67.4247 
G01 X9.8582 Y67.4444 
G01 X9.8700 Y67.4563 
G01 X9.5770 Y67.4577 
G00 Z2.5400 
G00 X9.9701 Y67.5390 
G01 Z-0.1778 F254.00 
G01 X10.0015 Y67.5572 F508.00 
G01 X10.0823 Y67.5788 
G01 X10.1659 Y67.5788 
G01 X10.2466 Y67.5572 
G01 X10.3190 Y67.5154 
G01 X10.3742 Y67.4602 
G01 X10.4061 Y67.4418 
G01 X10.4416 Y67.4323 
G01 X10.6457 Y67.4323 
G01 X10.6457 Y67.4577 
G01 X10.4373 Y67.4577 
G01 X10.3953 Y67.4751 
G01 X10.3631 Y67.5073 
G01 X10.3457 Y67.5493 
G01 X10.3457 Y68.5947 
G01 X10.3631 Y68.6367 
G01 X10.3953 Y68.6689 
G01 X10.4373 Y68.6863 
G01 X10.6457 Y68.6863 
G01 X10.6457 Y68.7117 
G01 X10.4416 Y68.7117 
G01 X10.4061 Y68.7022 
G01 X10.3742 Y68.6838 
G01 X10.3190 Y68.6286 
G01 X10.2466 Y68.5868 
G01 X10.2164 Y68.5787 
G01 X10.1659 Y68.5652 
G01 X10.0823 Y68.5652 
G01 X10.0165 Y68.5828 
G01 X10.0015 Y68.5868 
G01 X9.9701 Y68.6050 
G01 X9.9743 Y68.5947 
G01 X9.9743 Y67.5493 
G01 X9.9701 Y67.5390 
G00 Z2.5400 
G00 X11.3743 Y67.4577 
G01 Z-0.1778 F254.00 
G01 X11.3743 Y67.4323 F508.00 
G01 X11.5784 Y67.4323 
G01 X11.6139 Y67.4418 
G01 X11.6458 Y67.4602 
G01 X11.6718 Y67.4862 
G01 X11.6902 Y67.5181 
G01 X11.6997 Y67.5536 
G01 X11.6997 Y67.7077 
G01 X11.6743 Y67.7077 
G01 X11.6743 Y67.5493 
G01 X11.6569 Y67.5073 
G01 X11.6247 Y67.4751 
G01 X11.5827 Y67.4577 
G01 X11.3743 Y67.4577 
G00 Z2.5400 
G00 X11.3743 Y68.6863 
G01 Z-0.1778 F254.00 
G01 X11.5827 Y68.6863 F508.00 
G01 X11.6247 Y68.6689 
G01 X11.6569 Y68.6367 
G01 X11.6743 Y68.5947 
G01 X11.6743 Y68.4363 
G01 X11.6997 Y68.4363 
G01 X11.6997 Y68.5904 
G01 X11.6902 Y68.6259 
G01 X11.6718 Y68.6578 
G01 X11.6458 Y68.6838 
G01 X11.6139 Y68.7022 
G01 X11.5784 Y68.7117 
G01 X11.3743 Y68.7117 
G01 X11.3743 Y68.6863 
G00 Z2.5400 
G00 X11.0341 Y65.2575 
G01 Z-0.1778 F254.00 
G01 X10.9993 Y65.1303 F508.00 
G01 X11.0747 Y65.1303 
G01 X11.0672 Y65.1487 
G01 X11.0558 Y65.1685 
G01 X11.0508 Y65.1870 
G01 X11.0433 Y65.2046 
G01 X11.0401 Y65.2272 
G01 X11.0341 Y65.2493 
G01 X11.0341 Y65.2575 
G00 Z2.5400 
G00 X11.1663 Y65.0274 
G01 Z-0.1778 F254.00 
G01 X11.1663 Y64.8934 F508.00 
G01 X11.3297 Y64.9078 
G01 X11.3237 Y64.9106 
G01 X11.3100 Y64.9143 
G01 X11.2859 Y64.9282 
G01 X11.2607 Y64.9399 
G01 X11.2499 Y64.9490 
G01 X11.2376 Y64.9561 
G01 X11.2180 Y64.9757 
G01 X11.1966 Y64.9936 
G01 X11.1885 Y65.0052 
G01 X11.1663 Y65.0274 
G00 Z2.5400 
G00 X11.1663 Y64.2559 
G01 Z-0.1778 F254.00 
G01 X11.1663 Y64.1176 F508.00 
G01 X11.1764 Y64.1351 
G01 X11.1882 Y64.1603 
G01 X11.1973 Y64.1712 
G01 X11.2043 Y64.1834 
G01 X11.2240 Y64.2031 
G01 X11.2418 Y64.2244 
G01 X11.2534 Y64.2326 
G01 X11.2634 Y64.2426 
G01 X11.2875 Y64.2564 
G01 X11.3041 Y64.2681 
G01 X11.1663 Y64.2559 
G00 Z2.5400 
G00 X10.3634 Y63.9017 
G01 Z-0.1778 F254.00 
G01 X9.9293 Y63.9017 F508.00 
G01 X9.8873 Y63.9191 
G01 X9.8551 Y63.9513 
G01 X9.8377 Y63.9933 
G01 X9.8377 Y65.0313 
G01 X9.7745 Y64.9949 
G01 X9.7145 Y64.9788 
G01 X9.6938 Y64.9732 
G01 X9.6102 Y64.9732 
G01 X9.5294 Y64.9949 
G01 X9.4663 Y65.0313 
G01 X9.4663 Y63.9933 
G01 X9.4489 Y63.9513 
G01 X9.4167 Y63.9191 
G01 X9.3747 Y63.9017 
G01 X9.0819 Y63.9017 
G01 X9.2701 Y63.7937 
G01 X10.0806 Y63.5515 
G01 X10.1166 Y63.5419 
G01 X10.1205 Y63.5396 
G01 X10.1250 Y63.5382 
G01 X10.1567 Y63.5187 
G01 X10.1889 Y63.5001 
G01 X10.1922 Y63.4968 
G01 X10.1750 Y63.5678 
G01 X10.1750 Y63.6514 
G01 X10.1966 Y63.7321 
G01 X10.2384 Y63.8045 
G01 X10.2966 Y63.8627 
G01 X10.3634 Y63.9017 
G00 Z2.5400 
G00 X10.3410 Y65.1303 
G01 Z-0.1778 F254.00 
G01 X10.4075 Y65.3735 F508.00 
G01 X10.3070 Y65.5014 
G01 X10.3092 Y65.4863 
G01 X10.3151 Y65.4642 
G01 X10.3151 Y65.4451 
G01 X10.3178 Y65.4261 
G01 X10.3151 Y65.4034 
G01 X10.3151 Y65.3806 
G01 X10.3102 Y65.3621 
G01 X10.3079 Y65.3431 
G01 X10.2994 Y65.3219 
G01 X10.2935 Y65.2998 
G01 X10.2839 Y65.2833 
G01 X10.2768 Y65.2655 
G01 X10.2631 Y65.2472 
G01 X10.2517 Y65.2274 
G01 X10.2382 Y65.2139 
G01 X10.2267 Y65.1986 
G01 X10.2087 Y65.1845 
G01 X10.1926 Y65.1683 
G01 X10.1760 Y65.1588 
G01 X10.1609 Y65.1469 
G01 X10.1399 Y65.1380 
G01 X10.1267 Y65.1303 
G01 X10.3410 Y65.1303 
G00 Z2.5400 
G00 X12.6759 Y65.0267 
G01 Z-0.1778 F254.00 
G01 X12.8137 Y65.0389 F508.00 
G01 X12.8137 Y65.1773 
G01 X12.8036 Y65.1597 
G01 X12.7918 Y65.1345 
G01 X12.7827 Y65.1236 
G01 X12.7757 Y65.1114 
G01 X12.7560 Y65.0917 
G01 X12.7381 Y65.0704 
G01 X12.7265 Y65.0623 
G01 X12.7165 Y65.0523 
G01 X12.6925 Y65.0384 
G01 X12.6759 Y65.0267 
G00 Z2.5400 
G00 X12.9166 Y65.2843 
G01 Z-0.1778 F254.00 
G01 X13.0605 Y65.2843 F508.00 
G01 X13.0605 Y65.4473 
G01 X13.0225 Y65.3814 
G01 X12.9633 Y65.3223 
G01 X12.9427 Y65.3104 
G01 X12.9166 Y65.2843 
G00 Z2.5400 
G00 X13.6955 Y65.2843 
G01 Z-0.1778 F254.00 
G01 X13.8394 Y65.2843 F508.00 
G01 X13.8133 Y65.3104 
G01 X13.7926 Y65.3223 
G01 X13.7335 Y65.3814 
G01 X13.6955 Y65.4473 
G01 X13.6955 Y65.2843 
G00 Z2.5400 
G00 X13.7795 Y64.2557 
G01 Z-0.1778 F254.00 
G01 X13.7795 Y64.1679 F508.00 
G01 X13.8175 Y64.2338 
G01 X13.8394 Y64.2557 
G01 X13.7795 Y64.2557 
G00 Z2.5400 
G00 X13.1445 Y64.2557 
G01 Z-0.1778 F254.00 
G01 X12.9815 Y64.2557 F508.00 
G01 X13.0473 Y64.2177 
G01 X13.1065 Y64.1585 
G01 X13.1445 Y64.0927 
G01 X13.1445 Y64.2557 
G00 Z2.5400 
G00 X12.8137 Y64.3534 
G01 Z-0.1778 F254.00 
G01 X12.8137 Y64.4014 F508.00 
G01 X12.7341 Y64.3944 
G01 X12.7401 Y64.3916 
G01 X12.7537 Y64.3879 
G01 X12.7778 Y64.3740 
G01 X12.8030 Y64.3623 
G01 X12.8137 Y64.3534 
G00 Z2.5400 
G00 X13.6851 Y62.5739 
G01 Z-0.1778 F254.00 
G01 X13.7048 Y62.5004 F508.00 
G01 X13.7048 Y62.4168 
G01 X13.6832 Y62.3360 
G01 X13.6716 Y62.3160 
G01 X13.6414 Y62.2636 
G01 X13.5823 Y62.2045 
G01 X13.5164 Y62.1665 
G01 X17.8217 Y62.1665 
G01 X17.8217 Y62.1717 
G01 X17.8391 Y62.2137 
G01 X17.8713 Y62.2459 
G01 X17.9133 Y62.2633 
G01 X19.1474 Y62.2633 
G01 X19.1217 Y62.2891 
G01 X19.0799 Y62.3614 
G01 X19.0638 Y62.4215 
G01 X19.0582 Y62.4422 
G01 X19.0582 Y62.5258 
G01 X19.0799 Y62.6066 
G01 X19.1217 Y62.6790 
G01 X19.1474 Y62.7047 
G01 X17.9133 Y62.7047 
G01 X17.8713 Y62.7221 
G01 X17.8391 Y62.7543 
G01 X17.8217 Y62.7963 
G01 X17.8217 Y62.8015 
G01 X16.5145 Y62.8015 
G01 X16.2561 Y62.5431 
G01 X16.1969 Y62.4839 
G01 X16.1245 Y62.4421 
G01 X16.0438 Y62.4205 
G01 X13.9282 Y62.4205 
G01 X13.8474 Y62.4421 
G01 X13.7751 Y62.4839 
G01 X13.6851 Y62.5739 
G00 Z2.5400 
G00 X14.7507 Y63.0555 
G01 Z-0.1778 F254.00 
G01 X15.8705 Y63.0555 F508.00 
G01 X16.1881 Y63.3731 
G01 X16.2604 Y63.4149 
G01 X16.3412 Y63.4365 
G01 X17.8217 Y63.4365 
G01 X17.8217 Y63.4417 
G01 X17.8391 Y63.4837 
G01 X17.8713 Y63.5159 
G01 X17.9133 Y63.5333 
G01 X19.1474 Y63.5333 
G01 X19.1217 Y63.5591 
G01 X19.0799 Y63.6315 
G01 X19.0638 Y63.6915 
G01 X19.0582 Y63.7122 
G01 X19.0582 Y63.7958 
G01 X19.0799 Y63.8766 
G01 X19.1217 Y63.9490 
G01 X19.1474 Y63.9747 
G01 X17.9133 Y63.9747 
G01 X17.8713 Y63.9921 
G01 X17.8391 Y64.0243 
G01 X17.8217 Y64.0663 
G01 X17.8217 Y64.1985 
G01 X16.8955 Y64.1985 
G01 X16.2629 Y63.5659 
G01 X16.1906 Y63.5241 
G01 X16.1098 Y63.5025 
G01 X16.0423 Y63.5025 
G01 X16.0423 Y63.3973 
G01 X16.0249 Y63.3553 
G01 X15.9927 Y63.3231 
G01 X15.9507 Y63.3057 
G01 X15.0053 Y63.3057 
G01 X14.9633 Y63.3231 
G01 X14.9391 Y63.3473 
G01 X14.9391 Y63.3058 
G01 X14.9175 Y63.2250 
G01 X14.8757 Y63.1526 
G01 X14.8165 Y63.0935 
G01 X14.7507 Y63.0555 
G00 Z2.5400 
G00 X14.6679 Y60.7310 
G01 Z-0.1778 F254.00 
G01 X14.6365 Y60.7128 F508.00 
G01 X14.6197 Y60.7083 
G01 X14.5557 Y60.6912 
G01 X14.4721 Y60.6912 
G01 X14.4202 Y60.7051 
G01 X14.3914 Y60.7128 
G01 X14.3190 Y60.7546 
G01 X14.2638 Y60.8098 
G01 X14.2319 Y60.8282 
G01 X14.1964 Y60.8377 
G01 X13.9923 Y60.8377 
G01 X13.9923 Y60.8123 
G01 X14.2007 Y60.8123 
G01 X14.2427 Y60.7949 
G01 X14.2749 Y60.7627 
G01 X14.2923 Y60.7207 
G01 X14.2923 Y59.6753 
G01 X14.2749 Y59.6333 
G01 X14.2427 Y59.6011 
G01 X14.2007 Y59.5837 
G01 X13.9923 Y59.5837 
G01 X13.9923 Y59.2877 
G01 X13.9707 Y59.2070 
G01 X13.9492 Y59.1698 
G01 X13.9553 Y59.1723 
G01 X15.0007 Y59.1723 
G01 X15.0427 Y59.1549 
G01 X15.0749 Y59.1227 
G01 X15.0923 Y59.0807 
G01 X15.0923 Y58.7375 
G01 X15.7898 Y58.7375 
G01 X15.8705 Y58.7159 
G01 X15.9429 Y58.6741 
G01 X16.0021 Y58.6149 
G01 X16.2605 Y58.3565 
G01 X17.8217 Y58.3565 
G01 X17.8217 Y58.3617 
G01 X17.8391 Y58.4037 
G01 X17.8713 Y58.4359 
G01 X17.9133 Y58.4533 
G01 X19.1474 Y58.4533 
G01 X19.1217 Y58.4790 
G01 X19.0799 Y58.5514 
G01 X19.0582 Y58.6322 
G01 X19.0582 Y58.7158 
G01 X19.0643 Y58.7383 
G01 X19.0799 Y58.7965 
G01 X19.1217 Y58.8689 
G01 X19.1474 Y58.8947 
G01 X17.9133 Y58.8947 
G01 X17.8713 Y58.9121 
G01 X17.8391 Y58.9443 
G01 X17.8217 Y58.9863 
G01 X17.8217 Y58.9915 
G01 X16.5952 Y58.9915 
G01 X16.5144 Y59.0131 
G01 X16.4420 Y59.0549 
G01 X15.9096 Y59.5874 
G01 X15.9007 Y59.5837 
G01 X14.7553 Y59.5837 
G01 X14.7133 Y59.6011 
G01 X14.6811 Y59.6333 
G01 X14.6637 Y59.6753 
G01 X14.6637 Y60.7207 
G01 X14.6679 Y60.7310 
G00 Z2.5400 
G00 X13.2637 Y60.8123 
G01 Z-0.1778 F254.00 
G01 X13.2637 Y60.8377 F508.00 
G01 X13.0596 Y60.8377 
G01 X13.0241 Y60.8282 
G01 X12.9922 Y60.8098 
G01 X12.9662 Y60.7838 
G01 X12.9478 Y60.7519 
G01 X12.9383 Y60.7164 
G01 X12.9383 Y60.5623 
G01 X12.9637 Y60.5623 
G01 X12.9637 Y60.7207 
G01 X12.9811 Y60.7627 
G01 X13.0133 Y60.7949 
G01 X13.0553 Y60.8123 
G01 X13.2637 Y60.8123 
G00 Z2.5400 
G00 X13.2637 Y59.5837 
G01 Z-0.1778 F254.00 
G01 X13.0553 Y59.5837 F508.00 
G01 X13.0133 Y59.6011 
G01 X12.9811 Y59.6333 
G01 X12.9637 Y59.6753 
G01 X12.9637 Y59.8337 
G01 X12.9383 Y59.8337 
G01 X12.9383 Y59.6796 
G01 X12.9478 Y59.6441 
G01 X12.9662 Y59.6122 
G01 X12.9922 Y59.5862 
G01 X13.0241 Y59.5678 
G01 X13.0596 Y59.5583 
G01 X13.2637 Y59.5583 
G01 X13.2637 Y59.5837 
G00 Z2.5400 
G00 X13.8637 Y58.9885 
G01 Z-0.1778 F254.00 
G01 X13.8257 Y58.9226 F508.00 
G01 X13.7665 Y58.8635 
G01 X13.7007 Y58.8255 
G01 X13.8637 Y58.8255 
G01 X13.8637 Y58.9885 
G00 Z2.5400 
G00 X13.8637 Y58.1905 
G01 Z-0.1778 F254.00 
G01 X13.7007 Y58.1905 F508.00 
G01 X13.7665 Y58.1525 
G01 X13.8257 Y58.0933 
G01 X13.8637 Y58.0275 
G01 X13.8637 Y58.1905 
G00 Z2.5400 
G00 X13.9627 Y57.8437 
G01 Z-0.1778 F254.00 
G01 X13.9991 Y57.7806 F508.00 
G01 X14.0208 Y57.6998 
G01 X14.0208 Y57.6162 
G01 X14.0147 Y57.5936 
G01 X13.9991 Y57.5354 
G01 X13.9627 Y57.4723 
G01 X15.0007 Y57.4723 
G01 X15.0427 Y57.4549 
G01 X15.0749 Y57.4227 
G01 X15.0923 Y57.3807 
G01 X15.0923 Y57.0865 
G01 X17.8217 Y57.0865 
G01 X17.8217 Y57.0917 
G01 X17.8391 Y57.1337 
G01 X17.8713 Y57.1659 
G01 X17.9133 Y57.1833 
G01 X19.1474 Y57.1833 
G01 X19.1217 Y57.2091 
G01 X19.0799 Y57.2814 
G01 X19.0638 Y57.3415 
G01 X19.0582 Y57.3622 
G01 X19.0582 Y57.4458 
G01 X19.0799 Y57.5266 
G01 X19.1217 Y57.5990 
G01 X19.1474 Y57.6247 
G01 X17.9133 Y57.6247 
G01 X17.8713 Y57.6421 
G01 X17.8391 Y57.6743 
G01 X17.8217 Y57.7163 
G01 X17.8217 Y57.7215 
G01 X16.0872 Y57.7215 
G01 X16.0064 Y57.7431 
G01 X15.9340 Y57.7849 
G01 X15.6165 Y58.1025 
G01 X15.0923 Y58.1025 
G01 X15.0923 Y57.9353 
G01 X15.0749 Y57.8933 
G01 X15.0427 Y57.8611 
G01 X15.0007 Y57.8437 
G01 X13.9627 Y57.8437 
G00 Z2.5400 
G00 X13.8637 Y57.2885 
G01 Z-0.1778 F254.00 
G01 X13.8257 Y57.2226 F508.00 
G01 X13.7665 Y57.1635 
G01 X13.7007 Y57.1255 
G01 X13.8637 Y57.1255 
G01 X13.8637 Y57.2885 
G00 Z2.5400 
G00 X13.8637 Y56.4905 
G01 Z-0.1778 F254.00 
G01 X13.7007 Y56.4905 F508.00 
G01 X13.7665 Y56.4525 
G01 X13.8257 Y56.3933 
G01 X13.8637 Y56.3275 
G01 X13.8637 Y56.4905 
G00 Z2.5400 
G00 X15.0923 Y56.4515 
G01 Z-0.1778 F254.00 
G01 X15.0923 Y56.2885 F508.00 
G01 X15.1303 Y56.3543 
G01 X15.1894 Y56.4135 
G01 X15.2553 Y56.4515 
G01 X15.0923 Y56.4515 
G00 Z2.5400 
G00 X17.7999 Y56.4515 
G01 Z-0.1778 F254.00 
G01 X17.8257 Y56.4366 F508.00 
G01 X17.8217 Y56.4463 
G01 X17.8217 Y56.4515 
G01 X17.7999 Y56.4515 
G00 Z2.5400 
G00 X17.7623 Y54.7337 
G01 Z-0.1778 F254.00 
G01 X17.7623 Y54.7083 F508.00 
G01 X17.9707 Y54.7083 
G01 X18.0127 Y54.6909 
G01 X18.0449 Y54.6587 
G01 X18.0623 Y54.6167 
G01 X18.0623 Y54.0083 
G01 X18.0877 Y54.0083 
G01 X18.0877 Y54.6124 
G01 X18.0782 Y54.6479 
G01 X18.0598 Y54.6798 
G01 X18.0338 Y54.7058 
G01 X18.0019 Y54.7242 
G01 X17.9664 Y54.7337 
G01 X17.7623 Y54.7337 
G00 Z2.5400 
G00 X16.9337 Y54.7337 
G01 Z-0.1778 F254.00 
G01 X16.7296 Y54.7337 F508.00 
G01 X16.6941 Y54.7242 
G01 X16.6622 Y54.7058 
G01 X16.6362 Y54.6798 
G01 X16.6178 Y54.6479 
G01 X16.6083 Y54.6124 
G01 X16.6083 Y54.0083 
G01 X16.6337 Y54.0083 
G01 X16.6337 Y54.6167 
G01 X16.6511 Y54.6587 
G01 X16.6833 Y54.6909 
G01 X16.7253 Y54.7083 
G01 X16.9337 Y54.7083 
G01 X16.9337 Y54.7337 
G00 Z2.5400 
G00 X16.6337 Y53.1797 
G01 Z-0.1778 F254.00 
G01 X16.6083 Y53.1797 F508.00 
G01 X16.6083 Y52.5756 
G01 X16.6178 Y52.5401 
G01 X16.6362 Y52.5082 
G01 X16.6622 Y52.4822 
G01 X16.6941 Y52.4638 
G01 X16.7296 Y52.4543 
G01 X16.9337 Y52.4543 
G01 X16.9337 Y52.4797 
G01 X16.7253 Y52.4797 
G01 X16.6833 Y52.4971 
G01 X16.6511 Y52.5293 
G01 X16.6337 Y52.5713 
G01 X16.6337 Y53.1797 
G00 Z2.5400 
G00 X18.0623 Y53.1797 
G01 Z-0.1778 F254.00 
G01 X18.0623 Y52.5713 F508.00 
G01 X18.0449 Y52.5293 
G01 X18.0127 Y52.4971 
G01 X17.9707 Y52.4797 
G01 X17.7623 Y52.4797 
G01 X17.7623 Y52.4543 
G01 X17.9664 Y52.4543 
G01 X18.0019 Y52.4638 
G01 X18.0338 Y52.4822 
G01 X18.0598 Y52.5082 
G01 X18.0782 Y52.5401 
G01 X18.0877 Y52.5756 
G01 X18.0877 Y53.1797 
G01 X18.0623 Y53.1797 
G00 Z2.5400 
G00 X17.8257 Y50.7514 
G01 Z-0.1778 F254.00 
G01 X17.7999 Y50.7365 F508.00 
G01 X17.8217 Y50.7365 
G01 X17.8217 Y50.7417 
G01 X17.8257 Y50.7514 
G00 Z2.5400 
G00 X17.8217 Y50.1015 
G01 Z-0.1778 F254.00 
G01 X17.7999 Y50.1015 F508.00 
G01 X17.8257 Y50.0866 
G01 X17.8217 Y50.0963 
G01 X17.8217 Y50.1015 
G00 Z2.5400 
G00 X17.9246 Y50.0047 
G01 Z-0.1778 F254.00 
G01 X17.9503 Y49.9790 F508.00 
G01 X17.9530 Y49.9744 
G01 X17.9921 Y49.9066 
G01 X18.0004 Y49.8758 
G01 X18.0138 Y49.8258 
G01 X18.0138 Y49.7845 
G01 X18.0138 Y49.7422 
G01 X18.0073 Y49.7181 
G01 X17.9921 Y49.6615 
G01 X17.9802 Y49.6407 
G01 X17.9503 Y49.5891 
G01 X17.9295 Y49.5683 
G01 X17.9249 Y49.5637 
G01 X19.1474 Y49.5633 
G01 X19.1217 Y49.5891 
G01 X19.0799 Y49.6614 
G01 X19.0582 Y49.7422 
G01 X19.0582 Y49.8258 
G01 X19.0799 Y49.9066 
G01 X19.1217 Y49.9789 
G01 X19.1471 Y50.0043 
G01 X17.9246 Y50.0047 
G00 Z2.5400 
G00 X17.8257 Y49.4814 
G01 Z-0.1778 F254.00 
G01 X17.7999 Y49.4665 F508.00 
G01 X17.8217 Y49.4665 
G01 X17.8217 Y49.4717 
G01 X17.8257 Y49.4814 
G00 Z2.5400 
G00 X17.8217 Y48.8315 
G01 Z-0.1778 F254.00 
G01 X17.5305 Y48.8315 F508.00 
G01 X17.0181 Y48.3190 
G01 X16.9589 Y48.2599 
G01 X16.8865 Y48.2181 
G01 X16.8058 Y48.1965 
G01 X16.2963 Y48.1965 
G01 X16.2963 Y47.9033 
G01 X16.2789 Y47.8613 
G01 X16.2467 Y47.8291 
G01 X16.2139 Y47.8155 
G01 X16.8865 Y47.8155 
G01 X17.2040 Y48.1331 
G01 X17.2764 Y48.1749 
G01 X17.3572 Y48.1965 
G01 X17.8217 Y48.1965 
G01 X17.8217 Y48.2017 
G01 X17.8391 Y48.2437 
G01 X17.8713 Y48.2759 
G01 X17.9133 Y48.2933 
G01 X19.1474 Y48.2933 
G01 X19.1217 Y48.3191 
G01 X19.0799 Y48.3914 
G01 X19.0638 Y48.4515 
G01 X19.0582 Y48.4722 
G01 X19.0582 Y48.5558 
G01 X19.0799 Y48.6366 
G01 X19.1217 Y48.7090 
G01 X19.1474 Y48.7347 
G01 X17.9133 Y48.7347 
G01 X17.8713 Y48.7521 
G01 X17.8391 Y48.7843 
G01 X17.8217 Y48.8263 
G01 X17.8217 Y48.8315 
G00 Z2.5400 
G00 X17.8217 Y47.5615 
G01 Z-0.1778 F254.00 
G01 X17.5305 Y47.5615 F508.00 
G01 X17.2721 Y47.3030 
G01 X17.2129 Y47.2439 
G01 X17.1406 Y47.2021 
G01 X17.0598 Y47.1805 
G01 X13.9282 Y47.1805 
G01 X13.8474 Y47.2021 
G01 X13.7751 Y47.2439 
G01 X13.5581 Y47.4609 
G01 X13.5664 Y47.4298 
G01 X13.5778 Y47.3874 
G01 X13.5778 Y47.3038 
G01 X13.5602 Y47.2380 
G01 X13.5562 Y47.2231 
G01 X13.5364 Y47.1889 
G01 X13.5144 Y47.1507 
G01 X13.4553 Y47.0915 
G01 X13.3894 Y47.0535 
G01 X16.2458 Y47.0535 
G01 X16.2773 Y47.0555 
G01 X16.2874 Y47.0535 
G01 X16.2978 Y47.0535 
G01 X16.3283 Y47.0453 
G01 X16.9224 Y46.9265 
G01 X17.8217 Y46.9265 
G01 X17.8217 Y46.9317 
G01 X17.8391 Y46.9737 
G01 X17.8713 Y47.0059 
G01 X17.9133 Y47.0233 
G01 X19.1474 Y47.0233 
G01 X19.1217 Y47.0491 
G01 X19.0799 Y47.1215 
G01 X19.0638 Y47.1815 
G01 X19.0582 Y47.2022 
G01 X19.0582 Y47.2858 
G01 X19.0799 Y47.3666 
G01 X19.1217 Y47.4389 
G01 X19.1474 Y47.4647 
G01 X17.9133 Y47.4647 
G01 X17.8713 Y47.4821 
G01 X17.8391 Y47.5143 
G01 X17.8217 Y47.5563 
G01 X17.8217 Y47.5615 
G00 Z2.5400 
G00 X17.8217 Y46.2915 
G01 Z-0.1778 F254.00 
G01 X17.7789 Y46.2915 F508.00 
G01 X17.8323 Y46.2607 
G01 X17.8217 Y46.2863 
G01 X17.8217 Y46.2915 
G00 Z2.5400 
G00 X17.8967 Y46.2016 
G01 Z-0.1778 F254.00 
G01 X17.9039 Y46.1943 F508.00 
G01 X17.9419 Y46.1285 
G01 X17.9457 Y46.1219 
G01 X17.9560 Y46.0835 
G01 X17.9673 Y46.0412 
G01 X17.9673 Y45.9576 
G01 X17.9555 Y45.9134 
G01 X17.9457 Y45.8768 
G01 X17.9039 Y45.8044 
G01 X17.8242 Y45.7248 
G01 X17.8058 Y45.6929 
G01 X17.7963 Y45.6574 
G01 X17.8217 Y45.6565 
G01 X17.8217 Y45.6617 
G01 X17.8391 Y45.7037 
G01 X17.8713 Y45.7359 
G01 X17.9133 Y45.7533 
G01 X19.1587 Y45.7533 
G01 X19.2007 Y45.7359 
G01 X19.2329 Y45.7037 
G01 X19.2503 Y45.6617 
G01 X19.2503 Y45.6565 
G01 X19.2757 Y45.6565 
G01 X19.2662 Y45.6929 
G01 X19.2478 Y45.7248 
G01 X19.2218 Y45.7508 
G01 X19.2154 Y45.7545 
G01 X19.1953 Y45.7745 
G01 X19.1562 Y45.8136 
G01 X19.1359 Y45.8487 
G01 X19.1144 Y45.8860 
G01 X19.1036 Y45.9264 
G01 X19.0928 Y45.9667 
G01 X19.0928 Y46.0090 
G01 X19.0928 Y46.0503 
G01 X19.1053 Y46.0970 
G01 X19.1144 Y46.1311 
G01 X19.1360 Y46.1685 
G01 X19.1511 Y46.1947 
G01 X17.9133 Y46.1947 
G01 X17.8967 Y46.2016 
G00 Z2.5400 
G00 X17.8217 Y45.0215 
G01 Z-0.1778 F254.00 
G01 X17.7963 Y45.0215 F508.00 
G01 X17.8058 Y44.9851 
G01 X17.8387 Y44.9282 
G01 X17.8603 Y44.8474 
G01 X17.8603 Y44.7638 
G01 X17.8485 Y44.7196 
G01 X17.8387 Y44.6831 
G01 X17.8266 Y44.6621 
G01 X17.7969 Y44.6106 
G01 X17.7378 Y44.5515 
G01 X17.6719 Y44.5135 
G01 X18.4508 Y44.5135 
G01 X18.5315 Y44.4919 
G01 X18.5464 Y44.4833 
G01 X19.1511 Y44.4833 
G01 X19.1357 Y44.5100 
G01 X19.1144 Y44.5469 
G01 X19.1050 Y44.5819 
G01 X19.0928 Y44.6276 
G01 X19.0928 Y44.6699 
G01 X19.0928 Y44.7112 
G01 X19.1038 Y44.7524 
G01 X19.1144 Y44.7920 
G01 X19.1365 Y44.8302 
G01 X19.1562 Y44.8644 
G01 X19.1960 Y44.9041 
G01 X19.2153 Y44.9235 
G01 X19.2218 Y44.9272 
G01 X19.2478 Y44.9532 
G01 X19.2662 Y44.9851 
G01 X19.2757 Y45.0206 
G01 X19.2503 Y45.0215 
G01 X19.2503 Y45.0163 
G01 X19.2329 Y44.9743 
G01 X19.2007 Y44.9421 
G01 X19.1587 Y44.9247 
G01 X17.9133 Y44.9247 
G01 X17.8713 Y44.9421 
G01 X17.8391 Y44.9743 
G01 X17.8217 Y45.0163 
G01 X17.8217 Y45.0215 
G00 Z2.5400 
G00 X17.8217 Y43.8785 
G01 Z-0.1778 F254.00 
G01 X17.2302 Y43.8785 F508.00 
G01 X17.1494 Y43.9001 
G01 X17.0770 Y43.9419 
G01 X17.0179 Y44.0010 
G01 X16.7543 Y44.2647 
G01 X16.7543 Y44.1813 
G01 X16.7369 Y44.1393 
G01 X16.7047 Y44.1071 
G01 X16.6627 Y44.0897 
G01 X15.5173 Y44.0897 
G01 X15.4753 Y44.1071 
G01 X15.4431 Y44.1393 
G01 X15.4257 Y44.1813 
G01 X15.4257 Y45.2267 
G01 X15.4299 Y45.2370 
G01 X15.3985 Y45.2188 
G01 X15.3177 Y45.1972 
G01 X15.2341 Y45.1972 
G01 X15.1899 Y45.2090 
G01 X15.1534 Y45.2188 
G01 X15.1324 Y45.2309 
G01 X15.0810 Y45.2606 
G01 X15.0258 Y45.3158 
G01 X14.9939 Y45.3342 
G01 X14.9584 Y45.3437 
G01 X14.7543 Y45.3437 
G01 X14.7543 Y45.3183 
G01 X14.9627 Y45.3183 
G01 X15.0047 Y45.3009 
G01 X15.0369 Y45.2687 
G01 X15.0543 Y45.2267 
G01 X15.0543 Y44.1813 
G01 X15.0369 Y44.1393 
G01 X15.0047 Y44.1071 
G01 X14.9627 Y44.0897 
G01 X13.8173 Y44.0897 
G01 X13.7753 Y44.1071 
G01 X13.7431 Y44.1393 
G01 X13.7257 Y44.1813 
G01 X13.7257 Y44.3397 
G01 X13.7003 Y44.3397 
G01 X13.7003 Y44.1856 
G01 X13.7098 Y44.1501 
G01 X13.7282 Y44.1182 
G01 X13.7542 Y44.0922 
G01 X13.7659 Y44.0855 
G01 X13.8002 Y44.0656 
G01 X13.8383 Y44.0437 
G01 X13.8974 Y43.9845 
G01 X13.9392 Y43.9121 
G01 X13.9609 Y43.8314 
G01 X13.9609 Y43.7478 
G01 X13.9490 Y43.7036 
G01 X13.9392 Y43.6671 
G01 X13.9271 Y43.6461 
G01 X13.8974 Y43.5947 
G01 X13.8383 Y43.5355 
G01 X13.7724 Y43.4975 
G01 X14.6257 Y43.4975 
G01 X14.6257 Y43.5867 
G01 X14.6431 Y43.6287 
G01 X14.6753 Y43.6609 
G01 X14.7173 Y43.6783 
G01 X15.7627 Y43.6783 
G01 X15.8047 Y43.6609 
G01 X15.8369 Y43.6287 
G01 X15.8543 Y43.5867 
G01 X15.8543 Y43.4975 
G01 X16.0438 Y43.4975 
G01 X16.1245 Y43.4759 
G01 X16.1969 Y43.4341 
G01 X16.2561 Y43.3749 
G01 X16.5145 Y43.1165 
G01 X17.8217 Y43.1165 
G01 X17.8217 Y43.1217 
G01 X17.8391 Y43.1637 
G01 X17.8713 Y43.1959 
G01 X17.9133 Y43.2133 
G01 X19.1474 Y43.2133 
G01 X19.1217 Y43.2391 
G01 X19.0799 Y43.3115 
G01 X19.0638 Y43.3715 
G01 X19.0582 Y43.3922 
G01 X19.0582 Y43.4758 
G01 X19.0799 Y43.5566 
G01 X19.1217 Y43.6290 
G01 X19.1474 Y43.6547 
G01 X17.9133 Y43.6547 
G01 X17.8713 Y43.6721 
G01 X17.8391 Y43.7043 
G01 X17.8217 Y43.7463 
G01 X17.8217 Y43.8785 
G00 Z2.5400 
G00 X17.8217 Y42.4815 
G01 Z-0.1778 F254.00 
G01 X16.3412 Y42.4815 F508.00 
G01 X16.2604 Y42.5031 
G01 X16.1881 Y42.5449 
G01 X15.8705 Y42.8625 
G01 X15.8543 Y42.8625 
G01 X15.8543 Y42.4413 
G01 X15.8369 Y42.3993 
G01 X15.8047 Y42.3671 
G01 X15.7627 Y42.3497 
G01 X14.7247 Y42.3497 
G01 X14.7611 Y42.2866 
G01 X14.7828 Y42.2058 
G01 X14.7828 Y42.1222 
G01 X14.7767 Y42.0996 
G01 X14.7611 Y42.0414 
G01 X14.7247 Y41.9783 
G01 X15.7627 Y41.9783 
G01 X15.8047 Y41.9609 
G01 X15.8369 Y41.9287 
G01 X15.8543 Y41.8867 
G01 X15.8543 Y41.8465 
G01 X17.8217 Y41.8465 
G01 X17.8217 Y41.8517 
G01 X17.8391 Y41.8937 
G01 X17.8713 Y41.9259 
G01 X17.9133 Y41.9433 
G01 X19.1474 Y41.9433 
G01 X19.1217 Y41.9691 
G01 X19.0799 Y42.0414 
G01 X19.0638 Y42.1015 
G01 X19.0582 Y42.1222 
G01 X19.0582 Y42.2058 
G01 X19.0799 Y42.2866 
G01 X19.1217 Y42.3590 
G01 X19.1474 Y42.3847 
G01 X17.9133 Y42.3847 
G01 X17.8713 Y42.4021 
G01 X17.8391 Y42.4343 
G01 X17.8217 Y42.4763 
G01 X17.8217 Y42.4815 
G00 Z2.5400 
G00 X17.8217 Y41.2115 
G01 Z-0.1778 F254.00 
G01 X17.7999 Y41.2115 F508.00 
G01 X17.8257 Y41.1966 
G01 X17.8217 Y41.2063 
G01 X17.8217 Y41.2115 
G00 Z2.5400 
G00 X16.0173 Y41.2115 
G01 Z-0.1778 F254.00 
G01 X15.8543 Y41.2115 F508.00 
G01 X15.8543 Y41.0485 
G01 X15.8923 Y41.1143 
G01 X15.9514 Y41.1735 
G01 X16.0173 Y41.2115 
G00 Z2.5400 
G00 X14.6257 Y40.9965 
G01 Z-0.1778 F254.00 
G01 X14.4627 Y40.9965 F508.00 
G01 X14.5285 Y40.9585 
G01 X14.5877 Y40.8993 
G01 X14.6257 Y40.8335 
G01 X14.6257 Y40.9965 
G00 Z2.5400 
G00 X14.6257 Y41.6315 
G01 Z-0.1778 F254.00 
G01 X14.6257 Y41.7945 F508.00 
G01 X14.5877 Y41.7286 
G01 X14.5285 Y41.6695 
G01 X14.4627 Y41.6315 
G01 X14.6257 Y41.6315 
G00 Z2.5400 
G00 X14.6257 Y42.6995 
G01 Z-0.1778 F254.00 
G01 X14.6257 Y42.8625 F508.00 
G01 X14.4627 Y42.8625 
G01 X14.5285 Y42.8245 
G01 X14.5877 Y42.7653 
G01 X14.6257 Y42.6995 
G00 Z2.5400 
G00 X14.0257 Y45.3183 
G01 Z-0.1778 F254.00 
G01 X14.0257 Y45.3437 F508.00 
G01 X13.8216 Y45.3437 
G01 X13.7861 Y45.3342 
G01 X13.7542 Y45.3158 
G01 X13.7282 Y45.2898 
G01 X13.7098 Y45.2579 
G01 X13.7003 Y45.2224 
G01 X13.7003 Y45.0683 
G01 X13.7257 Y45.0683 
G01 X13.7257 Y45.2267 
G01 X13.7431 Y45.2687 
G01 X13.7753 Y45.3009 
G01 X13.8173 Y45.3183 
G01 X14.0257 Y45.3183 
G00 Z2.5400 
G00 X15.9214 Y45.3183 
G01 Z-0.1778 F254.00 
G01 X15.9558 Y45.3183 F508.00 
G01 X15.9601 Y45.3346 
G01 X15.9645 Y45.3421 
G01 X15.9393 Y45.3286 
G01 X15.9214 Y45.3183 
G00 Z2.5400 
G00 X16.5985 Y45.3185 
G01 Z-0.1778 F254.00 
G01 X16.5987 Y45.3183 F508.00 
G00 Z2.5400 
G00 X15.2501 Y47.8155 
G01 Z-0.1778 F254.00 
G01 X15.2173 Y47.8291 F508.00 
G01 X15.1851 Y47.8613 
G01 X15.1677 Y47.9033 
G01 X15.1677 Y47.9785 
G01 X15.1297 Y47.9126 
G01 X15.0705 Y47.8535 
G01 X15.0047 Y47.8155 
G01 X15.2501 Y47.8155 
G00 Z2.5400 
G00 X14.1965 Y47.8155 
G01 Z-0.1778 F254.00 
G01 X14.1306 Y47.8535 F508.00 
G01 X14.0715 Y47.9126 
G01 X14.0335 Y47.9785 
G01 X14.0335 Y47.8835 
G01 X14.1015 Y47.8155 
G01 X14.1965 Y47.8155 
G00 Z2.5400 
G00 X14.0335 Y48.6739 
G01 Z-0.1778 F254.00 
G01 X14.0715 Y48.7398 F508.00 
G01 X14.0934 Y48.7617 
G01 X14.0335 Y48.7617 
G01 X14.0335 Y48.6739 
G00 Z2.5400 
G00 X13.3605 Y48.6645 
G01 Z-0.1778 F254.00 
G01 X13.3985 Y48.5987 F508.00 
G01 X13.3985 Y48.7617 
G01 X13.2355 Y48.7617 
G01 X13.3013 Y48.7237 
G01 X13.3605 Y48.6645 
G00 Z2.5400 
G00 X13.0677 Y49.0495 
G01 Z-0.1778 F254.00 
G01 X13.0677 Y49.2125 F508.00 
G01 X12.9047 Y49.2125 
G01 X12.9705 Y49.1745 
G01 X13.0297 Y49.1153 
G01 X13.0677 Y49.0495 
G00 Z2.5400 
G00 X13.1515 Y49.8475 
G01 Z-0.1778 F254.00 
G01 X13.3145 Y49.8475 F508.00 
G01 X13.3145 Y50.0105 
G01 X13.2765 Y49.9446 
G01 X13.2173 Y49.8855 
G01 X13.1515 Y49.8475 
G00 Z2.5400 
G00 X13.9495 Y49.7903 
G01 Z-0.1778 F254.00 
G01 X14.0934 Y49.7903 F508.00 
G01 X14.0673 Y49.8164 
G01 X14.0466 Y49.8283 
G01 X13.9875 Y49.8874 
G01 X13.9495 Y49.9533 
G01 X13.9495 Y49.7903 
G00 Z2.5400 
G00 X16.2963 Y49.9385 
G01 Z-0.1778 F254.00 
G01 X16.3343 Y50.0043 F508.00 
G01 X16.3934 Y50.0635 
G01 X16.4593 Y50.1015 
G01 X16.2963 Y50.1015 
G01 X16.2963 Y49.9385 
G00 Z2.5400 
G00 X19.2463 Y50.0866 
G01 Z-0.1778 F254.00 
G01 X19.2721 Y50.1015 F508.00 
G01 X19.2503 Y50.1015 
G01 X19.2503 Y50.0963 
G01 X19.2463 Y50.0866 
G00 Z2.5400 
G00 X19.2503 Y50.7365 
G01 Z-0.1778 F254.00 
G01 X19.2721 Y50.7365 F508.00 
G01 X19.2463 Y50.7514 
G01 X19.2503 Y50.7417 
G01 X19.2503 Y50.7365 
G00 Z2.5400 
G00 X23.3999 Y50.7365 
G01 Z-0.1778 F254.00 
G01 X23.4217 Y50.7365 F508.00 
G01 X23.4217 Y50.7417 
G01 X23.4257 Y50.7514 
G01 X23.3999 Y50.7365 
G00 Z2.5400 
G00 X23.5793 Y50.8333 
G01 Z-0.1778 F254.00 
G01 X23.7423 Y50.8333 F508.00 
G01 X23.7423 Y50.9963 
G01 X23.7043 Y50.9304 
G01 X23.6451 Y50.8713 
G01 X23.5793 Y50.8333 
G00 Z2.5400 
G00 X23.5503 Y49.9789 
G01 Z-0.1778 F254.00 
G01 X23.5921 Y49.9065 F508.00 
G01 X23.6082 Y49.8465 
G01 X23.6138 Y49.8258 
G01 X23.6138 Y49.7422 
G01 X23.5921 Y49.6614 
G01 X23.5503 Y49.5890 
G01 X23.5246 Y49.5633 
G01 X24.7587 Y49.5633 
G01 X24.8007 Y49.5459 
G01 X24.8039 Y49.5427 
G01 X25.6891 Y49.5427 
G01 X25.7569 Y49.5245 
G01 X25.8178 Y49.4894 
G01 X25.8674 Y49.4398 
G01 X26.9997 Y48.3074 
G01 X27.0494 Y48.2578 
G01 X27.0845 Y48.1969 
G01 X27.1027 Y48.1291 
G01 X27.1027 Y48.1123 
G01 X27.4087 Y48.1123 
G01 X27.4507 Y48.0949 
G01 X27.4829 Y48.0627 
G01 X27.5003 Y48.0207 
G01 X27.5003 Y46.9753 
G01 X27.4829 Y46.9333 
G01 X27.4507 Y46.9011 
G01 X27.4087 Y46.8837 
G01 X27.1653 Y46.8837 
G01 X27.1653 Y46.3479 
G01 X27.1969 Y46.3297 
G01 X27.2797 Y46.2469 
G01 X27.3382 Y46.1456 
G01 X27.3685 Y46.0325 
G01 X27.3685 Y45.9401 
G01 X27.3706 Y45.9429 
G01 X27.3811 Y45.9611 
G01 X27.3960 Y45.9760 
G01 X27.4088 Y45.9926 
G01 X27.4254 Y46.0054 
G01 X27.4402 Y46.0202 
G01 X27.4584 Y46.0307 
G01 X27.4751 Y46.0435 
G01 X27.4945 Y46.0515 
G01 X27.5126 Y46.0620 
G01 X27.5329 Y46.0675 
G01 X27.5523 Y46.0755 
G01 X27.5731 Y46.0782 
G01 X27.5934 Y46.0837 
G01 X27.6144 Y46.0837 
G01 X27.6352 Y46.0864 
G01 X27.6560 Y46.0837 
G01 X27.6770 Y46.0837 
G01 X27.6973 Y46.0782 
G01 X27.7181 Y46.0755 
G01 X27.7375 Y46.0675 
G01 X27.7578 Y46.0620 
G01 X27.7759 Y46.0515 
G01 X27.7953 Y46.0435 
G01 X27.8120 Y46.0307 
G01 X27.8301 Y46.0202 
G01 X27.8450 Y46.0054 
G01 X27.8616 Y45.9926 
G01 X27.8744 Y45.9760 
G01 X27.8893 Y45.9611 
G01 X27.8998 Y45.9430 
G01 X27.9125 Y45.9263 
G01 X27.9206 Y45.9069 
G01 X27.9273 Y45.8952 
G01 X27.9273 Y46.8986 
G01 X27.9213 Y46.9011 
G01 X27.8891 Y46.9333 
G01 X27.8717 Y46.9753 
G01 X27.8717 Y48.0207 
G01 X27.8891 Y48.0627 
G01 X27.9213 Y48.0949 
G01 X27.9273 Y48.0974 
G01 X27.9273 Y48.2983 
G01 X27.7243 Y48.5013 
G01 X27.6174 Y48.5013 
G01 X27.4850 Y48.5368 
G01 X27.3663 Y48.6053 
G01 X27.2693 Y48.7023 
G01 X26.4193 Y49.5523 
G01 X26.3508 Y49.6710 
G01 X26.3153 Y49.8034 
G01 X26.3153 Y49.9317 
G01 X26.2633 Y49.9317 
G01 X26.2213 Y49.9491 
G01 X26.1891 Y49.9813 
G01 X26.1717 Y50.0233 
G01 X24.8039 Y50.0253 
G01 X24.8007 Y50.0221 
G01 X24.7587 Y50.0047 
G01 X23.5246 Y50.0047 
G01 X23.5503 Y49.9789 
G00 Z2.5400 
G00 X23.4257 Y50.0866 
G01 Z-0.1778 F254.00 
G01 X23.4217 Y50.0963 F508.00 
G01 X23.4217 Y50.1015 
G01 X23.3999 Y50.1015 
G01 X23.4257 Y50.0866 
G00 Z2.5400 
G00 X23.5208 Y48.7347 
G01 Z-0.1778 F254.00 
G01 X23.5363 Y48.7080 F508.00 
G01 X23.5576 Y48.6711 
G01 X23.5670 Y48.6361 
G01 X23.5792 Y48.5904 
G01 X23.5792 Y48.5481 
G01 X23.5792 Y48.5068 
G01 X23.5682 Y48.4656 
G01 X23.5576 Y48.4260 
G01 X23.5355 Y48.3878 
G01 X23.5158 Y48.3536 
G01 X23.4760 Y48.3139 
G01 X23.4567 Y48.2945 
G01 X23.4502 Y48.2908 
G01 X23.4242 Y48.2648 
G01 X23.4058 Y48.2329 
G01 X23.3963 Y48.1974 
G01 X23.4217 Y48.1965 
G01 X23.4217 Y48.2017 
G01 X23.4391 Y48.2437 
G01 X23.4713 Y48.2759 
G01 X23.5133 Y48.2933 
G01 X24.7587 Y48.2933 
G01 X24.8007 Y48.2759 
G01 X24.8329 Y48.2437 
G01 X24.8503 Y48.2017 
G01 X24.8503 Y48.1965 
G01 X24.8757 Y48.1965 
G01 X24.8662 Y48.2329 
G01 X24.8478 Y48.2648 
G01 X24.8218 Y48.2908 
G01 X24.8154 Y48.2945 
G01 X24.7953 Y48.3145 
G01 X24.7562 Y48.3536 
G01 X24.7359 Y48.3887 
G01 X24.7144 Y48.4260 
G01 X24.7036 Y48.4664 
G01 X24.6928 Y48.5067 
G01 X24.6928 Y48.5490 
G01 X24.6928 Y48.5903 
G01 X24.7053 Y48.6370 
G01 X24.7144 Y48.6711 
G01 X24.7360 Y48.7085 
G01 X24.7511 Y48.7347 
G01 X23.5208 Y48.7347 
G00 Z2.5400 
G00 X23.4217 Y47.5615 
G01 Z-0.1778 F254.00 
G01 X23.3963 Y47.5615 F508.00 
G01 X23.4058 Y47.5251 
G01 X23.4242 Y47.4932 
G01 X23.4502 Y47.4672 
G01 X23.4566 Y47.4635 
G01 X23.4766 Y47.4435 
G01 X23.5158 Y47.4044 
G01 X23.5360 Y47.3692 
G01 X23.5576 Y47.3320 
G01 X23.5684 Y47.2916 
G01 X23.5792 Y47.2513 
G01 X23.5792 Y47.2090 
G01 X23.5792 Y47.1677 
G01 X23.5667 Y47.1210 
G01 X23.5576 Y47.0869 
G01 X23.5360 Y47.0495 
G01 X23.5209 Y47.0233 
G01 X24.7511 Y47.0233 
G01 X24.7357 Y47.0500 
G01 X24.7144 Y47.0869 
G01 X24.7050 Y47.1219 
G01 X24.6928 Y47.1676 
G01 X24.6928 Y47.2099 
G01 X24.6928 Y47.2512 
G01 X24.7038 Y47.2924 
G01 X24.7144 Y47.3320 
G01 X24.7365 Y47.3702 
G01 X24.7562 Y47.4044 
G01 X24.7960 Y47.4441 
G01 X24.8153 Y47.4635 
G01 X24.8218 Y47.4672 
G01 X24.8478 Y47.4932 
G01 X24.8662 Y47.5251 
G01 X24.8757 Y47.5606 
G01 X24.8503 Y47.5615 
G01 X24.8503 Y47.5563 
G01 X24.8329 Y47.5143 
G01 X24.8007 Y47.4821 
G01 X24.7587 Y47.4647 
G01 X23.5133 Y47.4647 
G01 X23.4713 Y47.4821 
G01 X23.4391 Y47.5143 
G01 X23.4217 Y47.5563 
G01 X23.4217 Y47.5615 
G00 Z2.5400 
G00 X23.5246 Y46.1947 
G01 Z-0.1778 F254.00 
G01 X23.5503 Y46.1689 F508.00 
G01 X23.5921 Y46.0965 
G01 X23.6082 Y46.0365 
G01 X23.6138 Y46.0158 
G01 X23.6138 Y45.9322 
G01 X23.5921 Y45.8514 
G01 X23.5503 Y45.7790 
G01 X23.5246 Y45.7533 
G01 X24.7474 Y45.7533 
G01 X24.7217 Y45.7790 
G01 X24.6799 Y45.8514 
G01 X24.6582 Y45.9322 
G01 X24.6582 Y46.0158 
G01 X24.6799 Y46.0965 
G01 X24.7217 Y46.1689 
G01 X24.7474 Y46.1947 
G01 X23.5246 Y46.1947 
G00 Z2.5400 
G00 X23.5246 Y44.9247 
G01 Z-0.1778 F254.00 
G01 X23.5503 Y44.8989 F508.00 
G01 X23.5818 Y44.8443 
G01 X23.5921 Y44.8265 
G01 X23.6024 Y44.7881 
G01 X23.6138 Y44.7458 
G01 X23.6138 Y44.6622 
G01 X23.5921 Y44.5814 
G01 X23.5503 Y44.5090 
G01 X23.5246 Y44.4833 
G01 X24.7587 Y44.4833 
G01 X24.8007 Y44.4659 
G01 X24.8249 Y44.4417 
G01 X24.8249 Y44.5006 
G01 X24.8222 Y44.5214 
G01 X24.8249 Y44.5422 
G01 X24.8249 Y44.5632 
G01 X24.8303 Y44.5835 
G01 X24.8331 Y44.6043 
G01 X24.8411 Y44.6237 
G01 X24.8465 Y44.6440 
G01 X24.8570 Y44.6621 
G01 X24.8651 Y44.6815 
G01 X24.8778 Y44.6982 
G01 X24.8883 Y44.7164 
G01 X24.9032 Y44.7312 
G01 X24.9160 Y44.7479 
G01 X24.9326 Y44.7606 
G01 X24.9474 Y44.7755 
G01 X24.9656 Y44.7860 
G01 X24.9823 Y44.7987 
G01 X25.0017 Y44.8068 
G01 X25.0198 Y44.8173 
G01 X25.0401 Y44.8227 
G01 X25.0595 Y44.8307 
G01 X25.0803 Y44.8335 
G01 X25.1006 Y44.8389 
G01 X25.1216 Y44.8389 
G01 X25.1424 Y44.8417 
G01 X25.1554 Y44.8399 
G01 X25.1271 Y44.8563 
G01 X25.0443 Y44.9391 
G01 X24.9858 Y45.0404 
G01 X24.9704 Y45.0977 
G01 X24.8503 Y45.0977 
G01 X24.8503 Y45.0163 
G01 X24.8329 Y44.9743 
G01 X24.8007 Y44.9421 
G01 X24.7587 Y44.9247 
G01 X23.5246 Y44.9247 
G00 Z2.5400 
G00 X23.4217 Y44.3804 
G01 Z-0.1778 F254.00 
G01 X23.3909 Y44.3496 F508.00 
G01 X23.3382 Y44.3187 
G01 X23.3237 Y44.3103 
G01 X23.4217 Y44.3103 
G01 X23.4217 Y44.3804 
G00 Z2.5400 
G00 X23.4217 Y43.8277 
G01 Z-0.1778 F254.00 
G01 X23.3237 Y43.8277 F508.00 
G01 X23.3896 Y43.7897 
G01 X23.4217 Y43.7576 
G01 X23.4217 Y43.8277 
G00 Z2.5400 
G00 X23.5246 Y43.6547 
G01 Z-0.1778 F254.00 
G01 X23.5503 Y43.6289 F508.00 
G01 X23.5921 Y43.5565 
G01 X23.6082 Y43.4965 
G01 X23.6138 Y43.4758 
G01 X23.6138 Y43.3922 
G01 X23.5921 Y43.3114 
G01 X23.5503 Y43.2390 
G01 X23.5246 Y43.2133 
G01 X24.7474 Y43.2133 
G01 X24.7217 Y43.2390 
G01 X24.6799 Y43.3114 
G01 X24.6582 Y43.3922 
G01 X24.6582 Y43.4758 
G01 X24.6643 Y43.4984 
G01 X24.6799 Y43.5565 
G01 X24.7217 Y43.6289 
G01 X24.7474 Y43.6547 
G01 X23.5246 Y43.6547 
G00 Z2.5400 
G00 X23.5246 Y42.3847 
G01 Z-0.1778 F254.00 
G01 X23.5503 Y42.3589 F508.00 
G01 X23.5921 Y42.2865 
G01 X23.6082 Y42.2265 
G01 X23.6138 Y42.2058 
G01 X23.6138 Y42.1222 
G01 X23.5921 Y42.0414 
G01 X23.5503 Y41.9690 
G01 X23.5246 Y41.9433 
G01 X24.7474 Y41.9433 
G01 X24.7217 Y41.9690 
G01 X24.6799 Y42.0414 
G01 X24.6582 Y42.1222 
G01 X24.6582 Y42.2058 
G01 X24.6643 Y42.2283 
G01 X24.6799 Y42.2865 
G01 X24.7217 Y42.3589 
G01 X24.7474 Y42.3847 
G01 X23.5246 Y42.3847 
G00 Z2.5400 
G00 X21.8359 Y44.3103 
G01 Z-0.1778 F254.00 
G01 X21.8242 Y44.3170 F508.00 
G01 X21.8048 Y44.3251 
G01 X21.7882 Y44.3379 
G01 X21.7700 Y44.3483 
G01 X21.7551 Y44.3632 
G01 X21.7504 Y44.3668 
G01 X21.7656 Y44.3103 
G01 X21.8359 Y44.3103 
G00 Z2.5400 
G00 X24.8503 Y45.5803 
G01 Z-0.1778 F254.00 
G01 X24.9499 Y45.5803 F508.00 
G01 X24.9343 Y45.5893 
G01 X24.9149 Y45.5973 
G01 X24.8983 Y45.6101 
G01 X24.8801 Y45.6206 
G01 X24.8653 Y45.6355 
G01 X24.8503 Y45.6469 
G01 X24.8503 Y45.5803 
G00 Z2.5400 
G00 X26.6781 Y46.3453 
G01 Z-0.1778 F254.00 
G01 X26.6827 Y46.3479 F508.00 
G01 X26.6827 Y46.3533 
G01 X26.6781 Y46.3453 
G00 Z2.5400 
G00 X26.6827 Y46.7207 
G01 Z-0.1778 F254.00 
G01 X26.6827 Y46.8837 F508.00 
G01 X26.5197 Y46.8837 
G01 X26.5855 Y46.8457 
G01 X26.6447 Y46.7865 
G01 X26.6827 Y46.7207 
G00 Z2.5400 
G00 X26.4405 Y48.1123 
G01 Z-0.1778 F254.00 
G01 X26.2243 Y48.3285 F508.00 
G01 X26.2339 Y48.2928 
G01 X26.2440 Y48.2550 
G01 X26.2440 Y48.1714 
G01 X26.2264 Y48.1056 
G01 X26.2238 Y48.0959 
G01 X26.2633 Y48.1123 
G01 X26.4405 Y48.1123 
G00 Z2.5400 
G00 X25.0133 Y49.0093 
G01 Z-0.1778 F254.00 
G01 X24.8503 Y49.0093 F508.00 
G01 X24.8503 Y48.8463 
G01 X24.8883 Y48.9121 
G01 X24.9474 Y48.9713 
G01 X25.0133 Y49.0093 
G00 Z2.5400 
G00 X24.9467 Y51.0667 
G01 Z-0.1778 F254.00 
G01 X24.8808 Y51.1047 F508.00 
G01 X24.8217 Y51.1638 
G01 X24.7837 Y51.2297 
G01 X24.7837 Y51.0667 
G01 X24.9467 Y51.0667 
G00 Z2.5400 
G00 X26.1531 Y51.0667 
G01 Z-0.1778 F254.00 
G01 X26.1717 Y51.0667 F508.00 
G01 X26.1764 Y51.0802 
G01 X26.1531 Y51.0667 
G00 Z2.5400 
G00 X27.5003 Y51.0687 
G01 Z-0.1778 F254.00 
G01 X27.5003 Y50.0233 F508.00 
G01 X27.4829 Y49.9813 
G01 X27.4730 Y49.9714 
G01 X27.9017 Y49.5427 
G01 X28.0085 Y49.5427 
G01 X28.1410 Y49.5072 
G01 X28.2130 Y49.4656 
G01 X28.1933 Y49.4997 
G01 X28.1717 Y49.5805 
G01 X28.1717 Y49.9317 
G01 X27.9633 Y49.9317 
G01 X27.9213 Y49.9491 
G01 X27.8891 Y49.9813 
G01 X27.8717 Y50.0233 
G01 X27.8717 Y51.0687 
G01 X27.8891 Y51.1107 
G01 X27.9213 Y51.1429 
G01 X27.9633 Y51.1603 
G01 X28.1717 Y51.1603 
G01 X28.1717 Y51.1857 
G01 X27.9676 Y51.1857 
G01 X27.9321 Y51.1762 
G01 X27.9002 Y51.1578 
G01 X27.8450 Y51.1026 
G01 X27.7904 Y51.0711 
G01 X27.7726 Y51.0608 
G01 X27.7342 Y51.0505 
G01 X27.6919 Y51.0392 
G01 X27.6083 Y51.0392 
G01 X27.5275 Y51.0608 
G01 X27.4961 Y51.0790 
G01 X27.5003 Y51.0687 
G00 Z2.5400 
G00 X28.9003 Y51.1603 
G01 Z-0.1778 F254.00 
G01 X29.1087 Y51.1603 F508.00 
G01 X29.1507 Y51.1429 
G01 X29.1829 Y51.1107 
G01 X29.2003 Y51.0687 
G01 X29.2003 Y50.9103 
G01 X29.2257 Y50.9103 
G01 X29.2257 Y51.0644 
G01 X29.2162 Y51.0999 
G01 X29.1978 Y51.1318 
G01 X29.1718 Y51.1578 
G01 X29.1399 Y51.1762 
G01 X29.1044 Y51.1857 
G01 X28.9003 Y51.1857 
G01 X28.9003 Y51.1603 
G00 Z2.5400 
G00 X28.9003 Y49.9317 
G01 Z-0.1778 F254.00 
G01 X28.9003 Y49.9063 F508.00 
G01 X29.1044 Y49.9063 
G01 X29.1399 Y49.9158 
G01 X29.1718 Y49.9342 
G01 X29.1978 Y49.9602 
G01 X29.2162 Y49.9921 
G01 X29.2257 Y50.0276 
G01 X29.2257 Y50.1817 
G01 X29.2003 Y50.1817 
G01 X29.2003 Y50.0233 
G01 X29.1829 Y49.9813 
G01 X29.1507 Y49.9491 
G01 X29.1087 Y49.9317 
G01 X28.9003 Y49.9317 
G00 Z2.5400 
G00 X28.9687 Y48.4357 
G01 Z-0.1778 F254.00 
G01 X28.9687 Y48.2727 F508.00 
G01 X29.1317 Y48.2727 
G01 X29.0658 Y48.3107 
G01 X29.0067 Y48.3698 
G01 X28.9687 Y48.4357 
G00 Z2.5400 
G00 X29.2003 Y47.2313 
G01 Z-0.1778 F254.00 
G01 X29.2003 Y47.0683 F508.00 
G01 X29.2383 Y47.1341 
G01 X29.2974 Y47.1933 
G01 X29.3633 Y47.2313 
G01 X29.2003 Y47.2313 
G00 Z2.5400 
G00 X29.0974 Y46.8837 
G01 Z-0.1778 F254.00 
G01 X28.9687 Y46.8837 F508.00 
G01 X28.9687 Y46.7271 
G01 X29.0067 Y46.7930 
G01 X29.0974 Y46.8837 
G00 Z2.5400 
G00 X29.1424 Y52.4543 
G01 Z-0.1778 F254.00 
G01 X29.1779 Y52.4638 F508.00 
G01 X29.2098 Y52.4822 
G01 X29.2358 Y52.5082 
G01 X29.2542 Y52.5401 
G01 X29.2637 Y52.5756 
G01 X29.2637 Y53.1797 
G01 X29.2383 Y53.1797 
G01 X29.2383 Y52.5713 
G01 X29.2209 Y52.5293 
G01 X29.1887 Y52.4971 
G01 X29.1467 Y52.4797 
G01 X28.9383 Y52.4797 
G01 X28.9383 Y52.4543 
G01 X29.1424 Y52.4543 
G00 Z2.5400 
G00 X28.1097 Y52.4543 
G01 Z-0.1778 F254.00 
G01 X28.1097 Y52.4797 F508.00 
G01 X27.9013 Y52.4797 
G01 X27.8593 Y52.4971 
G01 X27.8271 Y52.5293 
G01 X27.8097 Y52.5713 
G01 X27.8097 Y53.1797 
G01 X27.7843 Y53.1797 
G01 X27.7843 Y52.5756 
G01 X27.7938 Y52.5401 
G01 X27.8122 Y52.5082 
G01 X27.8382 Y52.4822 
G01 X27.8701 Y52.4638 
G01 X27.9056 Y52.4543 
G01 X28.1097 Y52.4543 
G00 Z2.5400 
G00 X27.8097 Y54.0083 
G01 Z-0.1778 F254.00 
G01 X27.8097 Y54.6167 F508.00 
G01 X27.8271 Y54.6587 
G01 X27.8593 Y54.6909 
G01 X27.9013 Y54.7083 
G01 X28.1097 Y54.7083 
G01 X28.1097 Y54.7337 
G01 X27.9056 Y54.7337 
G01 X27.8701 Y54.7242 
G01 X27.8527 Y54.7142 
G01 X27.8217 Y54.6963 
G01 X27.7938 Y54.6479 
G01 X27.7843 Y54.6124 
G01 X27.7843 Y54.0083 
G01 X27.8097 Y54.0083 
G00 Z2.5400 
G00 X29.2383 Y54.0083 
G01 Z-0.1778 F254.00 
G01 X29.2637 Y54.0083 F508.00 
G01 X29.2637 Y54.6124 
G01 X29.2542 Y54.6479 
G01 X29.2358 Y54.6798 
G01 X29.2098 Y54.7058 
G01 X29.1779 Y54.7242 
G01 X29.1424 Y54.7337 
G01 X28.9383 Y54.7337 
G01 X28.9383 Y54.7083 
G01 X29.1467 Y54.7083 
G01 X29.1887 Y54.6909 
G01 X29.2209 Y54.6587 
G01 X29.2383 Y54.6167 
G01 X29.2383 Y54.0083 
G00 Z2.5400 
G00 X32.0373 Y55.5166 
G01 Z-0.1778 F254.00 
G01 X32.0630 Y55.5423 F508.00 
G01 X32.1354 Y55.5841 
G01 X32.2162 Y55.6058 
G01 X32.2998 Y55.6058 
G01 X32.3224 Y55.5997 
G01 X32.3805 Y55.5841 
G01 X32.4529 Y55.5423 
G01 X32.4787 Y55.5166 
G01 X32.4787 Y56.7394 
G01 X32.4529 Y56.7137 
G01 X32.3805 Y56.6719 
G01 X32.3205 Y56.6558 
G01 X32.2998 Y56.6502 
G01 X32.2162 Y56.6502 
G01 X32.1354 Y56.6719 
G01 X32.0630 Y56.7137 
G01 X32.0373 Y56.7394 
G01 X32.0373 Y55.5166 
G00 Z2.5400 
G00 X33.3073 Y55.5166 
G01 Z-0.1778 F254.00 
G01 X33.3311 Y55.5404 F508.00 
G01 X33.4033 Y55.5829 
G01 X33.4862 Y55.6058 
G01 X33.5698 Y55.6058 
G01 X33.6505 Y55.5841 
G01 X33.7213 Y55.5432 
G01 X33.7264 Y55.5388 
G01 X33.7487 Y55.5166 
G01 X33.7487 Y56.7394 
G01 X33.7229 Y56.7137 
G01 X33.6505 Y56.6719 
G01 X33.5905 Y56.6558 
G01 X33.5698 Y56.6502 
G01 X33.4862 Y56.6502 
G01 X33.4054 Y56.6719 
G01 X33.3330 Y56.7137 
G01 X33.3073 Y56.7394 
G01 X33.3073 Y55.5166 
G00 Z2.5400 
G00 X33.8516 Y55.4137 
G01 Z-0.1778 F254.00 
G01 X33.8837 Y55.3816 F508.00 
G01 X33.9217 Y55.3157 
G01 X33.9217 Y55.4137 
G01 X33.8516 Y55.4137 
G00 Z2.5400 
G00 X34.4043 Y55.4137 
G01 Z-0.1778 F254.00 
G01 X34.4043 Y55.0395 F508.00 
G01 X34.4616 Y55.0242 
G01 X34.4779 Y55.0147 
G01 X34.4717 Y55.0210 
G01 X34.4299 Y55.0934 
G01 X34.4082 Y55.1742 
G01 X34.4082 Y55.2578 
G01 X34.4299 Y55.3385 
G01 X34.4717 Y55.4109 
G01 X34.4744 Y55.4137 
G01 X34.4043 Y55.4137 
G00 Z2.5400 
G00 X34.5773 Y55.5166 
G01 Z-0.1778 F254.00 
G01 X34.6030 Y55.5423 F508.00 
G01 X34.6754 Y55.5841 
G01 X34.7562 Y55.6058 
G01 X34.8398 Y55.6058 
G01 X34.9205 Y55.5841 
G01 X34.9929 Y55.5423 
G01 X35.0187 Y55.5166 
G01 X35.0187 Y56.7394 
G01 X34.9929 Y56.7137 
G01 X34.9205 Y56.6719 
G01 X34.8605 Y56.6558 
G01 X34.8398 Y56.6502 
G01 X34.7562 Y56.6502 
G01 X34.6754 Y56.6719 
G01 X34.6030 Y56.7137 
G01 X34.5773 Y56.7394 
G01 X34.5773 Y55.5166 
G00 Z2.5400 
G00 X35.8473 Y55.5166 
G01 Z-0.1778 F254.00 
G01 X35.8730 Y55.5423 F508.00 
G01 X35.9454 Y55.5841 
G01 X36.0262 Y55.6058 
G01 X36.1098 Y55.6058 
G01 X36.1324 Y55.5997 
G01 X36.1905 Y55.5841 
G01 X36.2629 Y55.5423 
G01 X36.2887 Y55.5166 
G01 X36.2887 Y56.7394 
G01 X36.2159 Y56.6973 
G01 X36.1352 Y56.6756 
G01 X36.0516 Y56.6756 
G01 X36.0290 Y56.6817 
G01 X35.9708 Y56.6973 
G01 X35.8984 Y56.7391 
G01 X35.8393 Y56.7982 
G01 X35.8013 Y56.8641 
G01 X35.8013 Y56.8213 
G01 X35.8299 Y56.7927 
G01 X35.8473 Y56.7507 
G01 X35.8473 Y55.5166 
G00 Z2.5400 
G00 X37.1173 Y55.5129 
G01 Z-0.1778 F254.00 
G01 X37.1440 Y55.5283 F508.00 
G01 X37.1809 Y55.5496 
G01 X37.2159 Y55.5590 
G01 X37.2616 Y55.5712 
G01 X37.3039 Y55.5712 
G01 X37.3452 Y55.5712 
G01 X37.3864 Y55.5602 
G01 X37.4260 Y55.5496 
G01 X37.4642 Y55.5275 
G01 X37.4984 Y55.5078 
G01 X37.5381 Y55.4680 
G01 X37.5575 Y55.4487 
G01 X37.5612 Y55.4422 
G01 X37.5872 Y55.4162 
G01 X37.6191 Y55.3978 
G01 X37.6546 Y55.3883 
G01 X37.6555 Y55.4137 
G01 X37.6503 Y55.4137 
G01 X37.6083 Y55.4311 
G01 X37.5761 Y55.4633 
G01 X37.5587 Y55.5053 
G01 X37.5587 Y56.7507 
G01 X37.5761 Y56.7927 
G01 X37.6083 Y56.8249 
G01 X37.6503 Y56.8423 
G01 X37.6555 Y56.8423 
G01 X37.6555 Y56.8677 
G01 X37.6191 Y56.8582 
G01 X37.5872 Y56.8398 
G01 X37.5612 Y56.8138 
G01 X37.5575 Y56.8074 
G01 X37.5375 Y56.7873 
G01 X37.4984 Y56.7482 
G01 X37.4632 Y56.7279 
G01 X37.4260 Y56.7064 
G01 X37.3856 Y56.6956 
G01 X37.3453 Y56.6848 
G01 X37.3030 Y56.6848 
G01 X37.2617 Y56.6848 
G01 X37.2150 Y56.6973 
G01 X37.1809 Y56.7064 
G01 X37.1435 Y56.7280 
G01 X37.1173 Y56.7431 
G01 X37.1173 Y55.5129 
G00 Z2.5400 
G00 X38.2905 Y55.4137 
G01 Z-0.1778 F254.00 
G01 X38.2905 Y55.3883 F508.00 
G01 X38.3269 Y55.3978 
G01 X38.3838 Y55.4307 
G01 X38.4646 Y55.4523 
G01 X38.5482 Y55.4523 
G01 X38.5924 Y55.4405 
G01 X38.6289 Y55.4307 
G01 X38.6499 Y55.4186 
G01 X38.7013 Y55.3889 
G01 X38.7605 Y55.3298 
G01 X38.7985 Y55.2639 
G01 X38.7985 Y56.0428 
G01 X38.8201 Y56.1236 
G01 X38.8287 Y56.1384 
G01 X38.8287 Y56.7431 
G01 X38.8020 Y56.7277 
G01 X38.7651 Y56.7064 
G01 X38.7301 Y56.6970 
G01 X38.6844 Y56.6848 
G01 X38.6421 Y56.6848 
G01 X38.6008 Y56.6848 
G01 X38.5596 Y56.6958 
G01 X38.5200 Y56.7064 
G01 X38.4818 Y56.7285 
G01 X38.4476 Y56.7482 
G01 X38.4079 Y56.7880 
G01 X38.3885 Y56.8073 
G01 X38.3848 Y56.8138 
G01 X38.3588 Y56.8398 
G01 X38.3269 Y56.8582 
G01 X38.2914 Y56.8677 
G01 X38.2905 Y56.8423 
G01 X38.2957 Y56.8423 
G01 X38.3377 Y56.8249 
G01 X38.3699 Y56.7927 
G01 X38.3873 Y56.7507 
G01 X38.3873 Y55.5053 
G01 X38.3699 Y55.4633 
G01 X38.3377 Y55.4311 
G01 X38.2957 Y55.4137 
G01 X38.2905 Y55.4137 
G00 Z2.5400 
G00 X39.4335 Y55.4137 
G01 Z-0.1778 F254.00 
G01 X39.4335 Y54.8222 F508.00 
G01 X39.4119 Y54.7414 
G01 X39.3701 Y54.6690 
G01 X39.3109 Y54.6099 
G01 X38.1753 Y53.4743 
G01 X38.1753 Y52.2783 
G01 X38.1889 Y52.2647 
G01 X38.2063 Y52.2227 
G01 X38.2063 Y51.0773 
G01 X38.1889 Y51.0353 
G01 X38.1567 Y51.0031 
G01 X38.1147 Y50.9857 
G01 X37.0693 Y50.9857 
G01 X37.0273 Y51.0031 
G01 X36.9951 Y51.0353 
G01 X36.9777 Y51.0773 
G01 X36.9777 Y51.3685 
G01 X36.7570 Y51.1478 
G01 X36.7665 Y51.1125 
G01 X36.7665 Y50.9955 
G01 X36.7362 Y50.8824 
G01 X36.6777 Y50.7811 
G01 X36.6149 Y50.7182 
G01 X36.6235 Y50.7194 
G01 X36.6438 Y50.7248 
G01 X36.6648 Y50.7248 
G01 X36.6856 Y50.7276 
G01 X36.7064 Y50.7248 
G01 X36.7274 Y50.7248 
G01 X36.7477 Y50.7194 
G01 X36.7685 Y50.7166 
G01 X36.7879 Y50.7086 
G01 X36.8081 Y50.7032 
G01 X36.8263 Y50.6927 
G01 X36.8457 Y50.6847 
G01 X36.8624 Y50.6719 
G01 X36.8805 Y50.6614 
G01 X36.8954 Y50.6465 
G01 X36.9120 Y50.6338 
G01 X36.9248 Y50.6171 
G01 X36.9397 Y50.6023 
G01 X36.9502 Y50.5841 
G01 X36.9629 Y50.5674 
G01 X36.9710 Y50.5480 
G01 X36.9810 Y50.5307 
G01 X36.9951 Y50.5647 
G01 X37.0273 Y50.5969 
G01 X37.0693 Y50.6143 
G01 X38.1147 Y50.6143 
G01 X38.1567 Y50.5969 
G01 X38.1666 Y50.5870 
G01 X38.3413 Y50.7617 
G01 X38.3413 Y53.1546 
G01 X38.3768 Y53.2870 
G01 X38.4453 Y53.4057 
G01 X38.5423 Y53.5027 
G01 X39.3923 Y54.3527 
G01 X39.5110 Y54.4212 
G01 X39.5177 Y54.4230 
G01 X39.5177 Y54.5087 
G01 X39.5351 Y54.5507 
G01 X39.5673 Y54.5829 
G01 X39.6093 Y54.6003 
G01 X40.1955 Y54.6003 
G01 X40.1955 Y55.4137 
G01 X40.1903 Y55.4137 
G01 X40.1483 Y55.4311 
G01 X40.1161 Y55.4633 
G01 X40.0987 Y55.5053 
G01 X40.0987 Y56.7394 
G01 X40.0729 Y56.7137 
G01 X40.0005 Y56.6719 
G01 X39.9405 Y56.6558 
G01 X39.9198 Y56.6502 
G01 X39.8362 Y56.6502 
G01 X39.7554 Y56.6719 
G01 X39.6830 Y56.7137 
G01 X39.6573 Y56.7394 
G01 X39.6573 Y55.5053 
G01 X39.6399 Y55.4633 
G01 X39.6077 Y55.4311 
G01 X39.5657 Y55.4137 
G01 X39.4335 Y55.4137 
G00 Z2.5400 
G00 X40.8305 Y55.4137 
G01 Z-0.1778 F254.00 
G01 X40.8305 Y55.3919 F508.00 
G01 X40.8454 Y55.4177 
G01 X40.8357 Y55.4137 
G01 X40.8305 Y55.4137 
G00 Z2.5400 
G00 X40.8305 Y54.7975 
G01 Z-0.1778 F254.00 
G01 X40.8305 Y54.6345 F508.00 
G01 X40.9935 Y54.6345 
G01 X40.9276 Y54.6725 
G01 X40.8685 Y54.7316 
G01 X40.8305 Y54.7975 
G00 Z2.5400 
G00 X40.8434 Y53.9615 
G01 Z-0.1778 F254.00 
G01 X40.9093 Y53.9995 F508.00 
G01 X40.7463 Y53.9995 
G01 X40.7463 Y53.8365 
G01 X40.7843 Y53.9023 
G01 X40.8434 Y53.9615 
G00 Z2.5400 
G00 X40.6650 Y53.2759 
G01 Z-0.1778 F254.00 
G01 X40.6547 Y53.2717 F508.00 
G01 X39.7841 Y53.2717 
G01 X39.3827 Y52.8703 
G01 X39.3827 Y51.3579 
G01 X39.4207 Y51.4237 
G01 X39.4798 Y51.4829 
G01 X39.5522 Y51.5247 
G01 X39.6330 Y51.5463 
G01 X39.7677 Y51.5463 
G01 X39.7677 Y51.5717 
G01 X39.6093 Y51.5717 
G01 X39.5673 Y51.5891 
G01 X39.5351 Y51.6213 
G01 X39.5177 Y51.6633 
G01 X39.5177 Y52.8087 
G01 X39.5351 Y52.8507 
G01 X39.5673 Y52.8829 
G01 X39.6093 Y52.9003 
G01 X40.6547 Y52.9003 
G01 X40.6967 Y52.8829 
G01 X40.7289 Y52.8507 
G01 X40.7463 Y52.8087 
G01 X40.7463 Y52.6003 
G01 X40.7717 Y52.6003 
G01 X40.7717 Y52.8044 
G01 X40.7622 Y52.8399 
G01 X40.7438 Y52.8718 
G01 X40.6886 Y52.9270 
G01 X40.6571 Y52.9816 
G01 X40.6468 Y52.9994 
G01 X40.6365 Y53.0378 
G01 X40.6252 Y53.0801 
G01 X40.6252 Y53.1637 
G01 X40.6468 Y53.2445 
G01 X40.6650 Y53.2759 
G00 Z2.5400 
G00 X40.7463 Y51.8717 
G01 Z-0.1778 F254.00 
G01 X40.7463 Y51.6633 F508.00 
G01 X40.7289 Y51.6213 
G01 X40.6967 Y51.5891 
G01 X40.6547 Y51.5717 
G01 X40.4963 Y51.5717 
G01 X40.4963 Y51.5463 
G01 X40.6504 Y51.5463 
G01 X40.6859 Y51.5558 
G01 X40.7178 Y51.5742 
G01 X40.7438 Y51.6002 
G01 X40.7622 Y51.6321 
G01 X40.7717 Y51.6676 
G01 X40.7717 Y51.8717 
G01 X40.7463 Y51.8717 
G00 Z2.5400 
G00 X42.0403 Y51.8504 
G01 Z-0.1778 F254.00 
G01 X42.0403 Y51.6463 F508.00 
G01 X42.0657 Y51.6463 
G01 X42.0657 Y51.8547 
G01 X42.0831 Y51.8967 
G01 X42.1153 Y51.9289 
G01 X42.1573 Y51.9463 
G01 X42.7657 Y51.9463 
G01 X42.7657 Y51.9717 
G01 X42.1616 Y51.9717 
G01 X42.1261 Y51.9622 
G01 X42.0942 Y51.9438 
G01 X42.0682 Y51.9178 
G01 X42.0498 Y51.8859 
G01 X42.0403 Y51.8504 
G00 Z2.5400 
G00 X42.0403 Y50.8177 
G01 Z-0.1778 F254.00 
G01 X42.0403 Y50.6136 F508.00 
G01 X42.0498 Y50.5781 
G01 X42.0682 Y50.5462 
G01 X42.0942 Y50.5202 
G01 X42.1261 Y50.5018 
G01 X42.1616 Y50.4923 
G01 X42.7657 Y50.4923 
G01 X42.7657 Y50.5177 
G01 X42.1573 Y50.5177 
G01 X42.1153 Y50.5351 
G01 X42.0831 Y50.5673 
G01 X42.0657 Y50.6093 
G01 X42.0657 Y50.8177 
G01 X42.0403 Y50.8177 
G00 Z2.5400 
G00 X43.5943 Y50.5177 
G01 Z-0.1778 F254.00 
G01 X43.5943 Y50.4923 F508.00 
G01 X44.1984 Y50.4923 
G01 X44.2339 Y50.5018 
G01 X44.2658 Y50.5202 
G01 X44.2918 Y50.5462 
G01 X44.3102 Y50.5781 
G01 X44.3197 Y50.6136 
G01 X44.3197 Y50.8177 
G01 X44.2943 Y50.8177 
G01 X44.2943 Y50.6093 
G01 X44.2769 Y50.5673 
G01 X44.2447 Y50.5351 
G01 X44.2027 Y50.5177 
G01 X43.5943 Y50.5177 
G00 Z2.5400 
G00 X43.5943 Y51.9463 
G01 Z-0.1778 F254.00 
G01 X44.2027 Y51.9463 F508.00 
G01 X44.2447 Y51.9289 
G01 X44.2769 Y51.8967 
G01 X44.2943 Y51.8547 
G01 X44.2943 Y51.6463 
G01 X44.3197 Y51.6463 
G01 X44.3197 Y51.8504 
G01 X44.3102 Y51.8859 
G01 X44.2918 Y51.9178 
G01 X44.2658 Y51.9438 
G01 X44.2339 Y51.9622 
G01 X44.1984 Y51.9717 
G01 X43.5943 Y51.9717 
G01 X43.5943 Y51.9463 
G00 Z2.5400 
G00 X42.0657 Y53.8365 
G01 Z-0.1778 F254.00 
G01 X42.0657 Y53.9995 F508.00 
G01 X41.9027 Y53.9995 
G01 X41.9685 Y53.9615 
G01 X42.0277 Y53.9023 
G01 X42.0657 Y53.8365 
G00 Z2.5400 
G00 X42.0657 Y54.6345 
G01 Z-0.1778 F254.00 
G01 X42.0657 Y54.7975 F508.00 
G01 X42.0277 Y54.7316 
G01 X41.9685 Y54.6725 
G01 X41.9027 Y54.6345 
G01 X42.0657 Y54.6345 
G00 Z2.5400 
G00 X40.8454 Y56.8383 
G01 Z-0.1778 F254.00 
G01 X40.8305 Y56.8641 F508.00 
G01 X40.8305 Y56.8423 
G01 X40.8357 Y56.8423 
G01 X40.8454 Y56.8383 
G00 Z2.5400 
G00 X40.1955 Y56.8423 
G01 Z-0.1778 F254.00 
G01 X40.1955 Y56.8641 F508.00 
G01 X40.1806 Y56.8383 
G01 X40.1903 Y56.8423 
G01 X40.1955 Y56.8423 
G00 Z2.5400 
G00 X40.1955 Y60.9919 
G01 Z-0.1778 F254.00 
G01 X40.1955 Y61.0137 F508.00 
G01 X40.1903 Y61.0137 
G01 X40.1806 Y61.0177 
G01 X40.1955 Y60.9919 
G00 Z2.5400 
G00 X40.0987 Y61.1166 
G01 Z-0.1778 F254.00 
G01 X40.0987 Y62.3394 F508.00 
G01 X40.0730 Y62.3137 
G01 X40.0684 Y62.3110 
G01 X40.0006 Y62.2719 
G01 X39.9698 Y62.2636 
G01 X39.9198 Y62.2502 
G01 X39.8785 Y62.2502 
G01 X39.8362 Y62.2502 
G01 X39.8121 Y62.2567 
