(.../pcb-gcode-3.6.2.4/pcb-gcode.ulp)
(Copyright 2005 - 2012 by John Johnson)
(See readme.txt for licensing terms.)
(This file generated from the board:)
(.../LagoVista.EaglePCB.Tests/KegeratorController.brd)
(Current profile is .../pcb-gcode-3.6.2.4/profiles/generic.pp  )
(This file generated 4/8/2017 10:05)
(Settings from pcb-machine.h)
(spindle on time = 3.0000)
(spindle speed = 20000.0000)
(tool change at 0.0000 0.0000 25.4000 )
(feed rate xy = F0.00  )
(feed rate z  = F508.00 )
(Z Axis Settings)
(  High     Up        Down     Drill)
(12.7000 	2.5400 	-0.1778 	-0.8128 )
(Settings from pcb-defaults.h)
(isolate min = 0.0254)
(isolate max = 0.5080)
(isolate step = 0.1270)
(Generated top outlines, top drill, bottom outlines, bottom drill, )
(Unit of measure: mm)
( Tool|       Size       |  Min Sub |  Max Sub |   Count )
( T01  0.254mm 0.0100in 0.0000in 0.0000in )
( T02  0.600mm 0.0236in 0.0000in 0.0000in )
( T03  0.813mm 0.0320in 0.0000in 0.0000in )
( T04  0.900mm 0.0354in 0.0000in 0.0000in )
( T05  0.920mm 0.0362in 0.0000in 0.0000in )
( T06  1.016mm 0.0400in 0.0000in 0.0000in )
( T07  1.100mm 0.0433in 0.0000in 0.0000in )
( T08  1.300mm 0.0512in 0.0000in 0.0000in )
( T09  2.000mm 0.0787in 0.0000in 0.0000in )
( T10  2.057mm 0.0810in 0.0000in 0.0000in )
( T11  2.300mm 0.0906in 0.0000in 0.0000in )
( T12  3.000mm 0.1181in 0.0000in 0.0000in )
(Metric Mode)
G21
(Absolute Coordinates)
G90
S20000
G00 Z12.7000 
G00 X0.0000 Y0.0000 
M03
G04 P3.000000
M05
G00 Z25.4000 
M06 T01  ; 0.2540 
G01 Z0.0000 F508.00 
M06 
G00 Z2.5400 
M03
G04 P3.000000
G00 Z2.540000
G00 X4.8260 Y14.9860 
G01 Z-0.8128 F508.00 
G01 Z2.540000
(R2.5400  P1.000000)
G00 X6.0960 Y18.7960 
G01 Z-0.812800
G01 Z2.540000
G00 X11.4300 Y17.2720 
G01 Z-0.812800
G01 Z2.540000
G00 X11.6840 Y23.3680 
G01 Z-0.812800
G01 Z2.540000
G00 X17.5260 Y29.4640 
G01 Z-0.812800
G01 Z2.540000
G00 X21.3360 Y28.1940 
G01 Z-0.812800
G01 Z2.540000
G00 X22.3520 Y22.6060 
G01 Z-0.812800
G01 Z2.540000
G00 X27.1780 Y29.2100 
G01 Z-0.812800
G01 Z2.540000
G00 X26.1620 Y31.2420 
G01 Z-0.812800
G01 Z2.540000
G00 X23.3680 Y37.8460 
G01 Z-0.812800
G01 Z2.540000
G00 X27.9400 Y40.3860 
G01 Z-0.812800
G01 Z2.540000
G00 X26.4160 Y43.9420 
G01 Z-0.812800
G01 Z2.540000
G00 X25.4000 Y45.2120 
G01 Z-0.812800
G01 Z2.540000
G00 X26.9240 Y45.9740 
G01 Z-0.812800
G01 Z2.540000
G00 X21.3360 Y44.1960 
G01 Z-0.812800
G01 Z2.540000
G00 X11.9380 Y48.0060 
G01 Z-0.812800
G01 Z2.540000
G00 X6.3500 Y48.2600 
G01 Z-0.812800
G01 Z2.540000
G00 X7.3660 Y43.1800 
G01 Z-0.812800
G01 Z2.540000
G00 X6.8580 Y39.3700 
G01 Z-0.812800
G01 Z2.540000
G00 X11.9380 Y32.5120 
G01 Z-0.812800
G01 Z2.540000
G00 X5.0800 Y30.2260 
G01 Z-0.812800
G01 Z2.540000
G00 X21.0820 Y12.9540 
G01 Z-0.812800
G01 Z2.540000
G00 X25.9080 Y14.4780 
G01 Z-0.812800
G01 Z2.540000
G00 X27.4320 Y15.2400 
G01 Z-0.812800
G01 Z2.540000
G00 X31.2420 Y25.6540 
G01 Z-0.812800
G01 Z2.540000
G00 X39.6240 Y20.5740 
G01 Z-0.812800
G01 Z2.540000
G00 X46.7360 Y35.3060 
G01 Z-0.812800
G01 Z2.540000
G00 X42.6720 Y46.2280 
G01 Z-0.812800
G01 Z2.540000
G00 X36.3220 Y51.0540 
G01 Z-0.812800
G01 Z2.540000
G00 X34.2900 Y54.6100 
G01 Z-0.812800
G01 Z2.540000
G00 X33.7820 Y58.9280 
G01 Z-0.812800
G01 Z2.540000
G00 X29.9720 Y61.7220 
G01 Z-0.812800
G01 Z2.540000
G00 X32.0040 Y63.7540 
G01 Z-0.812800
G01 Z2.540000
G00 X33.7820 Y64.5160 
G01 Z-0.812800
G01 Z2.540000
G00 X35.5600 Y63.7540 
G01 Z-0.812800
G01 Z2.540000
G00 X38.1000 Y68.0720 
G01 Z-0.812800
G01 Z2.540000
G00 X42.6720 Y68.0720 
G01 Z-0.812800
G01 Z2.540000
G00 X49.7840 Y69.5960 
G01 Z-0.812800
G01 Z2.540000
G00 X50.5460 Y65.7860 
G01 Z-0.812800
G01 Z2.540000
G00 X54.3560 Y64.5160 
G01 Z-0.812800
G01 Z2.540000
G00 X57.1500 Y60.1980 
G01 Z-0.812800
G01 Z2.540000
G00 X63.5000 Y55.8800 
G01 Z-0.812800
G01 Z2.540000
G00 X62.4840 Y53.0860 
G01 Z-0.812800
G01 Z2.540000
G00 X67.3100 Y55.3720 
G01 Z-0.812800
G01 Z2.540000
G00 X68.0720 Y56.6420 
G01 Z-0.812800
G01 Z2.540000
G00 X69.0880 Y55.6260 
G01 Z-0.812800
G01 Z2.540000
G00 X72.1360 Y55.8800 
G01 Z-0.812800
G01 Z2.540000
G00 X72.6440 Y54.8640 
G01 Z-0.812800
G01 Z2.540000
G00 X73.9140 Y55.3720 
G01 Z-0.812800
G01 Z2.540000
G00 X74.4220 Y56.1340 
G01 Z-0.812800
G01 Z2.540000
G00 X73.9140 Y58.4200 
G01 Z-0.812800
G01 Z2.540000
G00 X75.1840 Y58.6740 
G01 Z-0.812800
G01 Z2.540000
G00 X76.4540 Y60.9600 
G01 Z-0.812800
G01 Z2.540000
G00 X77.4700 Y62.7380 
G01 Z-0.812800
G01 Z2.540000
G00 X76.7080 Y65.2780 
G01 Z-0.812800
G01 Z2.540000
G00 X76.7080 Y66.5480 
G01 Z-0.812800
G01 Z2.540000
G00 X74.9300 Y68.0720 
G01 Z-0.812800
G01 Z2.540000
G00 X75.4380 Y70.1040 
G01 Z-0.812800
G01 Z2.540000
G00 X74.9300 Y71.8820 
G01 Z-0.812800
G01 Z2.540000
G00 X77.4700 Y70.6120 
G01 Z-0.812800
G01 Z2.540000
G00 X82.0420 Y70.3580 
G01 Z-0.812800
G01 Z2.540000
G00 X82.2960 Y71.8820 
G01 Z-0.812800
G01 Z2.540000
G00 X85.5980 Y73.1520 
G01 Z-0.812800
G01 Z2.540000
G00 X89.6620 Y74.6760 
G01 Z-0.812800
G01 Z2.540000
G00 X89.4080 Y70.8660 
G01 Z-0.812800
G01 Z2.540000
G00 X93.2180 Y67.3100 
G01 Z-0.812800
G01 Z2.540000
G00 X96.0120 Y68.3260 
G01 Z-0.812800
G01 Z2.540000
G00 X99.0600 Y70.1040 
G01 Z-0.812800
G01 Z2.540000
G00 X99.0600 Y76.9620 
G01 Z-0.812800
G01 Z2.540000
G00 X97.7900 Y62.4840 
G01 Z-0.812800
G01 Z2.540000
G00 X91.6940 Y62.4840 
G01 Z-0.812800
G01 Z2.540000
G00 X89.9160 Y52.8320 
G01 Z-0.812800
G01 Z2.540000
G00 X87.3760 Y53.3400 
G01 Z-0.812800
G01 Z2.540000
G00 X78.9940 Y54.3560 
G01 Z-0.812800
G01 Z2.540000
G00 X75.4380 Y52.0700 
G01 Z-0.812800
G01 Z2.540000
G00 X71.8820 Y49.5300 
G01 Z-0.812800
G01 Z2.540000
G00 X67.8180 Y58.4200 
G01 Z-0.812800
G01 Z2.540000
G00 X66.5480 Y58.1660 
G01 Z-0.812800
G01 Z2.540000
G00 X65.0240 Y59.4360 
G01 Z-0.812800
G01 Z2.540000
G00 X68.3260 Y62.2300 
G01 Z-0.812800
G01 Z2.540000
G00 X68.0720 Y63.7540 
G01 Z-0.812800
G01 Z2.540000
G00 X68.3260 Y65.0240 
G01 Z-0.812800
G01 Z2.540000
G00 X69.5960 Y66.2940 
G01 Z-0.812800
G01 Z2.540000
G00 X70.8660 Y64.2620 
G01 Z-0.812800
G01 Z2.540000
G00 X71.8820 Y62.9920 
G01 Z-0.812800
G01 Z2.540000
G00 X71.8820 Y61.4680 
G01 Z-0.812800
G01 Z2.540000
G00 X73.4060 Y62.9920 
G01 Z-0.812800
G01 Z2.540000
G00 X72.6440 Y64.5160 
G01 Z-0.812800
G01 Z2.540000
G00 X73.9140 Y66.0400 
G01 Z-0.812800
G01 Z2.540000
G00 X70.8660 Y69.5960 
G01 Z-0.812800
G01 Z2.540000
G00 X68.0720 Y73.9140 
G01 Z-0.812800
G01 Z2.540000
G00 X62.7380 Y69.3420 
G01 Z-0.812800
G01 Z2.540000
G00 X61.2140 Y70.3580 
G01 Z-0.812800
G01 Z2.540000
G00 X60.1980 Y70.3580 
G01 Z-0.812800
G01 Z2.540000
G00 X58.1660 Y69.0880 
G01 Z-0.812800
G01 Z2.540000
G00 X56.3880 Y74.1680 
G01 Z-0.812800
G01 Z2.540000
G00 X54.1020 Y74.1680 
G01 Z-0.812800
G01 Z2.540000
G00 X50.8000 Y74.6760 
G01 Z-0.812800
G01 Z2.540000
G00 X59.9440 Y75.1840 
G01 Z-0.812800
G01 Z2.540000
G00 X63.2460 Y66.8020 
G01 Z-0.812800
G01 Z2.540000
G00 X64.0080 Y66.0400 
G01 Z-0.812800
G01 Z2.540000
G00 X65.0240 Y65.2780 
G01 Z-0.812800
G01 Z2.540000
G00 X77.7240 Y75.9460 
G01 Z-0.812800
G01 Z2.540000
G00 X81.0260 Y45.4660 
G01 Z-0.812800
G01 Z2.540000
G00 X99.5680 Y43.9420 
G01 Z-0.812800
G01 Z2.540000
G00 X99.3140 Y27.6860 
G01 Z-0.812800
G01 Z2.540000
G00 X97.2820 Y22.8600 
G01 Z-0.812800
G01 Z2.540000
G00 X76.9620 Y11.1760 
G01 Z-0.812800
G01 Z2.540000
G00 X69.0880 Y8.8900 
G01 Z-0.812800
G01 Z2.540000
G00 X64.2620 Y9.9060 
G01 Z-0.812800
G01 Z2.540000
G00 X60.7060 Y16.0020 
G01 Z-0.812800
G01 Z2.540000
G00 X72.1360 Y27.9400 
G01 Z-0.812800
G01 Z2.540000
G00 X58.4200 Y47.4980 
G01 Z-0.812800
G01 Z2.540000
G00 X48.7680 Y56.1340 
G01 Z-0.812800
G01 Z2.540000
G00 X32.5120 Y68.0720 
G01 Z-0.812800
G01 Z2.540000
G00 X32.7660 Y75.1840 
G01 Z-0.812800
G01 Z2.540000
G00 X26.6700 Y72.8980 
G01 Z-0.812800
G01 Z2.540000
G00 X23.8760 Y70.8660 
G01 Z-0.812800
G01 Z2.540000
G00 X18.7960 Y74.4220 
G01 Z-0.812800
G01 Z2.540000
G00 X12.1920 Y71.3740 
G01 Z-0.812800
G01 Z2.540000
G00 X12.1920 Y63.5000 
G01 Z-0.812800
G01 Z2.540000
G00 X17.0180 Y60.7060 
G01 Z-0.812800
G01 Z2.540000
G00 X21.0820 Y59.1820 
G01 Z-0.812800
G01 Z2.540000
G00 X19.0500 Y54.8640 
G01 Z-0.812800
G01 Z2.540000
G00 X22.6060 Y54.3560 
G01 Z-0.812800
G01 Z2.540000
G00 X25.9080 Y60.7060 
G01 Z-0.812800
G01 Z2.540000
G00 X26.1620 Y61.9760 
G01 Z-0.812800
G01 Z2.540000
G00 X11.9380 Y54.8640 
G01 Z-0.812800
G01 Z2.540000
G00 X8.1280 Y57.6580 
G01 Z-0.812800
G01 Z2.540000
G00 X6.0960 Y55.1180 
G01 Z-0.812800
G01 Z2.540000
G00 X34.5440 Y40.8940 
G01 Z-0.812800
G01 Z2.540000
G00 X41.6560 Y76.2000 
G01 Z-0.812800
G01 Z2.540000
G00 X83.0580 Y3.3020 
G01 Z-0.812800
G01 Z2.540000
M05
G00 Z25.4000 
G00 X0.0000 Y0.0000 
M06 T02  ; 0.6000 
G01 Z0.0000 F508.00 
M06 
G00 Z2.5400 
M03
G04 P3.000000
G00 Z2.540000
G00 X49.7840 Y47.4980 
G01 Z-0.8128 F508.00 
G01 Z2.540000
(R2.5400  P1.000000)
G00 X51.0540 Y50.0380 
G01 Z-0.812800
G01 Z2.540000
G00 X54.1020 Y47.4980 
G01 Z-0.812800
G01 Z2.540000
G00 X79.2480 Y44.9580 
G01 Z-0.812800
G01 Z2.540000
M05
G00 Z25.4000 
G00 X0.0000 Y0.0000 
M06 T03  ; 0.8128 
G01 Z0.0000 F508.00 
M06 
G00 Z2.5400 
M03
G04 P3.000000
G00 Z2.540000
G00 X60.7060 Y4.8260 
G01 Z-0.8128 F508.00 
G01 Z2.540000
(R2.5400  P1.000000)
G00 X63.2460 Y4.8260 
G01 Z-0.812800
G01 Z2.540000
G00 X71.3740 Y4.8260 
G01 Z-0.812800
G01 Z2.540000
G00 X73.9140 Y4.8260 
G01 Z-0.812800
G01 Z2.540000
G00 X65.0240 Y24.1300 
G01 Z-0.812800
G01 Z2.540000
G00 X66.9290 Y25.4000 
G01 Z-0.812800
G01 Z2.540000
G00 X65.0240 Y26.6700 
G01 Z-0.812800
G01 Z2.540000
G00 X95.5040 Y26.4160 
G01 Z-0.812800
G01 Z2.540000
G00 X97.4090 Y25.1460 
G01 Z-0.812800
G01 Z2.540000
G00 X95.5040 Y23.8760 
G01 Z-0.812800
G01 Z2.540000
M05
G00 Z25.4000 
G00 X0.0000 Y0.0000 
M06 T04  ; 0.9000 
G01 Z0.0000 F508.00 
M06 
G00 Z2.5400 
M03
G04 P3.000000
G00 Z2.540000
G00 X63.5000 Y12.4460 
G01 Z-0.8128 F508.00 
G01 Z2.540000
(R2.5400  P1.000000)
G00 X66.5480 Y12.4460 
G01 Z-0.812800
G01 Z2.540000
G00 X69.3420 Y12.4460 
G01 Z-0.812800
G01 Z2.540000
G00 X69.3420 Y20.0660 
G01 Z-0.812800
G01 Z2.540000
G00 X66.5480 Y20.0660 
G01 Z-0.812800
G01 Z2.540000
G00 X63.5000 Y20.0660 
G01 Z-0.812800
G01 Z2.540000
G00 X68.5800 Y33.5280 
G01 Z-0.812800
G01 Z2.540000
G00 X68.5800 Y41.1480 
G01 Z-0.812800
G01 Z2.540000
G00 X98.8060 Y41.9100 
G01 Z-0.812800
G01 Z2.540000
G00 X98.8060 Y34.2900 
G01 Z-0.812800
G01 Z2.540000
G00 X98.8060 Y20.5740 
G01 Z-0.812800
G01 Z2.540000
G00 X96.2660 Y20.5740 
G01 Z-0.812800
G01 Z2.540000
G00 X93.7260 Y20.5740 
G01 Z-0.812800
G01 Z2.540000
G00 X93.7260 Y12.9540 
G01 Z-0.812800
G01 Z2.540000
G00 X96.2660 Y12.9540 
G01 Z-0.812800
G01 Z2.540000
G00 X98.8060 Y12.9540 
G01 Z-0.812800
G01 Z2.540000
M05
G00 Z25.4000 
G00 X0.0000 Y0.0000 
M06 T05  ; 0.9200 
G01 Z0.0000 F508.00 
M06 
G00 Z2.5400 
M03
G04 P3.000000
G00 Z2.540000
G00 X82.9820 Y58.4760 
G01 Z-0.8128 F508.00 
G01 Z2.540000
(R2.5400  P1.000000)
G00 X82.9820 Y60.9760 
G01 Z-0.812800
G01 Z2.540000
G00 X82.9820 Y62.9760 
G01 Z-0.812800
G01 Z2.540000
G00 X82.9820 Y65.4760 
G01 Z-0.812800
G01 Z2.540000
G00 X85.6020 Y65.4760 
G01 Z-0.812800
G01 Z2.540000
G00 X85.6020 Y62.9760 
G01 Z-0.812800
G01 Z2.540000
G00 X85.6020 Y60.9760 
G01 Z-0.812800
G01 Z2.540000
G00 X85.6020 Y58.4760 
G01 Z-0.812800
G01 Z2.540000
G00 X88.2220 Y58.4760 
G01 Z-0.812800
G01 Z2.540000
G00 X88.2220 Y60.9760 
G01 Z-0.812800
G01 Z2.540000
G00 X88.2220 Y62.9760 
G01 Z-0.812800
G01 Z2.540000
G00 X88.2220 Y65.4760 
G01 Z-0.812800
G01 Z2.540000
M05
G00 Z25.4000 
G00 X0.0000 Y0.0000 
M06 T06  ; 1.0160 
G01 Z0.0000 F508.00 
M06 
G00 Z2.5400 
M03
G04 P3.000000
G00 Z2.540000
G00 X2.7940 Y12.4460 
G01 Z-0.8128 F508.00 
G01 Z2.540000
(R2.5400  P1.000000)
G00 X2.7940 Y14.9860 
G01 Z-0.812800
G01 Z2.540000
G00 X2.7940 Y17.5260 
G01 Z-0.812800
G01 Z2.540000
G00 X2.7940 Y20.0660 
G01 Z-0.812800
G01 Z2.540000
G00 X2.7940 Y22.6060 
G01 Z-0.812800
G01 Z2.540000
G00 X3.0480 Y27.1780 
G01 Z-0.812800
G01 Z2.540000
G00 X3.0480 Y29.7180 
G01 Z-0.812800
G01 Z2.540000
G00 X3.0480 Y32.2580 
G01 Z-0.812800
G01 Z2.540000
G00 X3.0480 Y34.7980 
G01 Z-0.812800
G01 Z2.540000
G00 X3.0480 Y37.3380 
G01 Z-0.812800
G01 Z2.540000
G00 X3.3020 Y41.6560 
G01 Z-0.812800
G01 Z2.540000
G00 X3.3020 Y44.1960 
G01 Z-0.812800
G01 Z2.540000
G00 X3.3020 Y46.7360 
G01 Z-0.812800
G01 Z2.540000
G00 X3.3020 Y49.2760 
G01 Z-0.812800
G01 Z2.540000
G00 X3.3020 Y51.8160 
G01 Z-0.812800
G01 Z2.540000
G00 X3.3020 Y56.1340 
G01 Z-0.812800
G01 Z2.540000
G00 X3.3020 Y58.6740 
G01 Z-0.812800
G01 Z2.540000
G00 X3.3020 Y61.2140 
G01 Z-0.812800
G01 Z2.540000
G00 X3.3020 Y63.7540 
G01 Z-0.812800
G01 Z2.540000
G00 X3.3020 Y66.2940 
G01 Z-0.812800
G01 Z2.540000
G00 X11.4300 Y76.4540 
G01 Z-0.812800
G01 Z2.540000
G00 X13.9700 Y76.4540 
G01 Z-0.812800
G01 Z2.540000
G00 X16.5100 Y76.4540 
G01 Z-0.812800
G01 Z2.540000
G00 X20.3200 Y76.4540 
G01 Z-0.812800
G01 Z2.540000
G00 X22.8600 Y76.4540 
G01 Z-0.812800
G01 Z2.540000
G00 X25.4000 Y76.4540 
G01 Z-0.812800
G01 Z2.540000
G00 X27.9400 Y76.4540 
G01 Z-0.812800
G01 Z2.540000
G00 X30.4800 Y76.4540 
G01 Z-0.812800
G01 Z2.540000
G00 X34.7980 Y76.2000 
G01 Z-0.812800
G01 Z2.540000
G00 X37.3380 Y76.2000 
G01 Z-0.812800
G01 Z2.540000
G00 X39.8780 Y76.2000 
G01 Z-0.812800
G01 Z2.540000
G00 X43.9420 Y76.2000 
G01 Z-0.812800
G01 Z2.540000
G00 X46.4820 Y76.2000 
G01 Z-0.812800
G01 Z2.540000
G00 X49.0220 Y76.2000 
G01 Z-0.812800
G01 Z2.540000
G00 X52.8320 Y76.2000 
G01 Z-0.812800
G01 Z2.540000
G00 X55.3720 Y76.2000 
G01 Z-0.812800
G01 Z2.540000
G00 X57.9120 Y76.2000 
G01 Z-0.812800
G01 Z2.540000
G00 X61.7220 Y76.2000 
G01 Z-0.812800
G01 Z2.540000
G00 X64.2620 Y76.2000 
G01 Z-0.812800
G01 Z2.540000
G00 X66.8020 Y76.2000 
G01 Z-0.812800
G01 Z2.540000
G00 X70.3580 Y76.2000 
G01 Z-0.812800
G01 Z2.540000
G00 X72.8980 Y76.2000 
G01 Z-0.812800
G01 Z2.540000
G00 X75.4380 Y76.2000 
G01 Z-0.812800
G01 Z2.540000
G00 X80.0100 Y76.2000 
G01 Z-0.812800
G01 Z2.540000
G00 X82.5500 Y76.2000 
G01 Z-0.812800
G01 Z2.540000
G00 X85.0900 Y76.2000 
G01 Z-0.812800
G01 Z2.540000
G00 X87.6300 Y76.2000 
G01 Z-0.812800
G01 Z2.540000
G00 X79.2480 Y71.6280 
G01 Z-0.812800
G01 Z2.540000
G00 X79.2480 Y69.0880 
G01 Z-0.812800
G01 Z2.540000
G00 X79.2480 Y66.5480 
G01 Z-0.812800
G01 Z2.540000
G00 X79.2480 Y64.0080 
G01 Z-0.812800
G01 Z2.540000
G00 X79.2480 Y61.4680 
G01 Z-0.812800
G01 Z2.540000
G00 X79.2480 Y58.9280 
G01 Z-0.812800
G01 Z2.540000
G00 X98.0440 Y51.3080 
G01 Z-0.812800
G01 Z2.540000
G00 X98.0440 Y48.7680 
G01 Z-0.812800
G01 Z2.540000
G00 X98.0440 Y46.2280 
G01 Z-0.812800
G01 Z2.540000
M05
G00 Z25.4000 
G00 X0.0000 Y0.0000 
M06 T07  ; 1.1000 
G01 Z0.0000 F508.00 
M06 
G00 Z2.5400 
M03
G04 P3.000000
G00 Z2.540000
G00 X48.0000 Y16.4000 
G01 Z-0.8128 F508.00 
G01 Z2.540000
(R2.5400  P1.000000)
G00 X58.1600 Y16.4000 
G01 Z-0.812800
G01 Z2.540000
G00 X78.4800 Y16.4000 
G01 Z-0.812800
G01 Z2.540000
G00 X88.6400 Y16.4000 
G01 Z-0.812800
G01 Z2.540000
M05
G00 Z25.4000 
G00 X0.0000 Y0.0000 
M06 T08  ; 1.3000 
G01 Z0.0000 F508.00 
M06 
G00 Z2.5400 
M03
G04 P3.000000
G00 Z2.540000
G00 X15.6540 Y5.3340 
G01 Z-0.8128 F508.00 
G01 Z2.540000
(R2.5400  P1.000000)
G00 X20.6540 Y5.3340 
G01 Z-0.812800
G01 Z2.540000
G00 X25.6540 Y5.3340 
G01 Z-0.812800
G01 Z2.540000
G00 X34.1160 Y5.3340 
G01 Z-0.812800
G01 Z2.540000
G00 X39.1160 Y5.3340 
G01 Z-0.812800
G01 Z2.540000
G00 X48.8480 Y5.3340 
G01 Z-0.812800
G01 Z2.540000
G00 X53.8480 Y5.3340 
G01 Z-0.812800
G01 Z2.540000
G00 X80.5980 Y5.3340 
G01 Z-0.812800
G01 Z2.540000
G00 X85.5980 Y5.3340 
G01 Z-0.812800
G01 Z2.540000
M05
G00 Z25.4000 
G00 X0.0000 Y0.0000 
M06 T09  ; 2.0000 
G01 Z0.0000 F508.00 
M06 
G00 Z2.5400 
M03
G04 P3.000000
G00 Z2.540000
G00 X61.9600 Y31.6400 
G01 Z-0.8128 F508.00 
G01 Z2.540000
(R2.5400  P1.000000)
G00 X61.9600 Y39.2700 
G01 Z-0.812800
G01 Z2.540000
G00 X92.4400 Y39.2700 
G01 Z-0.812800
G01 Z2.540000
G00 X92.4400 Y31.6400 
G01 Z-0.812800
G01 Z2.540000
M05
G00 Z25.4000 
G00 X0.0000 Y0.0000 
M06 T10  ; 2.0574 
G01 Z0.0000 F508.00 
M06 
G00 Z2.5400 
M03
G04 P3.000000
G00 Z2.540000
G00 X44.2000 Y29.1000 
G01 Z-0.8128 F508.00 
G01 Z2.540000
(R2.5400  P1.000000)
G00 X74.6800 Y29.1000 
G01 Z-0.812800
G01 Z2.540000
M05
G00 Z25.4000 
G00 X0.0000 Y0.0000 
M06 T11  ; 2.3000 
G01 Z0.0000 F508.00 
M06 
G00 Z2.5400 
M03
G04 P3.000000
G00 Z2.540000
G00 X85.2520 Y55.4060 
G01 Z-0.8128 F508.00 
G01 Z2.540000
(R2.5400  P1.000000)
G00 X90.9320 Y55.4060 
G01 Z-0.812800
G01 Z2.540000
G00 X90.9320 Y68.5460 
G01 Z-0.812800
G01 Z2.540000
G00 X85.2520 Y68.5460 
G01 Z-0.812800
G01 Z2.540000
M05
G00 Z25.4000 
G00 X0.0000 Y0.0000 
M06 T12  ; 3.0000 
G01 Z0.0000 F508.00 
M06 
G00 Z2.5400 
M03
G04 P3.000000
G00 Z2.540000
G00 X6.3500 Y6.3500 
G01 Z-0.8128 F508.00 
G01 Z2.540000
(R2.5400  P1.000000)
G00 X6.3500 Y73.6600 
G01 Z-0.812800
G01 Z2.540000
G00 X95.2500 Y73.6600 
G01 Z-0.812800
G01 Z2.540000
G00 X95.2500 Y6.3500 
G01 Z-0.812800
G01 Z2.540000
T01 
G00 Z12.7000 
M05
M02
