(.../pcb-gcode-3.6.2.4/pcb-gcode.ulp)
(Copyright 2005 - 2012 by John Johnson)
(See readme.txt for licensing terms.)
(This file generated from the board:)
(.../LagoVista.EaglePCB.Tests/KegeratorController.brd)
(Current profile is .../pcb-gcode-3.6.2.4/profiles/generic.pp  )
(This file generated 4/8/2017 10:05)
(Settings from pcb-machine.h)
(spindle on time = 3.0000)
(  Tool Size)
(0.1778 )
(spindle speed = 30000.0000)
(tool change at 0.0000 0.0000 25.4000 )
(feed rate xy = F508.00 )
(feed rate z  = F254.00 )
(Z Axis Settings)
(  High     Up        Down     Drill)
(12.7000 	2.5400 	-0.1778 	-0.8128 )
(Settings from pcb-defaults.h)
(isolate min = 0.0254)
(isolate max = 0.5080)
(isolate step = 0.1270)
(Generated top outlines, top drill, bottom outlines, bottom drill, )
(Unit of measure: mm)
(Metric Mode)
G21
(Absolute Coordinates)
G90
S30000
G00 Z12.7000 
G00 X0.0000 Y0.0000 
M03
G04 P3.000000
G00 Z2.5400 
G00 X-0.9651 Y1.0242 
G01 Z-0.1778 F254.00 
G01 X-1.0242 Y0.9651 F508.00 
G01 X-1.0966 Y0.9233 
G01 X-1.1774 Y0.9017 
G01 X-100.4226 Y0.9017 
G01 X-100.5033 Y0.9233 
G01 X-100.5757 Y0.9651 
G01 X-100.6349 Y1.0242 
G01 X-100.6767 Y1.0966 
G01 X-100.6983 Y1.1774 
G01 X-100.6983 Y47.8523 
G01 X-100.6767 Y47.9330 
G01 X-100.6349 Y48.0054 
G01 X-100.5757 Y48.0645 
G01 X-100.5043 Y48.1058 
G01 X-100.4226 Y48.1280 
G01 X-100.3390 Y48.1280 
G01 X-100.2655 Y48.1083 
G01 X-100.2806 Y48.1233 
G01 X-100.3173 Y48.2120 
G01 X-100.3173 Y65.0004 
G01 X-100.3220 Y65.0243 
G01 X-100.3173 Y65.0479 
G01 X-100.3173 Y65.0720 
G01 X-100.3080 Y65.0945 
G01 X-100.3032 Y65.1184 
G01 X-100.2898 Y65.1384 
G01 X-100.2806 Y65.1607 
G01 X-100.2655 Y65.1757 
G01 X-100.2948 Y65.1679 
G01 X-100.3390 Y65.1560 
G01 X-100.4226 Y65.1560 
G01 X-100.4649 Y65.1674 
G01 X-100.5033 Y65.1777 
G01 X-100.5099 Y65.1814 
G01 X-100.5757 Y65.2195 
G01 X-100.6349 Y65.2786 
G01 X-100.6767 Y65.3510 
G01 X-100.6865 Y65.3875 
G01 X-100.6983 Y65.4317 
G01 X-100.6983 Y78.1976 
G01 X-100.6767 Y78.2784 
G01 X-100.6349 Y78.3507 
G01 X-100.5757 Y78.4099 
G01 X-100.5033 Y78.4517 
G01 X-100.4226 Y78.4733 
G01 X-80.2913 Y78.4733 
G01 X-80.2746 Y78.4759 
G01 X-80.2496 Y78.4733 
G01 X-80.2245 Y78.4733 
G01 X-80.2082 Y78.4689 
G01 X-80.1915 Y78.4672 
G01 X-80.1680 Y78.4582 
G01 X-80.1437 Y78.4517 
G01 X-80.1292 Y78.4433 
G01 X-80.1135 Y78.4372 
G01 X-80.0931 Y78.4224 
G01 X-80.0713 Y78.4099 
G01 X-80.0594 Y78.3980 
G01 X-80.0458 Y78.3881 
G01 X-80.0300 Y78.3685 
G01 X-80.0122 Y78.3507 
G01 X-80.0100 Y78.3469 
G01 X-80.0078 Y78.3507 
G01 X-79.9900 Y78.3685 
G01 X-79.9742 Y78.3881 
G01 X-79.9605 Y78.3980 
G01 X-79.9487 Y78.4099 
G01 X-79.9269 Y78.4224 
G01 X-79.9065 Y78.4372 
G01 X-79.8908 Y78.4433 
G01 X-79.8763 Y78.4517 
G01 X-79.8520 Y78.4582 
G01 X-79.8285 Y78.4672 
G01 X-79.8118 Y78.4689 
G01 X-79.7955 Y78.4733 
G01 X-79.7704 Y78.4733 
G01 X-79.7454 Y78.4759 
G01 X-79.7287 Y78.4733 
G01 X-75.7193 Y78.4733 
G01 X-75.7026 Y78.4759 
G01 X-75.6776 Y78.4733 
G01 X-75.6525 Y78.4733 
G01 X-75.6362 Y78.4689 
G01 X-75.6195 Y78.4672 
G01 X-75.5960 Y78.4582 
G01 X-75.5717 Y78.4517 
G01 X-75.5572 Y78.4433 
G01 X-75.5414 Y78.4372 
G01 X-75.5211 Y78.4224 
G01 X-75.4993 Y78.4099 
G01 X-75.4874 Y78.3980 
G01 X-75.4738 Y78.3881 
G01 X-75.4580 Y78.3685 
G01 X-75.4402 Y78.3507 
G01 X-75.4380 Y78.3469 
G01 X-75.4358 Y78.3507 
G01 X-75.4180 Y78.3685 
G01 X-75.4022 Y78.3881 
G01 X-75.3885 Y78.3980 
G01 X-75.3767 Y78.4099 
G01 X-75.3549 Y78.4224 
G01 X-75.3345 Y78.4372 
G01 X-75.3188 Y78.4433 
G01 X-75.3043 Y78.4517 
G01 X-75.2800 Y78.4582 
G01 X-75.2565 Y78.4672 
G01 X-75.2398 Y78.4689 
G01 X-75.2235 Y78.4733 
G01 X-75.1984 Y78.4733 
G01 X-75.1734 Y78.4759 
G01 X-75.1567 Y78.4733 
G01 X-67.0833 Y78.4733 
G01 X-67.0666 Y78.4759 
G01 X-67.0416 Y78.4733 
G01 X-67.0165 Y78.4733 
G01 X-67.0002 Y78.4689 
G01 X-66.9835 Y78.4672 
G01 X-66.9600 Y78.4582 
G01 X-66.9357 Y78.4517 
G01 X-66.9212 Y78.4433 
G01 X-66.9055 Y78.4372 
G01 X-66.8851 Y78.4224 
G01 X-66.8633 Y78.4099 
G01 X-66.8514 Y78.3980 
G01 X-66.8378 Y78.3881 
G01 X-66.8220 Y78.3685 
G01 X-66.8042 Y78.3507 
G01 X-66.8020 Y78.3469 
G01 X-66.7998 Y78.3507 
G01 X-66.7820 Y78.3685 
G01 X-66.7662 Y78.3881 
G01 X-66.7525 Y78.3980 
G01 X-66.7407 Y78.4099 
G01 X-66.7189 Y78.4224 
G01 X-66.6985 Y78.4372 
G01 X-66.6828 Y78.4433 
G01 X-66.6683 Y78.4517 
G01 X-66.6440 Y78.4582 
G01 X-66.6205 Y78.4672 
G01 X-66.6038 Y78.4689 
G01 X-66.5875 Y78.4733 
G01 X-66.5624 Y78.4733 
G01 X-66.5374 Y78.4759 
G01 X-66.5207 Y78.4733 
G01 X-58.1933 Y78.4733 
G01 X-58.1766 Y78.4759 
G01 X-58.1516 Y78.4733 
G01 X-58.1265 Y78.4733 
G01 X-58.1102 Y78.4689 
G01 X-58.0935 Y78.4672 
G01 X-58.0700 Y78.4582 
G01 X-58.0457 Y78.4517 
G01 X-58.0312 Y78.4433 
G01 X-58.0155 Y78.4372 
G01 X-57.9951 Y78.4224 
G01 X-57.9733 Y78.4099 
G01 X-57.9614 Y78.3980 
G01 X-57.9478 Y78.3881 
G01 X-57.9320 Y78.3685 
G01 X-57.9142 Y78.3507 
G01 X-57.9120 Y78.3469 
G01 X-57.9098 Y78.3507 
G01 X-57.8920 Y78.3685 
G01 X-57.8762 Y78.3881 
G01 X-57.8625 Y78.3980 
G01 X-57.8507 Y78.4099 
G01 X-57.8289 Y78.4224 
G01 X-57.8085 Y78.4372 
G01 X-57.7928 Y78.4433 
G01 X-57.7783 Y78.4517 
G01 X-57.7540 Y78.4582 
G01 X-57.7305 Y78.4672 
G01 X-57.7138 Y78.4689 
G01 X-57.6975 Y78.4733 
G01 X-57.6724 Y78.4733 
G01 X-57.6474 Y78.4759 
G01 X-57.6307 Y78.4733 
G01 X-49.3033 Y78.4733 
G01 X-49.2866 Y78.4759 
G01 X-49.2616 Y78.4733 
G01 X-49.2365 Y78.4733 
G01 X-49.2202 Y78.4689 
G01 X-49.2035 Y78.4672 
G01 X-49.1800 Y78.4582 
G01 X-49.1557 Y78.4517 
G01 X-49.1412 Y78.4432 
G01 X-49.1255 Y78.4372 
G01 X-49.1051 Y78.4224 
G01 X-49.0833 Y78.4099 
G01 X-49.0714 Y78.3980 
G01 X-49.0578 Y78.3881 
G01 X-49.0420 Y78.3685 
G01 X-49.0242 Y78.3507 
G01 X-49.0220 Y78.3469 
G01 X-49.0198 Y78.3507 
G01 X-49.0020 Y78.3685 
G01 X-48.9862 Y78.3881 
G01 X-48.9725 Y78.3980 
G01 X-48.9607 Y78.4099 
G01 X-48.9389 Y78.4224 
G01 X-48.9185 Y78.4372 
G01 X-48.9028 Y78.4432 
G01 X-48.8883 Y78.4517 
G01 X-48.8640 Y78.4582 
G01 X-48.8405 Y78.4672 
G01 X-48.8238 Y78.4689 
G01 X-48.8075 Y78.4733 
G01 X-48.7824 Y78.4733 
G01 X-48.7573 Y78.4759 
G01 X-48.7407 Y78.4733 
G01 X-40.1593 Y78.4733 
G01 X-40.1426 Y78.4759 
G01 X-40.1176 Y78.4733 
G01 X-40.0925 Y78.4733 
G01 X-40.0762 Y78.4689 
G01 X-40.0595 Y78.4672 
G01 X-40.0360 Y78.4582 
G01 X-40.0117 Y78.4517 
G01 X-39.9972 Y78.4433 
G01 X-39.9814 Y78.4372 
G01 X-39.9611 Y78.4224 
G01 X-39.9393 Y78.4099 
G01 X-39.9274 Y78.3980 
G01 X-39.9138 Y78.3881 
G01 X-39.8980 Y78.3685 
G01 X-39.8802 Y78.3507 
G01 X-39.8780 Y78.3469 
G01 X-39.8758 Y78.3507 
G01 X-39.8580 Y78.3685 
G01 X-39.8422 Y78.3881 
G01 X-39.8285 Y78.3980 
G01 X-39.8167 Y78.4099 
G01 X-39.7949 Y78.4224 
G01 X-39.7745 Y78.4372 
G01 X-39.7588 Y78.4433 
G01 X-39.7443 Y78.4517 
G01 X-39.7200 Y78.4582 
G01 X-39.6965 Y78.4672 
G01 X-39.6798 Y78.4689 
G01 X-39.6635 Y78.4733 
G01 X-39.6384 Y78.4733 
G01 X-39.6134 Y78.4759 
G01 X-39.5967 Y78.4733 
G01 X-17.1808 Y78.4733 
G01 X-17.1000 Y78.4517 
G01 X-17.0276 Y78.4099 
G01 X-16.9685 Y78.3507 
G01 X-16.9423 Y78.3054 
G01 X-16.9267 Y78.2784 
G01 X-16.9051 Y78.1976 
G01 X-16.9051 Y78.1140 
G01 X-16.9267 Y78.0332 
G01 X-16.9660 Y77.9653 
G01 X-16.9251 Y77.9926 
G01 X-16.7656 Y78.0586 
G01 X-16.5963 Y78.0923 
G01 X-16.4237 Y78.0923 
G01 X-16.2544 Y78.0586 
G01 X-16.0949 Y77.9926 
G01 X-16.0540 Y77.9652 
G01 X-16.0933 Y78.0332 
G01 X-16.1149 Y78.1140 
G01 X-16.1149 Y78.1976 
G01 X-16.0933 Y78.2784 
G01 X-16.0783 Y78.3043 
G01 X-16.0515 Y78.3507 
G01 X-15.9924 Y78.4099 
G01 X-15.9200 Y78.4517 
G01 X-15.8392 Y78.4733 
G01 X-14.6408 Y78.4733 
G01 X-14.5600 Y78.4517 
G01 X-14.4876 Y78.4099 
G01 X-14.4285 Y78.3507 
G01 X-14.4023 Y78.3054 
G01 X-14.3867 Y78.2784 
G01 X-14.3651 Y78.1976 
G01 X-14.3651 Y78.1140 
G01 X-14.3867 Y78.0332 
G01 X-14.4260 Y77.9653 
G01 X-14.3851 Y77.9926 
G01 X-14.2256 Y78.0586 
G01 X-14.0563 Y78.0923 
G01 X-13.8837 Y78.0923 
G01 X-13.7144 Y78.0586 
G01 X-13.5549 Y77.9926 
G01 X-13.5140 Y77.9652 
G01 X-13.5533 Y78.0332 
G01 X-13.5749 Y78.1140 
G01 X-13.5749 Y78.1976 
G01 X-13.5533 Y78.2784 
G01 X-13.5383 Y78.3043 
G01 X-13.5115 Y78.3507 
G01 X-13.4524 Y78.4099 
G01 X-13.3800 Y78.4517 
G01 X-13.2992 Y78.4733 
G01 X-12.2273 Y78.4733 
G01 X-12.2022 Y78.4759 
G01 X-12.1857 Y78.4733 
G01 X-12.1689 Y78.4733 
G01 X-12.1445 Y78.4668 
G01 X-12.1197 Y78.4628 
G01 X-12.1044 Y78.4560 
G01 X-12.0881 Y78.4517 
G01 X-12.0663 Y78.4391 
G01 X-12.0433 Y78.4288 
G01 X-12.0303 Y78.4183 
G01 X-12.0157 Y78.4099 
G01 X-11.9979 Y78.3921 
G01 X-11.9784 Y78.3762 
G01 X-11.9685 Y78.3626 
G01 X-11.9566 Y78.3507 
G01 X-11.9440 Y78.3289 
G01 X-11.9292 Y78.3086 
G01 X-11.9232 Y78.2929 
G01 X-11.9148 Y78.2784 
G01 X-11.9083 Y78.2540 
G01 X-11.8993 Y78.2305 
G01 X-11.8975 Y78.2138 
G01 X-11.8932 Y78.1976 
G01 X-11.8932 Y78.1724 
G01 X-11.8906 Y78.1474 
G01 X-11.8932 Y78.1308 
G01 X-11.8932 Y78.1140 
G01 X-11.8997 Y78.0897 
G01 X-11.9037 Y78.0648 
G01 X-11.9105 Y78.0495 
G01 X-11.9148 Y78.0332 
G01 X-11.9274 Y78.0114 
G01 X-11.9377 Y77.9884 
G01 X-11.9482 Y77.9754 
G01 X-11.9566 Y77.9608 
G01 X-11.9744 Y77.9430 
G01 X-11.9903 Y77.9235 
G01 X-12.0039 Y77.9136 
G01 X-12.0157 Y77.9017 
G01 X-12.0245 Y77.8967 
G01 X-12.1178 Y77.8034 
G01 X-12.2012 Y77.6886 
G01 X-12.2656 Y77.5621 
G01 X-12.3095 Y77.4272 
G01 X-12.3317 Y77.2870 
G01 X-12.3317 Y76.8223 
G01 X-12.3063 Y76.8223 
G01 X-12.3063 Y77.3023 
G01 X-12.2726 Y77.4716 
G01 X-12.2066 Y77.6311 
G01 X-12.1107 Y77.7746 
G01 X-11.9886 Y77.8967 
G01 X-11.8451 Y77.9926 
G01 X-11.6856 Y78.0586 
G01 X-11.5163 Y78.0923 
G01 X-11.3437 Y78.0923 
G01 X-11.1744 Y78.0586 
G01 X-11.0149 Y77.9926 
G01 X-10.8714 Y77.8967 
G01 X-10.7493 Y77.7746 
G01 X-10.6534 Y77.6311 
G01 X-10.5874 Y77.4716 
G01 X-10.5537 Y77.3023 
G01 X-10.5537 Y76.8223 
G01 X-10.5283 Y76.8223 
G01 X-10.5283 Y77.2870 
G01 X-10.5505 Y77.4272 
G01 X-10.5944 Y77.5621 
G01 X-10.6588 Y77.6886 
G01 X-10.7422 Y77.8034 
G01 X-10.8355 Y77.8967 
G01 X-10.8443 Y77.9017 
G01 X-10.8561 Y77.9136 
G01 X-10.8697 Y77.9235 
G01 X-10.8856 Y77.9430 
G01 X-10.9034 Y77.9608 
G01 X-10.9118 Y77.9754 
G01 X-10.9223 Y77.9884 
G01 X-10.9326 Y78.0114 
G01 X-10.9452 Y78.0332 
G01 X-10.9495 Y78.0495 
G01 X-10.9563 Y78.0648 
G01 X-10.9603 Y78.0897 
G01 X-10.9668 Y78.1140 
G01 X-10.9668 Y78.1308 
G01 X-10.9694 Y78.1474 
G01 X-10.9668 Y78.1724 
G01 X-10.9668 Y78.1976 
G01 X-10.9625 Y78.2138 
G01 X-10.9607 Y78.2305 
G01 X-10.9517 Y78.2540 
G01 X-10.9452 Y78.2784 
G01 X-10.9368 Y78.2929 
G01 X-10.9308 Y78.3086 
G01 X-10.9160 Y78.3289 
G01 X-10.9034 Y78.3507 
G01 X-10.8915 Y78.3626 
G01 X-10.8816 Y78.3762 
G01 X-10.8621 Y78.3921 
G01 X-10.8443 Y78.4099 
G01 X-10.8297 Y78.4182 
G01 X-10.8167 Y78.4288 
G01 X-10.7937 Y78.4391 
G01 X-10.7719 Y78.4517 
G01 X-10.7556 Y78.4560 
G01 X-10.7403 Y78.4628 
G01 X-10.7154 Y78.4668 
G01 X-10.6911 Y78.4733 
G01 X-10.6743 Y78.4733 
G01 X-10.6577 Y78.4759 
G01 X-10.6327 Y78.4733 
G01 X-1.1774 Y78.4733 
G01 X-1.0966 Y78.4517 
G01 X-1.0242 Y78.4099 
G01 X-0.9651 Y78.3507 
G01 X-0.9233 Y78.2784 
G01 X-0.9017 Y78.1976 
G01 X-0.9017 Y1.1774 
G01 X-0.9233 Y1.0966 
G01 X-0.9651 Y1.0242 
G00 Z2.5400 
G00 X-3.4573 Y3.6660 
G01 Z-0.1778 F254.00 
G01 X-2.7947 Y4.6378 F508.00 
G01 X-2.4480 Y5.7619 
G01 X-2.4480 Y6.9381 
G01 X-2.7947 Y8.0622 
G01 X-3.4573 Y9.0340 
G01 X-4.3769 Y9.7674 
G01 X-5.4719 Y10.1972 
G01 X-6.6449 Y10.2851 
G01 X-7.7917 Y10.0233 
G01 X-8.8104 Y9.4352 
G01 X-9.6104 Y8.5729 
G01 X-10.1208 Y7.5131 
G01 X-10.2961 Y6.3500 
G01 X-10.1208 Y5.1868 
G01 X-9.6104 Y4.1271 
G01 X-8.8104 Y3.2648 
G01 X-7.7917 Y2.6767 
G01 X-6.6449 Y2.4149 
G01 X-5.4719 Y2.5028 
G01 X-4.3769 Y2.9326 
G01 X-3.4573 Y3.6660 
G00 Z2.5400 
G00 X-3.3598 Y11.5227 
G01 Z-0.1778 F254.00 
G01 X-3.2084 Y11.4456 F508.00 
G01 X-3.1623 Y11.4306 
G01 X-3.1623 Y11.4573 
G01 X-3.1986 Y11.4691 
G01 X-3.3465 Y11.5445 
G01 X-3.4807 Y11.6420 
G01 X-3.5980 Y11.7593 
G01 X-3.6955 Y11.8935 
G01 X-3.7709 Y12.0414 
G01 X-3.7827 Y12.0777 
G01 X-3.8094 Y12.0777 
G01 X-3.7944 Y12.0316 
G01 X-3.7173 Y11.8802 
G01 X-3.6174 Y11.7427 
G01 X-3.4973 Y11.6226 
G01 X-3.3598 Y11.5227 
G00 Z2.5400 
G00 X-2.4257 Y11.4573 
G01 Z-0.1778 F254.00 
G01 X-2.4257 Y11.4306 F508.00 
G01 X-2.3796 Y11.4456 
G01 X-2.2282 Y11.5227 
G01 X-2.0907 Y11.6226 
G01 X-1.9706 Y11.7427 
G01 X-1.8707 Y11.8802 
G01 X-1.7936 Y12.0316 
G01 X-1.7786 Y12.0777 
G01 X-1.8053 Y12.0777 
G01 X-1.8171 Y12.0414 
G01 X-1.8925 Y11.8935 
G01 X-1.9900 Y11.7593 
G01 X-2.1073 Y11.6420 
G01 X-2.2415 Y11.5445 
G01 X-2.3894 Y11.4691 
G01 X-2.4257 Y11.4573 
G00 Z2.5400 
G00 X-1.8053 Y12.8143 
G01 Z-0.1778 F254.00 
G01 X-1.7786 Y12.8143 F508.00 
G01 X-1.7936 Y12.8604 
G01 X-1.8707 Y13.0118 
G01 X-1.9706 Y13.1493 
G01 X-2.0907 Y13.2694 
G01 X-2.2282 Y13.3693 
G01 X-2.3776 Y13.4454 
G01 X-2.3817 Y13.4471 
G01 X-2.4096 Y13.4562 
G01 X-2.4202 Y13.4630 
G01 X-2.4319 Y13.4679 
G01 X-2.4552 Y13.4857 
G01 X-2.4797 Y13.5017 
G01 X-2.4882 Y13.5111 
G01 X-2.4982 Y13.5188 
G01 X-2.5161 Y13.5420 
G01 X-2.5357 Y13.5638 
G01 X-2.5414 Y13.5751 
G01 X-2.5491 Y13.5851 
G01 X-2.5603 Y13.6122 
G01 X-2.5736 Y13.6383 
G01 X-2.5762 Y13.6506 
G01 X-2.5811 Y13.6623 
G01 X-2.5849 Y13.6914 
G01 X-2.5910 Y13.7201 
G01 X-2.5903 Y13.7327 
G01 X-2.5920 Y13.7452 
G01 X-2.5882 Y13.7743 
G01 X-2.5866 Y13.8035 
G01 X-2.5827 Y13.8156 
G01 X-2.5811 Y13.8281 
G01 X-2.5699 Y13.8552 
G01 X-2.5608 Y13.8831 
G01 X-2.5539 Y13.8936 
G01 X-2.5491 Y13.9053 
G01 X-2.5312 Y13.9286 
G01 X-2.5153 Y13.9532 
G01 X-2.5059 Y13.9616 
G01 X-2.4982 Y13.9716 
G01 X-2.4934 Y13.9753 
G01 X-2.5472 Y13.9579 
G01 X-2.7110 Y13.9319 
G01 X-2.8770 Y13.9319 
G01 X-3.0408 Y13.9579 
G01 X-3.0946 Y13.9753 
G01 X-3.0898 Y13.9716 
G01 X-3.0821 Y13.9616 
G01 X-3.0727 Y13.9532 
G01 X-3.0568 Y13.9286 
G01 X-3.0389 Y13.9053 
G01 X-3.0341 Y13.8936 
G01 X-3.0272 Y13.8831 
G01 X-3.0181 Y13.8552 
G01 X-3.0069 Y13.8281 
G01 X-3.0053 Y13.8156 
G01 X-3.0014 Y13.8035 
G01 X-2.9998 Y13.7743 
G01 X-2.9960 Y13.7452 
G01 X-2.9976 Y13.7327 
G01 X-2.9970 Y13.7201 
G01 X-3.0031 Y13.6914 
G01 X-3.0069 Y13.6623 
G01 X-3.0117 Y13.6506 
G01 X-3.0144 Y13.6383 
G01 X-3.0277 Y13.6122 
G01 X-3.0389 Y13.5851 
G01 X-3.0466 Y13.5751 
G01 X-3.0523 Y13.5638 
G01 X-3.0719 Y13.5420 
G01 X-3.0898 Y13.5188 
G01 X-3.0998 Y13.5111 
G01 X-3.1083 Y13.5017 
G01 X-3.1328 Y13.4857 
G01 X-3.1561 Y13.4679 
G01 X-3.1678 Y13.4630 
G01 X-3.1784 Y13.4562 
G01 X-3.2063 Y13.4471 
G01 X-3.2104 Y13.4454 
G01 X-3.3598 Y13.3693 
G01 X-3.4973 Y13.2694 
G01 X-3.6174 Y13.1493 
G01 X-3.7173 Y13.0118 
G01 X-3.7944 Y12.8604 
G01 X-3.8094 Y12.8143 
G01 X-3.7827 Y12.8143 
G01 X-3.7709 Y12.8506 
G01 X-3.6955 Y12.9985 
G01 X-3.5980 Y13.1327 
G01 X-3.4807 Y13.2500 
G01 X-3.3465 Y13.3475 
G01 X-3.1986 Y13.4229 
G01 X-3.0408 Y13.4741 
G01 X-2.8770 Y13.5001 
G01 X-2.7110 Y13.5001 
G01 X-2.5472 Y13.4741 
G01 X-2.3894 Y13.4229 
G01 X-2.2415 Y13.3475 
G01 X-2.1073 Y13.2500 
G01 X-1.9900 Y13.1327 
G01 X-1.8925 Y12.9985 
G01 X-1.8171 Y12.8506 
G01 X-1.8053 Y12.8143 
G00 Z2.5400 
G00 X-2.5490 Y16.0144 
G01 Z-0.1778 F254.00 
G01 X-2.5687 Y16.0296 F508.00 
G01 X-2.6196 Y16.0959 
G01 X-2.6516 Y16.1731 
G01 X-2.6625 Y16.2560 
G01 X-2.6525 Y16.3319 
G01 X-2.6516 Y16.3389 
G01 X-2.6196 Y16.4161 
G01 X-2.5979 Y16.4444 
G01 X-2.5687 Y16.4824 
G01 X-2.5490 Y16.4976 
G01 X-2.7110 Y16.4719 
G01 X-2.8770 Y16.4719 
G01 X-3.0390 Y16.4976 
G01 X-3.0193 Y16.4824 
G01 X-2.9909 Y16.4454 
G01 X-2.9684 Y16.4161 
G01 X-2.9364 Y16.3389 
G01 X-2.9255 Y16.2560 
G01 X-2.9355 Y16.1801 
G01 X-2.9364 Y16.1731 
G01 X-2.9684 Y16.0959 
G01 X-3.0193 Y16.0296 
G01 X-3.0390 Y16.0144 
G01 X-2.8770 Y16.0401 
G01 X-2.7110 Y16.0401 
G01 X-2.5490 Y16.0144 
G00 Z2.5400 
G00 X-2.5472 Y18.5541 
G01 Z-0.1778 F254.00 
G01 X-2.4934 Y18.5367 F508.00 
G01 X-2.4982 Y18.5403 
G01 X-2.5059 Y18.5504 
G01 X-2.5153 Y18.5588 
G01 X-2.5312 Y18.5834 
G01 X-2.5491 Y18.6067 
G01 X-2.5539 Y18.6183 
G01 X-2.5608 Y18.6289 
G01 X-2.5699 Y18.6568 
G01 X-2.5811 Y18.6839 
G01 X-2.5827 Y18.6964 
G01 X-2.5866 Y18.7084 
G01 X-2.5882 Y18.7377 
G01 X-2.5920 Y18.7668 
G01 X-2.5903 Y18.7793 
G01 X-2.5910 Y18.7919 
G01 X-2.5849 Y18.8206 
G01 X-2.5811 Y18.8497 
G01 X-2.5762 Y18.8613 
G01 X-2.5736 Y18.8737 
G01 X-2.5603 Y18.8998 
G01 X-2.5491 Y18.9269 
G01 X-2.5414 Y18.9369 
G01 X-2.5357 Y18.9482 
G01 X-2.5161 Y18.9700 
G01 X-2.4982 Y18.9932 
G01 X-2.4882 Y19.0009 
G01 X-2.4797 Y19.0103 
G01 X-2.4552 Y19.0263 
G01 X-2.4319 Y19.0441 
G01 X-2.4202 Y19.0490 
G01 X-2.4096 Y19.0558 
G01 X-2.3817 Y19.0649 
G01 X-2.3776 Y19.0666 
G01 X-2.2282 Y19.1427 
G01 X-2.0907 Y19.2426 
G01 X-1.9706 Y19.3627 
G01 X-1.8707 Y19.5002 
G01 X-1.7936 Y19.6516 
G01 X-1.7786 Y19.6977 
G01 X-1.8053 Y19.6977 
G01 X-1.8171 Y19.6614 
G01 X-1.8925 Y19.5135 
G01 X-1.9900 Y19.3793 
G01 X-2.1073 Y19.2620 
G01 X-2.2415 Y19.1645 
G01 X-2.3894 Y19.0891 
G01 X-2.5472 Y19.0379 
G01 X-2.7110 Y19.0119 
G01 X-2.8770 Y19.0119 
G01 X-3.0408 Y19.0379 
G01 X-3.1986 Y19.0891 
G01 X-3.3465 Y19.1645 
G01 X-3.4807 Y19.2620 
G01 X-3.5980 Y19.3793 
G01 X-3.6955 Y19.5135 
G01 X-3.7709 Y19.6614 
G01 X-3.7827 Y19.6977 
G01 X-3.8094 Y19.6977 
G01 X-3.7944 Y19.6516 
G01 X-3.7173 Y19.5002 
G01 X-3.6174 Y19.3627 
G01 X-3.4973 Y19.2426 
G01 X-3.3598 Y19.1427 
G01 X-3.2104 Y19.0666 
G01 X-3.2063 Y19.0649 
G01 X-3.1784 Y19.0558 
G01 X-3.1678 Y19.0490 
G01 X-3.1561 Y19.0441 
G01 X-3.1328 Y19.0263 
G01 X-3.1083 Y19.0103 
G01 X-3.0998 Y19.0009 
G01 X-3.0898 Y18.9932 
G01 X-3.0719 Y18.9700 
G01 X-3.0523 Y18.9482 
G01 X-3.0466 Y18.9369 
G01 X-3.0389 Y18.9269 
G01 X-3.0277 Y18.8998 
G01 X-3.0144 Y18.8737 
G01 X-3.0117 Y18.8613 
G01 X-3.0069 Y18.8497 
G01 X-3.0031 Y18.8206 
G01 X-2.9970 Y18.7919 
G01 X-2.9976 Y18.7793 
G01 X-2.9960 Y18.7668 
G01 X-2.9998 Y18.7377 
G01 X-3.0014 Y18.7084 
G01 X-3.0053 Y18.6964 
G01 X-3.0069 Y18.6839 
G01 X-3.0181 Y18.6568 
G01 X-3.0272 Y18.6289 
G01 X-3.0341 Y18.6183 
G01 X-3.0389 Y18.6067 
G01 X-3.0568 Y18.5834 
G01 X-3.0727 Y18.5588 
G01 X-3.0821 Y18.5504 
G01 X-3.0898 Y18.5403 
G01 X-3.0946 Y18.5367 
G01 X-3.0408 Y18.5541 
G01 X-2.8770 Y18.5801 
G01 X-2.7110 Y18.5801 
G01 X-2.5472 Y18.5541 
G00 Z2.5400 
G00 X-2.5472 Y21.0941 
G01 Z-0.1778 F254.00 
G01 X-2.3894 Y21.0429 F508.00 
G01 X-2.2415 Y20.9675 
G01 X-2.1073 Y20.8700 
G01 X-1.9900 Y20.7527 
G01 X-1.8925 Y20.6185 
G01 X-1.8171 Y20.4706 
G01 X-1.8053 Y20.4343 
G01 X-1.7786 Y20.4343 
G01 X-1.7936 Y20.4804 
G01 X-1.8707 Y20.6318 
G01 X-1.9706 Y20.7693 
G01 X-2.0907 Y20.8894 
G01 X-2.2282 Y20.9893 
G01 X-2.3776 Y21.0654 
G01 X-2.3817 Y21.0671 
G01 X-2.4096 Y21.0762 
G01 X-2.4202 Y21.0830 
G01 X-2.4319 Y21.0879 
G01 X-2.4552 Y21.1057 
G01 X-2.4797 Y21.1217 
G01 X-2.4882 Y21.1311 
G01 X-2.4982 Y21.1388 
G01 X-2.5161 Y21.1620 
G01 X-2.5357 Y21.1838 
G01 X-2.5414 Y21.1951 
G01 X-2.5491 Y21.2051 
G01 X-2.5603 Y21.2322 
G01 X-2.5736 Y21.2583 
G01 X-2.5762 Y21.2706 
G01 X-2.5811 Y21.2823 
G01 X-2.5849 Y21.3114 
G01 X-2.5910 Y21.3401 
G01 X-2.5903 Y21.3527 
G01 X-2.5920 Y21.3652 
G01 X-2.5882 Y21.3943 
G01 X-2.5866 Y21.4235 
G01 X-2.5827 Y21.4356 
G01 X-2.5811 Y21.4481 
G01 X-2.5699 Y21.4752 
G01 X-2.5608 Y21.5031 
G01 X-2.5539 Y21.5136 
G01 X-2.5491 Y21.5253 
G01 X-2.5312 Y21.5486 
G01 X-2.5153 Y21.5732 
G01 X-2.5059 Y21.5816 
G01 X-2.4982 Y21.5916 
G01 X-2.4934 Y21.5953 
G01 X-2.5472 Y21.5779 
G01 X-2.7110 Y21.5519 
G01 X-2.8770 Y21.5519 
G01 X-3.0408 Y21.5779 
G01 X-3.0946 Y21.5953 
G01 X-3.0898 Y21.5916 
G01 X-3.0821 Y21.5816 
G01 X-3.0727 Y21.5732 
G01 X-3.0568 Y21.5486 
G01 X-3.0389 Y21.5253 
G01 X-3.0341 Y21.5136 
G01 X-3.0272 Y21.5031 
G01 X-3.0181 Y21.4752 
G01 X-3.0069 Y21.4481 
G01 X-3.0053 Y21.4356 
G01 X-3.0014 Y21.4235 
G01 X-2.9998 Y21.3943 
G01 X-2.9960 Y21.3652 
G01 X-2.9976 Y21.3527 
G01 X-2.9970 Y21.3401 
G01 X-3.0031 Y21.3114 
G01 X-3.0069 Y21.2823 
G01 X-3.0117 Y21.2706 
G01 X-3.0144 Y21.2583 
G01 X-3.0277 Y21.2322 
G01 X-3.0389 Y21.2051 
G01 X-3.0466 Y21.1951 
G01 X-3.0523 Y21.1838 
G01 X-3.0719 Y21.1620 
G01 X-3.0898 Y21.1388 
G01 X-3.0998 Y21.1311 
G01 X-3.1083 Y21.1217 
G01 X-3.1328 Y21.1057 
G01 X-3.1561 Y21.0879 
G01 X-3.1678 Y21.0830 
G01 X-3.1784 Y21.0762 
G01 X-3.2063 Y21.0671 
G01 X-3.2104 Y21.0654 
G01 X-3.3598 Y20.9893 
G01 X-3.4973 Y20.8894 
G01 X-3.6174 Y20.7692 
G01 X-3.7173 Y20.6318 
G01 X-3.7944 Y20.4804 
G01 X-3.8094 Y20.4343 
G01 X-3.7827 Y20.4343 
G01 X-3.7709 Y20.4706 
G01 X-3.6955 Y20.6185 
G01 X-3.5980 Y20.7527 
G01 X-3.4807 Y20.8700 
G01 X-3.3465 Y20.9675 
G01 X-3.1986 Y21.0429 
G01 X-3.0408 Y21.0941 
G01 X-2.8770 Y21.1201 
G01 X-2.7110 Y21.1201 
G01 X-2.5472 Y21.0941 
G00 Z2.5400 
G00 X-2.6336 Y26.1776 
G01 Z-0.1778 F254.00 
G01 X-2.4822 Y26.2547 F508.00 
G01 X-2.3447 Y26.3546 
G01 X-2.2246 Y26.4747 
G01 X-2.1247 Y26.6122 
G01 X-2.0476 Y26.7636 
G01 X-2.0326 Y26.8097 
G01 X-2.0593 Y26.8097 
G01 X-2.0711 Y26.7734 
G01 X-2.1465 Y26.6255 
G01 X-2.2440 Y26.4913 
G01 X-2.3613 Y26.3740 
G01 X-2.4955 Y26.2765 
G01 X-2.6434 Y26.2011 
G01 X-2.6797 Y26.1893 
G01 X-2.6797 Y26.1626 
G01 X-2.6336 Y26.1776 
G00 Z2.5400 
G00 X-3.4163 Y26.1893 
G01 Z-0.1778 F254.00 
G01 X-3.4526 Y26.2011 F508.00 
G01 X-3.6005 Y26.2765 
G01 X-3.7347 Y26.3740 
G01 X-3.8520 Y26.4913 
G01 X-3.9495 Y26.6255 
G01 X-4.0249 Y26.7734 
G01 X-4.0367 Y26.8097 
G01 X-4.0634 Y26.8097 
G01 X-4.0484 Y26.7636 
G01 X-3.9713 Y26.6122 
G01 X-3.8714 Y26.4747 
G01 X-3.7513 Y26.3546 
G01 X-3.6138 Y26.2547 
G01 X-3.4624 Y26.1776 
G01 X-3.4163 Y26.1626 
G01 X-3.4163 Y26.1893 
G00 Z2.5400 
G00 X-4.0367 Y27.5463 
G01 Z-0.1778 F254.00 
G01 X-4.0249 Y27.5826 F508.00 
G01 X-3.9495 Y27.7305 
G01 X-3.8520 Y27.8647 
G01 X-3.7347 Y27.9820 
G01 X-3.6005 Y28.0795 
G01 X-3.4526 Y28.1549 
G01 X-3.2948 Y28.2061 
G01 X-3.1310 Y28.2321 
G01 X-2.9650 Y28.2321 
G01 X-2.8012 Y28.2061 
G01 X-2.6434 Y28.1549 
G01 X-2.4955 Y28.0795 
G01 X-2.3613 Y27.9820 
G01 X-2.2440 Y27.8647 
G01 X-2.1465 Y27.7305 
G01 X-2.0711 Y27.5826 
G01 X-2.0593 Y27.5463 
G01 X-2.0326 Y27.5463 
G01 X-2.0476 Y27.5924 
G01 X-2.1247 Y27.7438 
G01 X-2.2246 Y27.8813 
G01 X-2.3447 Y28.0014 
G01 X-2.4822 Y28.1013 
G01 X-2.6316 Y28.1774 
G01 X-2.6357 Y28.1791 
G01 X-2.6636 Y28.1882 
G01 X-2.6742 Y28.1950 
G01 X-2.6859 Y28.1999 
G01 X-2.7092 Y28.2177 
G01 X-2.7337 Y28.2337 
G01 X-2.7422 Y28.2431 
G01 X-2.7522 Y28.2508 
G01 X-2.7701 Y28.2740 
G01 X-2.7897 Y28.2958 
G01 X-2.7954 Y28.3071 
G01 X-2.8031 Y28.3171 
G01 X-2.8143 Y28.3442 
G01 X-2.8276 Y28.3703 
G01 X-2.8302 Y28.3826 
G01 X-2.8351 Y28.3943 
G01 X-2.8389 Y28.4234 
G01 X-2.8450 Y28.4521 
G01 X-2.8443 Y28.4647 
G01 X-2.8460 Y28.4772 
G01 X-2.8422 Y28.5063 
G01 X-2.8406 Y28.5355 
G01 X-2.8367 Y28.5476 
G01 X-2.8351 Y28.5601 
G01 X-2.8239 Y28.5872 
G01 X-2.8148 Y28.6151 
G01 X-2.8079 Y28.6256 
G01 X-2.8031 Y28.6373 
G01 X-2.7852 Y28.6606 
G01 X-2.7693 Y28.6852 
G01 X-2.7599 Y28.6936 
G01 X-2.7522 Y28.7036 
G01 X-2.7474 Y28.7073 
G01 X-2.8012 Y28.6899 
G01 X-2.9650 Y28.6639 
G01 X-3.1310 Y28.6639 
G01 X-3.2948 Y28.6899 
G01 X-3.3486 Y28.7073 
G01 X-3.3438 Y28.7036 
G01 X-3.3361 Y28.6936 
G01 X-3.3267 Y28.6852 
G01 X-3.3108 Y28.6606 
G01 X-3.2929 Y28.6373 
G01 X-3.2881 Y28.6256 
G01 X-3.2812 Y28.6151 
G01 X-3.2721 Y28.5872 
G01 X-3.2609 Y28.5601 
G01 X-3.2593 Y28.5476 
G01 X-3.2554 Y28.5355 
G01 X-3.2538 Y28.5063 
G01 X-3.2500 Y28.4772 
G01 X-3.2516 Y28.4647 
G01 X-3.2510 Y28.4521 
G01 X-3.2571 Y28.4234 
G01 X-3.2609 Y28.3943 
G01 X-3.2657 Y28.3826 
G01 X-3.2684 Y28.3703 
G01 X-3.2817 Y28.3442 
G01 X-3.2929 Y28.3171 
G01 X-3.3006 Y28.3071 
G01 X-3.3063 Y28.2958 
G01 X-3.3259 Y28.2740 
G01 X-3.3438 Y28.2508 
G01 X-3.3538 Y28.2431 
G01 X-3.3623 Y28.2337 
G01 X-3.3868 Y28.2177 
G01 X-3.4101 Y28.1999 
G01 X-3.4218 Y28.1950 
G01 X-3.4324 Y28.1882 
G01 X-3.4603 Y28.1791 
G01 X-3.4644 Y28.1774 
G01 X-3.6138 Y28.1013 
G01 X-3.7513 Y28.0014 
G01 X-3.8714 Y27.8813 
G01 X-3.9713 Y27.7438 
G01 X-4.0484 Y27.5924 
G01 X-4.0634 Y27.5463 
G01 X-4.0367 Y27.5463 
G00 Z2.5400 
G00 X-3.2930 Y30.7464 
G01 Z-0.1778 F254.00 
G01 X-3.1310 Y30.7721 F508.00 
G01 X-2.9650 Y30.7721 
G01 X-2.8030 Y30.7464 
G01 X-2.8227 Y30.7615 
G01 X-2.8625 Y30.8134 
G01 X-2.8736 Y30.8279 
G01 X-2.8920 Y30.8722 
G01 X-2.9056 Y30.9051 
G01 X-2.9165 Y30.9880 
G01 X-2.9056 Y31.0709 
G01 X-2.8927 Y31.1019 
G01 X-2.8736 Y31.1481 
G01 X-2.8227 Y31.2144 
G01 X-2.8030 Y31.2296 
G01 X-2.9650 Y31.2039 
G01 X-3.1310 Y31.2039 
G01 X-3.2930 Y31.2296 
G01 X-3.2733 Y31.2144 
G01 X-3.2224 Y31.1481 
G01 X-3.2040 Y31.1038 
G01 X-3.1904 Y31.0709 
G01 X-3.1795 Y30.9880 
G01 X-3.1904 Y30.9051 
G01 X-3.2033 Y30.8740 
G01 X-3.2224 Y30.8279 
G01 X-3.2349 Y30.8115 
G01 X-3.2733 Y30.7615 
G01 X-3.2930 Y30.7464 
G00 Z2.5400 
G00 X-3.2948 Y33.2861 
G01 Z-0.1778 F254.00 
G01 X-3.1310 Y33.3121 F508.00 
G01 X-2.9650 Y33.3121 
G01 X-2.8012 Y33.2861 
G01 X-2.7474 Y33.2687 
G01 X-2.7522 Y33.2723 
G01 X-2.7599 Y33.2824 
G01 X-2.7693 Y33.2908 
G01 X-2.7852 Y33.3154 
G01 X-2.8031 Y33.3387 
G01 X-2.8079 Y33.3503 
G01 X-2.8148 Y33.3609 
G01 X-2.8239 Y33.3888 
G01 X-2.8351 Y33.4159 
G01 X-2.8367 Y33.4284 
G01 X-2.8406 Y33.4404 
G01 X-2.8422 Y33.4697 
G01 X-2.8460 Y33.4988 
G01 X-2.8443 Y33.5113 
G01 X-2.8450 Y33.5239 
G01 X-2.8389 Y33.5526 
G01 X-2.8351 Y33.5817 
G01 X-2.8302 Y33.5933 
G01 X-2.8276 Y33.6057 
G01 X-2.8143 Y33.6318 
G01 X-2.8031 Y33.6589 
G01 X-2.7954 Y33.6689 
G01 X-2.7897 Y33.6802 
G01 X-2.7701 Y33.7020 
G01 X-2.7522 Y33.7252 
G01 X-2.7422 Y33.7329 
G01 X-2.7337 Y33.7423 
G01 X-2.7092 Y33.7583 
G01 X-2.6859 Y33.7761 
G01 X-2.6742 Y33.7810 
G01 X-2.6636 Y33.7878 
G01 X-2.6357 Y33.7969 
G01 X-2.6316 Y33.7986 
G01 X-2.4822 Y33.8747 
G01 X-2.3447 Y33.9746 
G01 X-2.2246 Y34.0947 
G01 X-2.1247 Y34.2322 
G01 X-2.0476 Y34.3836 
G01 X-2.0326 Y34.4297 
G01 X-2.0593 Y34.4297 
G01 X-2.0711 Y34.3934 
G01 X-2.1465 Y34.2455 
G01 X-2.2440 Y34.1113 
G01 X-2.3613 Y33.9940 
G01 X-2.4955 Y33.8965 
G01 X-2.6434 Y33.8211 
G01 X-2.8012 Y33.7699 
G01 X-2.9650 Y33.7439 
G01 X-3.1310 Y33.7439 
G01 X-3.2948 Y33.7699 
G01 X-3.4526 Y33.8211 
G01 X-3.6005 Y33.8965 
G01 X-3.7347 Y33.9940 
G01 X-3.8520 Y34.1113 
G01 X-3.9495 Y34.2455 
G01 X-4.0249 Y34.3934 
G01 X-4.0367 Y34.4297 
G01 X-4.0634 Y34.4297 
G01 X-4.0484 Y34.3836 
G01 X-3.9713 Y34.2322 
G01 X-3.8714 Y34.0947 
G01 X-3.7513 Y33.9746 
G01 X-3.6138 Y33.8747 
G01 X-3.4644 Y33.7986 
G01 X-3.4603 Y33.7969 
G01 X-3.4324 Y33.7878 
G01 X-3.4218 Y33.7810 
G01 X-3.4101 Y33.7761 
G01 X-3.3868 Y33.7583 
G01 X-3.3623 Y33.7423 
G01 X-3.3538 Y33.7329 
G01 X-3.3438 Y33.7252 
G01 X-3.3259 Y33.7020 
G01 X-3.3063 Y33.6802 
G01 X-3.3006 Y33.6689 
G01 X-3.2929 Y33.6589 
G01 X-3.2817 Y33.6318 
G01 X-3.2684 Y33.6057 
G01 X-3.2657 Y33.5933 
G01 X-3.2609 Y33.5817 
G01 X-3.2571 Y33.5526 
G01 X-3.2510 Y33.5239 
G01 X-3.2516 Y33.5113 
G01 X-3.2500 Y33.4988 
G01 X-3.2538 Y33.4697 
G01 X-3.2554 Y33.4404 
G01 X-3.2593 Y33.4284 
G01 X-3.2609 Y33.4159 
G01 X-3.2721 Y33.3888 
G01 X-3.2812 Y33.3609 
G01 X-3.2881 Y33.3503 
G01 X-3.2929 Y33.3387 
G01 X-3.3108 Y33.3154 
G01 X-3.3267 Y33.2908 
G01 X-3.3361 Y33.2824 
G01 X-3.3438 Y33.2723 
G01 X-3.3486 Y33.2687 
G01 X-3.2948 Y33.2861 
G00 Z2.5400 
G00 X-3.2948 Y35.8261 
G01 Z-0.1778 F254.00 
G01 X-3.1310 Y35.8521 F508.00 
G01 X-2.9650 Y35.8521 
G01 X-2.8012 Y35.8261 
G01 X-2.6434 Y35.7749 
G01 X-2.4955 Y35.6995 
G01 X-2.3613 Y35.6020 
G01 X-2.2440 Y35.4847 
G01 X-2.1465 Y35.3505 
G01 X-2.0711 Y35.2026 
G01 X-2.0593 Y35.1663 
G01 X-2.0326 Y35.1663 
G01 X-2.0476 Y35.2124 
G01 X-2.1247 Y35.3638 
G01 X-2.2246 Y35.5012 
G01 X-2.3447 Y35.6214 
G01 X-2.4822 Y35.7213 
G01 X-2.6316 Y35.7974 
G01 X-2.6357 Y35.7991 
G01 X-2.6636 Y35.8082 
G01 X-2.6742 Y35.8150 
G01 X-2.6859 Y35.8199 
G01 X-2.7092 Y35.8377 
G01 X-2.7337 Y35.8537 
G01 X-2.7422 Y35.8631 
G01 X-2.7522 Y35.8708 
G01 X-2.7701 Y35.8940 
G01 X-2.7897 Y35.9158 
G01 X-2.7954 Y35.9271 
G01 X-2.8031 Y35.9371 
G01 X-2.8143 Y35.9642 
G01 X-2.8276 Y35.9903 
G01 X-2.8302 Y36.0026 
G01 X-2.8351 Y36.0143 
G01 X-2.8389 Y36.0434 
G01 X-2.8450 Y36.0721 
G01 X-2.8443 Y36.0847 
G01 X-2.8460 Y36.0972 
G01 X-2.8422 Y36.1263 
G01 X-2.8406 Y36.1555 
G01 X-2.8367 Y36.1676 
G01 X-2.8351 Y36.1801 
G01 X-2.8239 Y36.2072 
G01 X-2.8148 Y36.2351 
G01 X-2.8079 Y36.2456 
G01 X-2.8031 Y36.2573 
G01 X-2.7852 Y36.2806 
G01 X-2.7693 Y36.3052 
G01 X-2.7599 Y36.3136 
G01 X-2.7522 Y36.3236 
G01 X-2.7474 Y36.3273 
G01 X-2.8012 Y36.3099 
G01 X-2.9650 Y36.2839 
G01 X-3.1310 Y36.2839 
G01 X-3.2948 Y36.3099 
G01 X-3.3486 Y36.3273 
G01 X-3.3438 Y36.3236 
G01 X-3.3361 Y36.3136 
G01 X-3.3267 Y36.3052 
G01 X-3.3108 Y36.2806 
G01 X-3.2929 Y36.2573 
G01 X-3.2881 Y36.2456 
G01 X-3.2812 Y36.2351 
G01 X-3.2721 Y36.2072 
G01 X-3.2609 Y36.1801 
G01 X-3.2593 Y36.1676 
G01 X-3.2554 Y36.1555 
G01 X-3.2538 Y36.1263 
G01 X-3.2500 Y36.0972 
G01 X-3.2516 Y36.0847 
G01 X-3.2510 Y36.0721 
G01 X-3.2571 Y36.0434 
G01 X-3.2609 Y36.0143 
G01 X-3.2657 Y36.0026 
G01 X-3.2684 Y35.9903 
G01 X-3.2817 Y35.9642 
G01 X-3.2929 Y35.9371 
G01 X-3.3006 Y35.9271 
G01 X-3.3063 Y35.9158 
G01 X-3.3259 Y35.8940 
G01 X-3.3438 Y35.8708 
G01 X-3.3538 Y35.8631 
G01 X-3.3623 Y35.8537 
G01 X-3.3868 Y35.8377 
G01 X-3.4101 Y35.8199 
G01 X-3.4218 Y35.8150 
G01 X-3.4324 Y35.8082 
G01 X-3.4603 Y35.7991 
G01 X-3.4644 Y35.7974 
G01 X-3.6138 Y35.7213 
G01 X-3.7513 Y35.6214 
G01 X-3.8714 Y35.5013 
G01 X-3.9713 Y35.3638 
G01 X-4.0484 Y35.2124 
G01 X-4.0634 Y35.1663 
G01 X-4.0367 Y35.1663 
G01 X-4.0249 Y35.2026 
G01 X-3.9495 Y35.3505 
G01 X-3.8520 Y35.4847 
G01 X-3.7347 Y35.6020 
G01 X-3.6005 Y35.6995 
G01 X-3.4526 Y35.7749 
G01 X-3.2948 Y35.8261 
G00 Z2.5400 
G00 X-2.9337 Y40.6406 
G01 Z-0.1778 F254.00 
G01 X-2.8876 Y40.6556 F508.00 
G01 X-2.7362 Y40.7327 
G01 X-2.5987 Y40.8326 
G01 X-2.4786 Y40.9527 
G01 X-2.3787 Y41.0902 
G01 X-2.3016 Y41.2416 
G01 X-2.2866 Y41.2877 
G01 X-2.3133 Y41.2877 
G01 X-2.3251 Y41.2514 
G01 X-2.4005 Y41.1035 
G01 X-2.4980 Y40.9693 
G01 X-2.6153 Y40.8520 
G01 X-2.7495 Y40.7545 
G01 X-2.8974 Y40.6791 
G01 X-2.9337 Y40.6673 
G01 X-2.9337 Y40.6406 
G00 Z2.5400 
G00 X-3.6703 Y40.6406 
G01 Z-0.1778 F254.00 
G01 X-3.6703 Y40.6673 F508.00 
G01 X-3.7066 Y40.6791 
G01 X-3.8545 Y40.7545 
G01 X-3.9887 Y40.8520 
G01 X-4.1060 Y40.9693 
G01 X-4.2035 Y41.1035 
G01 X-4.2789 Y41.2514 
G01 X-4.2907 Y41.2877 
G01 X-4.3174 Y41.2877 
G01 X-4.3024 Y41.2416 
G01 X-4.2253 Y41.0902 
G01 X-4.1254 Y40.9527 
G01 X-4.0053 Y40.8326 
G01 X-3.8678 Y40.7327 
G01 X-3.7164 Y40.6556 
G01 X-3.6703 Y40.6406 
G00 Z2.5400 
G00 X-4.2907 Y42.0243 
G01 Z-0.1778 F254.00 
G01 X-4.2789 Y42.0606 F508.00 
G01 X-4.2035 Y42.2085 
G01 X-4.1060 Y42.3427 
G01 X-3.9887 Y42.4600 
G01 X-3.8545 Y42.5575 
G01 X-3.7066 Y42.6329 
G01 X-3.5488 Y42.6841 
G01 X-3.3850 Y42.7101 
G01 X-3.2190 Y42.7101 
G01 X-3.0552 Y42.6841 
G01 X-2.8974 Y42.6329 
G01 X-2.7495 Y42.5575 
G01 X-2.6153 Y42.4600 
G01 X-2.4980 Y42.3427 
G01 X-2.4005 Y42.2085 
G01 X-2.3251 Y42.0606 
G01 X-2.3133 Y42.0243 
G01 X-2.2866 Y42.0243 
G01 X-2.3016 Y42.0704 
G01 X-2.3787 Y42.2218 
G01 X-2.4786 Y42.3593 
G01 X-2.5987 Y42.4794 
G01 X-2.7362 Y42.5793 
G01 X-2.8856 Y42.6554 
G01 X-2.8897 Y42.6571 
G01 X-2.9176 Y42.6662 
G01 X-2.9282 Y42.6730 
G01 X-2.9399 Y42.6779 
G01 X-2.9632 Y42.6957 
G01 X-2.9877 Y42.7117 
G01 X-2.9962 Y42.7211 
G01 X-3.0062 Y42.7288 
G01 X-3.0241 Y42.7520 
G01 X-3.0437 Y42.7738 
G01 X-3.0494 Y42.7851 
G01 X-3.0571 Y42.7951 
G01 X-3.0683 Y42.8222 
G01 X-3.0816 Y42.8483 
G01 X-3.0843 Y42.8606 
G01 X-3.0891 Y42.8723 
G01 X-3.0929 Y42.9014 
G01 X-3.0990 Y42.9301 
G01 X-3.0983 Y42.9427 
G01 X-3.1000 Y42.9552 
G01 X-3.0962 Y42.9843 
G01 X-3.0946 Y43.0135 
G01 X-3.0907 Y43.0256 
G01 X-3.0891 Y43.0381 
G01 X-3.0779 Y43.0652 
G01 X-3.0688 Y43.0931 
G01 X-3.0619 Y43.1036 
G01 X-3.0571 Y43.1153 
G01 X-3.0392 Y43.1386 
G01 X-3.0233 Y43.1632 
G01 X-3.0139 Y43.1716 
G01 X-3.0062 Y43.1816 
G01 X-3.0014 Y43.1853 
G01 X-3.0552 Y43.1679 
G01 X-3.2190 Y43.1419 
G01 X-3.3850 Y43.1419 
G01 X-3.5488 Y43.1679 
G01 X-3.6026 Y43.1853 
G01 X-3.5978 Y43.1816 
G01 X-3.5901 Y43.1716 
G01 X-3.5807 Y43.1632 
G01 X-3.5648 Y43.1386 
G01 X-3.5469 Y43.1153 
G01 X-3.5421 Y43.1036 
G01 X-3.5352 Y43.0931 
G01 X-3.5261 Y43.0652 
G01 X-3.5149 Y43.0381 
G01 X-3.5133 Y43.0256 
G01 X-3.5094 Y43.0135 
G01 X-3.5078 Y42.9843 
G01 X-3.5040 Y42.9552 
G01 X-3.5056 Y42.9427 
G01 X-3.5050 Y42.9301 
G01 X-3.5111 Y42.9014 
G01 X-3.5149 Y42.8723 
G01 X-3.5197 Y42.8606 
G01 X-3.5224 Y42.8483 
G01 X-3.5357 Y42.8222 
G01 X-3.5469 Y42.7951 
G01 X-3.5546 Y42.7851 
G01 X-3.5603 Y42.7738 
G01 X-3.5799 Y42.7520 
G01 X-3.5978 Y42.7288 
G01 X-3.6078 Y42.7211 
G01 X-3.6163 Y42.7117 
G01 X-3.6408 Y42.6957 
G01 X-3.6641 Y42.6779 
G01 X-3.6758 Y42.6730 
G01 X-3.6864 Y42.6662 
G01 X-3.7143 Y42.6571 
G01 X-3.7184 Y42.6554 
G01 X-3.8678 Y42.5793 
G01 X-4.0053 Y42.4794 
G01 X-4.1254 Y42.3593 
G01 X-4.2253 Y42.2218 
G01 X-4.3024 Y42.0704 
G01 X-4.3174 Y42.0243 
G01 X-4.2907 Y42.0243 
G00 Z2.5400 
G00 X-3.5470 Y45.2244 
G01 Z-0.1778 F254.00 
G01 X-3.3850 Y45.2501 F508.00 
G01 X-3.2190 Y45.2501 
G01 X-3.0570 Y45.2244 
G01 X-3.0767 Y45.2396 
G01 X-3.1276 Y45.3059 
G01 X-3.1596 Y45.3831 
G01 X-3.1705 Y45.4660 
G01 X-3.1605 Y45.5419 
G01 X-3.1596 Y45.5489 
G01 X-3.1276 Y45.6261 
G01 X-3.1059 Y45.6544 
G01 X-3.0767 Y45.6924 
G01 X-3.0570 Y45.7076 
G01 X-3.2190 Y45.6819 
G01 X-3.3850 Y45.6819 
G01 X-3.5470 Y45.7076 
G01 X-3.5273 Y45.6924 
G01 X-3.4989 Y45.6554 
G01 X-3.4764 Y45.6261 
G01 X-3.4444 Y45.5489 
G01 X-3.4335 Y45.4660 
G01 X-3.4435 Y45.3901 
G01 X-3.4444 Y45.3831 
G01 X-3.4764 Y45.3059 
G01 X-3.5273 Y45.2396 
G01 X-3.5470 Y45.2244 
G00 Z2.5400 
G00 X-3.5488 Y47.7641 
G01 Z-0.1778 F254.00 
G01 X-3.3850 Y47.7901 F508.00 
G01 X-3.2190 Y47.7901 
G01 X-3.0552 Y47.7641 
G01 X-3.0014 Y47.7467 
G01 X-3.0062 Y47.7503 
G01 X-3.0139 Y47.7604 
G01 X-3.0233 Y47.7688 
G01 X-3.0392 Y47.7934 
G01 X-3.0571 Y47.8167 
G01 X-3.0619 Y47.8284 
G01 X-3.0688 Y47.8389 
G01 X-3.0779 Y47.8668 
G01 X-3.0891 Y47.8939 
G01 X-3.0907 Y47.9064 
G01 X-3.0946 Y47.9184 
G01 X-3.0962 Y47.9477 
G01 X-3.1000 Y47.9768 
G01 X-3.0983 Y47.9893 
G01 X-3.0990 Y48.0019 
G01 X-3.0929 Y48.0306 
G01 X-3.0891 Y48.0597 
G01 X-3.0842 Y48.0713 
G01 X-3.0816 Y48.0837 
G01 X-3.0683 Y48.1098 
G01 X-3.0571 Y48.1369 
G01 X-3.0494 Y48.1469 
G01 X-3.0437 Y48.1582 
G01 X-3.0241 Y48.1800 
G01 X-3.0062 Y48.2032 
G01 X-2.9962 Y48.2109 
G01 X-2.9877 Y48.2203 
G01 X-2.9632 Y48.2363 
G01 X-2.9399 Y48.2541 
G01 X-2.9282 Y48.2590 
G01 X-2.9176 Y48.2658 
G01 X-2.8897 Y48.2749 
G01 X-2.8856 Y48.2766 
G01 X-2.7362 Y48.3527 
G01 X-2.5987 Y48.4526 
G01 X-2.4786 Y48.5727 
G01 X-2.3787 Y48.7102 
G01 X-2.3016 Y48.8616 
G01 X-2.2866 Y48.9077 
G01 X-2.3133 Y48.9077 
G01 X-2.3251 Y48.8714 
G01 X-2.4005 Y48.7235 
G01 X-2.4980 Y48.5893 
G01 X-2.6153 Y48.4720 
G01 X-2.7495 Y48.3745 
G01 X-2.8974 Y48.2991 
G01 X-3.0552 Y48.2479 
G01 X-3.2190 Y48.2219 
G01 X-3.3850 Y48.2219 
G01 X-3.5488 Y48.2479 
G01 X-3.7066 Y48.2991 
G01 X-3.8545 Y48.3745 
G01 X-3.9887 Y48.4720 
G01 X-4.1060 Y48.5893 
G01 X-4.2035 Y48.7235 
G01 X-4.2789 Y48.8714 
G01 X-4.2907 Y48.9077 
G01 X-4.3174 Y48.9077 
G01 X-4.3024 Y48.8616 
G01 X-4.2253 Y48.7102 
G01 X-4.1254 Y48.5727 
G01 X-4.0053 Y48.4526 
G01 X-3.8678 Y48.3527 
G01 X-3.7184 Y48.2766 
G01 X-3.7143 Y48.2749 
G01 X-3.6864 Y48.2658 
G01 X-3.6758 Y48.2590 
G01 X-3.6641 Y48.2541 
G01 X-3.6408 Y48.2363 
G01 X-3.6163 Y48.2203 
G01 X-3.6078 Y48.2109 
G01 X-3.5978 Y48.2032 
G01 X-3.5799 Y48.1800 
G01 X-3.5603 Y48.1582 
G01 X-3.5546 Y48.1469 
G01 X-3.5469 Y48.1369 
G01 X-3.5357 Y48.1098 
G01 X-3.5224 Y48.0837 
G01 X-3.5197 Y48.0713 
G01 X-3.5149 Y48.0597 
G01 X-3.5111 Y48.0306 
G01 X-3.5050 Y48.0019 
G01 X-3.5056 Y47.9893 
G01 X-3.5040 Y47.9768 
G01 X-3.5078 Y47.9477 
G01 X-3.5094 Y47.9184 
G01 X-3.5133 Y47.9064 
G01 X-3.5149 Y47.8939 
G01 X-3.5261 Y47.8668 
G01 X-3.5352 Y47.8389 
G01 X-3.5421 Y47.8284 
G01 X-3.5469 Y47.8167 
G01 X-3.5648 Y47.7934 
G01 X-3.5807 Y47.7688 
G01 X-3.5901 Y47.7604 
G01 X-3.5978 Y47.7503 
G01 X-3.6026 Y47.7467 
G01 X-3.5488 Y47.7641 
G00 Z2.5400 
G00 X-3.5488 Y50.3041 
G01 Z-0.1778 F254.00 
G01 X-3.3850 Y50.3301 F508.00 
G01 X-3.2190 Y50.3301 
G01 X-3.0552 Y50.3041 
G01 X-2.8974 Y50.2529 
G01 X-2.7495 Y50.1775 
G01 X-2.6153 Y50.0800 
G01 X-2.4980 Y49.9627 
G01 X-2.4005 Y49.8285 
G01 X-2.3251 Y49.6806 
G01 X-2.3133 Y49.6443 
G01 X-2.2866 Y49.6443 
G01 X-2.3016 Y49.6904 
G01 X-2.3787 Y49.8418 
G01 X-2.4786 Y49.9792 
G01 X-2.5987 Y50.0994 
G01 X-2.7362 Y50.1993 
G01 X-2.8856 Y50.2754 
G01 X-2.8897 Y50.2771 
G01 X-2.9176 Y50.2862 
G01 X-2.9282 Y50.2930 
G01 X-2.9399 Y50.2979 
G01 X-2.9632 Y50.3157 
G01 X-2.9877 Y50.3317 
G01 X-2.9962 Y50.3411 
G01 X-3.0062 Y50.3488 
G01 X-3.0241 Y50.3720 
G01 X-3.0437 Y50.3938 
G01 X-3.0494 Y50.4051 
G01 X-3.0571 Y50.4151 
G01 X-3.0683 Y50.4422 
G01 X-3.0816 Y50.4683 
G01 X-3.0842 Y50.4806 
G01 X-3.0891 Y50.4923 
G01 X-3.0929 Y50.5214 
G01 X-3.0990 Y50.5501 
G01 X-3.0983 Y50.5627 
G01 X-3.1000 Y50.5752 
G01 X-3.0962 Y50.6043 
G01 X-3.0946 Y50.6335 
G01 X-3.0907 Y50.6456 
G01 X-3.0891 Y50.6581 
G01 X-3.0779 Y50.6852 
G01 X-3.0688 Y50.7131 
G01 X-3.0619 Y50.7236 
G01 X-3.0571 Y50.7353 
G01 X-3.0392 Y50.7586 
G01 X-3.0233 Y50.7832 
G01 X-3.0139 Y50.7916 
G01 X-3.0062 Y50.8016 
G01 X-3.0014 Y50.8053 
G01 X-3.0552 Y50.7879 
G01 X-3.2190 Y50.7619 
G01 X-3.3850 Y50.7619 
G01 X-3.5488 Y50.7879 
G01 X-3.6026 Y50.8053 
G01 X-3.5978 Y50.8016 
G01 X-3.5901 Y50.7916 
G01 X-3.5807 Y50.7832 
G01 X-3.5648 Y50.7586 
G01 X-3.5469 Y50.7353 
G01 X-3.5421 Y50.7236 
G01 X-3.5352 Y50.7131 
G01 X-3.5261 Y50.6852 
G01 X-3.5149 Y50.6581 
G01 X-3.5133 Y50.6456 
G01 X-3.5094 Y50.6335 
G01 X-3.5078 Y50.6043 
G01 X-3.5040 Y50.5752 
G01 X-3.5056 Y50.5627 
G01 X-3.5050 Y50.5501 
G01 X-3.5111 Y50.5214 
G01 X-3.5149 Y50.4923 
G01 X-3.5197 Y50.4806 
G01 X-3.5224 Y50.4683 
G01 X-3.5357 Y50.4422 
G01 X-3.5469 Y50.4151 
G01 X-3.5546 Y50.4051 
G01 X-3.5603 Y50.3938 
G01 X-3.5799 Y50.3720 
G01 X-3.5978 Y50.3488 
G01 X-3.6078 Y50.3411 
G01 X-3.6163 Y50.3317 
G01 X-3.6408 Y50.3157 
G01 X-3.6641 Y50.2979 
G01 X-3.6758 Y50.2930 
G01 X-3.6864 Y50.2862 
G01 X-3.7143 Y50.2771 
G01 X-3.7184 Y50.2754 
G01 X-3.8678 Y50.1993 
G01 X-4.0053 Y50.0994 
G01 X-4.1254 Y49.9793 
G01 X-4.2253 Y49.8418 
G01 X-4.3024 Y49.6904 
G01 X-4.3174 Y49.6443 
G01 X-4.2907 Y49.6443 
G01 X-4.2789 Y49.6806 
G01 X-4.2035 Y49.8285 
G01 X-4.1060 Y49.9627 
G01 X-3.9887 Y50.0800 
G01 X-3.8545 Y50.1775 
G01 X-3.7066 Y50.2529 
G01 X-3.5488 Y50.3041 
G00 Z2.5400 
G00 X-3.6703 Y55.1186 
G01 Z-0.1778 F254.00 
G01 X-3.6703 Y55.1453 F508.00 
G01 X-3.7066 Y55.1571 
G01 X-3.8545 Y55.2325 
G01 X-3.9887 Y55.3300 
G01 X-4.1060 Y55.4473 
G01 X-4.2035 Y55.5815 
G01 X-4.2789 Y55.7294 
G01 X-4.2907 Y55.7657 
G01 X-4.3174 Y55.7657 
G01 X-4.3024 Y55.7196 
G01 X-4.2253 Y55.5682 
G01 X-4.1254 Y55.4307 
G01 X-4.0053 Y55.3106 
G01 X-3.8678 Y55.2107 
G01 X-3.7164 Y55.1336 
G01 X-3.6703 Y55.1186 
G00 Z2.5400 
G00 X-2.9337 Y55.1186 
G01 Z-0.1778 F254.00 
G01 X-2.8876 Y55.1336 F508.00 
G01 X-2.7362 Y55.2107 
G01 X-2.5987 Y55.3106 
G01 X-2.4786 Y55.4307 
G01 X-2.3787 Y55.5682 
G01 X-2.3016 Y55.7196 
G01 X-2.2866 Y55.7657 
G01 X-2.3133 Y55.7657 
G01 X-2.3251 Y55.7294 
G01 X-2.4005 Y55.5815 
G01 X-2.4980 Y55.4473 
G01 X-2.6153 Y55.3300 
G01 X-2.7495 Y55.2325 
G01 X-2.8974 Y55.1571 
G01 X-2.9337 Y55.1453 
G01 X-2.9337 Y55.1186 
G00 Z2.5400 
G00 X-2.3133 Y56.5023 
G01 Z-0.1778 F254.00 
G01 X-2.2866 Y56.5023 F508.00 
G01 X-2.3016 Y56.5484 
G01 X-2.3787 Y56.6998 
G01 X-2.4786 Y56.8372 
G01 X-2.5987 Y56.9574 
G01 X-2.7362 Y57.0573 
G01 X-2.8856 Y57.1334 
G01 X-2.8897 Y57.1351 
G01 X-2.9176 Y57.1442 
G01 X-2.9282 Y57.1510 
G01 X-2.9399 Y57.1559 
G01 X-2.9631 Y57.1737 
G01 X-2.9877 Y57.1897 
G01 X-2.9962 Y57.1991 
G01 X-3.0062 Y57.2068 
G01 X-3.0241 Y57.2300 
G01 X-3.0437 Y57.2518 
G01 X-3.0494 Y57.2631 
G01 X-3.0571 Y57.2731 
G01 X-3.0683 Y57.3002 
G01 X-3.0816 Y57.3263 
G01 X-3.0842 Y57.3387 
G01 X-3.0891 Y57.3503 
G01 X-3.0929 Y57.3794 
G01 X-3.0990 Y57.4081 
G01 X-3.0983 Y57.4207 
G01 X-3.1000 Y57.4332 
G01 X-3.0962 Y57.4623 
G01 X-3.0946 Y57.4916 
G01 X-3.0907 Y57.5036 
G01 X-3.0891 Y57.5161 
G01 X-3.0779 Y57.5432 
G01 X-3.0688 Y57.5711 
G01 X-3.0619 Y57.5817 
G01 X-3.0571 Y57.5933 
G01 X-3.0392 Y57.6166 
G01 X-3.0233 Y57.6412 
G01 X-3.0139 Y57.6496 
G01 X-3.0062 Y57.6596 
G01 X-3.0014 Y57.6633 
G01 X-3.0552 Y57.6459 
G01 X-3.2190 Y57.6199 
G01 X-3.3850 Y57.6199 
G01 X-3.5488 Y57.6459 
G01 X-3.6026 Y57.6633 
G01 X-3.5978 Y57.6596 
G01 X-3.5901 Y57.6496 
G01 X-3.5807 Y57.6412 
G01 X-3.5647 Y57.6166 
G01 X-3.5469 Y57.5933 
G01 X-3.5421 Y57.5817 
G01 X-3.5352 Y57.5711 
G01 X-3.5261 Y57.5432 
G01 X-3.5149 Y57.5161 
G01 X-3.5133 Y57.5036 
G01 X-3.5094 Y57.4916 
G01 X-3.5078 Y57.4623 
G01 X-3.5040 Y57.4332 
G01 X-3.5056 Y57.4207 
G01 X-3.5050 Y57.4081 
G01 X-3.5111 Y57.3794 
G01 X-3.5149 Y57.3503 
G01 X-3.5197 Y57.3387 
G01 X-3.5224 Y57.3263 
G01 X-3.5357 Y57.3002 
G01 X-3.5469 Y57.2731 
G01 X-3.5546 Y57.2631 
G01 X-3.5603 Y57.2518 
G01 X-3.5799 Y57.2300 
G01 X-3.5978 Y57.2068 
G01 X-3.6078 Y57.1991 
G01 X-3.6163 Y57.1897 
G01 X-3.6409 Y57.1737 
G01 X-3.6641 Y57.1559 
G01 X-3.6758 Y57.1510 
G01 X-3.6864 Y57.1442 
G01 X-3.7142 Y57.1351 
G01 X-3.7184 Y57.1334 
G01 X-3.8678 Y57.0573 
G01 X-4.0053 Y56.9574 
G01 X-4.1254 Y56.8373 
G01 X-4.2253 Y56.6998 
G01 X-4.3024 Y56.5484 
G01 X-4.3174 Y56.5023 
G01 X-4.2907 Y56.5023 
G01 X-4.2789 Y56.5386 
G01 X-4.2035 Y56.6865 
G01 X-4.1060 Y56.8207 
G01 X-3.9887 Y56.9380 
G01 X-3.8545 Y57.0355 
G01 X-3.7066 Y57.1109 
G01 X-3.5488 Y57.1621 
G01 X-3.3850 Y57.1881 
G01 X-3.2190 Y57.1881 
G01 X-3.0552 Y57.1621 
G01 X-2.8974 Y57.1109 
G01 X-2.7495 Y57.0355 
G01 X-2.6153 Y56.9380 
G01 X-2.4980 Y56.8207 
G01 X-2.4005 Y56.6865 
G01 X-2.3251 Y56.5386 
G01 X-2.3133 Y56.5023 
G00 Z2.5400 
G00 X-3.0570 Y59.7024 
G01 Z-0.1778 F254.00 
G01 X-3.0767 Y59.7176 F508.00 
G01 X-3.1276 Y59.7839 
G01 X-3.1596 Y59.8611 
G01 X-3.1705 Y59.9440 
G01 X-3.1605 Y60.0199 
G01 X-3.1596 Y60.0269 
G01 X-3.1276 Y60.1041 
G01 X-3.1059 Y60.1324 
G01 X-3.0767 Y60.1704 
G01 X-3.0570 Y60.1856 
G01 X-3.2190 Y60.1599 
G01 X-3.3850 Y60.1599 
G01 X-3.5470 Y60.1856 
G01 X-3.5273 Y60.1704 
G01 X-3.4989 Y60.1334 
G01 X-3.4764 Y60.1041 
G01 X-3.4444 Y60.0269 
G01 X-3.4335 Y59.9440 
G01 X-3.4435 Y59.8681 
G01 X-3.4444 Y59.8611 
G01 X-3.4764 Y59.7839 
G01 X-3.5273 Y59.7176 
G01 X-3.5470 Y59.7024 
G01 X-3.3850 Y59.7281 
G01 X-3.2190 Y59.7281 
G01 X-3.0570 Y59.7024 
G00 Z2.5400 
G00 X-3.0552 Y62.2421 
G01 Z-0.1778 F254.00 
G01 X-3.0014 Y62.2247 F508.00 
G01 X-3.0062 Y62.2283 
G01 X-3.0139 Y62.2384 
G01 X-3.0233 Y62.2468 
G01 X-3.0392 Y62.2714 
G01 X-3.0571 Y62.2947 
G01 X-3.0619 Y62.3063 
G01 X-3.0688 Y62.3169 
G01 X-3.0779 Y62.3448 
G01 X-3.0891 Y62.3719 
G01 X-3.0907 Y62.3844 
G01 X-3.0946 Y62.3964 
G01 X-3.0962 Y62.4257 
G01 X-3.1000 Y62.4548 
G01 X-3.0983 Y62.4673 
G01 X-3.0990 Y62.4799 
G01 X-3.0929 Y62.5086 
G01 X-3.0891 Y62.5377 
G01 X-3.0842 Y62.5493 
G01 X-3.0816 Y62.5617 
G01 X-3.0683 Y62.5878 
G01 X-3.0571 Y62.6149 
G01 X-3.0494 Y62.6249 
G01 X-3.0437 Y62.6362 
G01 X-3.0241 Y62.6580 
G01 X-3.0062 Y62.6812 
G01 X-2.9962 Y62.6889 
G01 X-2.9877 Y62.6983 
G01 X-2.9631 Y62.7143 
G01 X-2.9399 Y62.7321 
G01 X-2.9282 Y62.7370 
G01 X-2.9176 Y62.7438 
G01 X-2.8897 Y62.7529 
G01 X-2.8856 Y62.7546 
G01 X-2.7362 Y62.8307 
G01 X-2.5987 Y62.9306 
G01 X-2.4786 Y63.0507 
G01 X-2.3787 Y63.1882 
G01 X-2.3016 Y63.3396 
G01 X-2.2866 Y63.3857 
G01 X-2.3133 Y63.3857 
G01 X-2.3251 Y63.3494 
G01 X-2.4005 Y63.2015 
G01 X-2.4980 Y63.0673 
G01 X-2.6153 Y62.9500 
G01 X-2.7495 Y62.8525 
G01 X-2.8974 Y62.7771 
G01 X-3.0552 Y62.7259 
G01 X-3.2190 Y62.6999 
G01 X-3.3850 Y62.6999 
G01 X-3.5488 Y62.7259 
G01 X-3.7066 Y62.7771 
G01 X-3.8545 Y62.8525 
G01 X-3.9887 Y62.9500 
G01 X-4.1060 Y63.0673 
G01 X-4.2035 Y63.2015 
G01 X-4.2789 Y63.3494 
G01 X-4.2907 Y63.3857 
G01 X-4.3174 Y63.3857 
G01 X-4.3024 Y63.3396 
G01 X-4.2253 Y63.1882 
G01 X-4.1254 Y63.0507 
G01 X-4.0053 Y62.9306 
G01 X-3.8678 Y62.8307 
G01 X-3.7184 Y62.7546 
G01 X-3.7143 Y62.7529 
G01 X-3.6864 Y62.7438 
G01 X-3.6758 Y62.7370 
G01 X-3.6641 Y62.7321 
G01 X-3.6408 Y62.7143 
G01 X-3.6163 Y62.6983 
G01 X-3.6078 Y62.6889 
G01 X-3.5978 Y62.6812 
G01 X-3.5799 Y62.6580 
G01 X-3.5603 Y62.6362 
G01 X-3.5546 Y62.6249 
G01 X-3.5469 Y62.6149 
G01 X-3.5357 Y62.5878 
G01 X-3.5224 Y62.5617 
G01 X-3.5197 Y62.5493 
G01 X-3.5149 Y62.5377 
G01 X-3.5111 Y62.5086 
G01 X-3.5050 Y62.4799 
G01 X-3.5056 Y62.4673 
G01 X-3.5040 Y62.4548 
G01 X-3.5078 Y62.4257 
G01 X-3.5094 Y62.3964 
G01 X-3.5133 Y62.3844 
G01 X-3.5149 Y62.3719 
G01 X-3.5261 Y62.3448 
G01 X-3.5352 Y62.3169 
G01 X-3.5421 Y62.3064 
G01 X-3.5469 Y62.2947 
G01 X-3.5648 Y62.2714 
G01 X-3.5807 Y62.2468 
G01 X-3.5901 Y62.2384 
G01 X-3.5978 Y62.2283 
G01 X-3.6026 Y62.2247 
G01 X-3.5488 Y62.2421 
G01 X-3.3850 Y62.2681 
G01 X-3.2190 Y62.2681 
G01 X-3.0552 Y62.2421 
G00 Z2.5400 
G00 X-3.0552 Y64.7821 
G01 Z-0.1778 F254.00 
G01 X-2.8974 Y64.7309 F508.00 
G01 X-2.7495 Y64.6555 
G01 X-2.6153 Y64.5580 
G01 X-2.4980 Y64.4407 
G01 X-2.4005 Y64.3065 
G01 X-2.3251 Y64.1586 
G01 X-2.3133 Y64.1223 
G01 X-2.2866 Y64.1223 
G01 X-2.3016 Y64.1684 
G01 X-2.3787 Y64.3198 
G01 X-2.4786 Y64.4573 
G01 X-2.5987 Y64.5774 
G01 X-2.7362 Y64.6773 
G01 X-2.8856 Y64.7534 
G01 X-2.8897 Y64.7551 
G01 X-2.9176 Y64.7642 
G01 X-2.9282 Y64.7710 
G01 X-2.9399 Y64.7759 
G01 X-2.9632 Y64.7937 
G01 X-2.9877 Y64.8097 
G01 X-2.9962 Y64.8191 
G01 X-3.0062 Y64.8268 
G01 X-3.0241 Y64.8500 
G01 X-3.0437 Y64.8718 
G01 X-3.0494 Y64.8831 
G01 X-3.0571 Y64.8931 
G01 X-3.0683 Y64.9202 
G01 X-3.0816 Y64.9463 
G01 X-3.0842 Y64.9586 
G01 X-3.0891 Y64.9703 
G01 X-3.0929 Y64.9994 
G01 X-3.0990 Y65.0281 
G01 X-3.0983 Y65.0407 
G01 X-3.1000 Y65.0532 
G01 X-3.0962 Y65.0823 
G01 X-3.0946 Y65.1115 
G01 X-3.0907 Y65.1236 
G01 X-3.0891 Y65.1361 
G01 X-3.0779 Y65.1632 
G01 X-3.0688 Y65.1911 
G01 X-3.0619 Y65.2016 
G01 X-3.0571 Y65.2133 
G01 X-3.0392 Y65.2366 
G01 X-3.0233 Y65.2612 
G01 X-3.0139 Y65.2696 
G01 X-3.0062 Y65.2796 
G01 X-3.0014 Y65.2833 
G01 X-3.0552 Y65.2659 
G01 X-3.2190 Y65.2399 
G01 X-3.3850 Y65.2399 
G01 X-3.5488 Y65.2659 
G01 X-3.6026 Y65.2833 
G01 X-3.5978 Y65.2796 
G01 X-3.5901 Y65.2696 
G01 X-3.5807 Y65.2612 
G01 X-3.5648 Y65.2366 
G01 X-3.5469 Y65.2133 
G01 X-3.5421 Y65.2016 
G01 X-3.5352 Y65.1911 
G01 X-3.5261 Y65.1632 
G01 X-3.5149 Y65.1361 
G01 X-3.5133 Y65.1236 
G01 X-3.5094 Y65.1115 
G01 X-3.5078 Y65.0823 
G01 X-3.5040 Y65.0532 
G01 X-3.5056 Y65.0407 
G01 X-3.5050 Y65.0281 
G01 X-3.5111 Y64.9994 
G01 X-3.5149 Y64.9703 
G01 X-3.5197 Y64.9586 
G01 X-3.5224 Y64.9463 
G01 X-3.5357 Y64.9202 
G01 X-3.5469 Y64.8931 
G01 X-3.5546 Y64.8831 
G01 X-3.5603 Y64.8718 
G01 X-3.5799 Y64.8500 
G01 X-3.5978 Y64.8268 
G01 X-3.6078 Y64.8191 
G01 X-3.6163 Y64.8097 
G01 X-3.6408 Y64.7937 
G01 X-3.6641 Y64.7759 
G01 X-3.6758 Y64.7710 
G01 X-3.6864 Y64.7642 
G01 X-3.7143 Y64.7551 
G01 X-3.7184 Y64.7534 
G01 X-3.8678 Y64.6773 
G01 X-4.0053 Y64.5774 
G01 X-4.1254 Y64.4573 
G01 X-4.2253 Y64.3198 
G01 X-4.3024 Y64.1684 
G01 X-4.3174 Y64.1223 
G01 X-4.2907 Y64.1223 
G01 X-4.2789 Y64.1586 
G01 X-4.2035 Y64.3065 
G01 X-4.1060 Y64.4407 
G01 X-3.9887 Y64.5580 
G01 X-3.8545 Y64.6555 
G01 X-3.7066 Y64.7309 
G01 X-3.5488 Y64.7821 
G01 X-3.3850 Y64.8081 
G01 X-3.2190 Y64.8081 
G01 X-3.0552 Y64.7821 
G00 Z2.5400 
G00 X-3.4573 Y70.9760 
G01 Z-0.1778 F254.00 
G01 X-2.7947 Y71.9478 F508.00 
G01 X-2.4480 Y73.0719 
G01 X-2.4480 Y74.2481 
G01 X-2.7947 Y75.3722 
G01 X-3.4573 Y76.3440 
G01 X-4.3769 Y77.0774 
G01 X-5.4719 Y77.5072 
G01 X-6.6449 Y77.5951 
G01 X-7.7917 Y77.3333 
G01 X-8.8104 Y76.7452 
G01 X-9.6104 Y75.8829 
G01 X-10.1208 Y74.8231 
G01 X-10.2961 Y73.6600 
G01 X-10.1208 Y72.4969 
G01 X-9.6104 Y71.4371 
G01 X-8.8104 Y70.5748 
G01 X-7.7917 Y69.9867 
G01 X-6.6449 Y69.7249 
G01 X-5.4719 Y69.8128 
G01 X-4.3769 Y70.2426 
G01 X-3.4573 Y70.9760 
G00 Z2.5400 
G00 X-10.7422 Y75.1046 
G01 Z-0.1778 F254.00 
G01 X-10.6588 Y75.2194 F508.00 
G01 X-10.5944 Y75.3459 
G01 X-10.5505 Y75.4808 
G01 X-10.5283 Y75.6210 
G01 X-10.5283 Y76.0857 
G01 X-10.5537 Y76.0857 
G01 X-10.5537 Y75.6057 
G01 X-10.5874 Y75.4364 
G01 X-10.6534 Y75.2769 
G01 X-10.7493 Y75.1334 
G01 X-10.8714 Y75.0113 
G01 X-11.0149 Y74.9154 
G01 X-11.0617 Y74.8961 
G01 X-11.0617 Y74.8677 
G01 X-10.9574 Y74.9208 
G01 X-10.8426 Y75.0042 
G01 X-10.7422 Y75.1046 
G00 Z2.5400 
G00 X-11.7983 Y74.8961 
G01 Z-0.1778 F254.00 
G01 X-11.8451 Y74.9154 F508.00 
G01 X-11.9886 Y75.0113 
G01 X-12.1107 Y75.1334 
G01 X-12.2066 Y75.2769 
G01 X-12.2726 Y75.4364 
G01 X-12.3063 Y75.6057 
G01 X-12.3063 Y76.0857 
G01 X-12.3317 Y76.0857 
G01 X-12.3317 Y75.6210 
G01 X-12.3095 Y75.4808 
G01 X-12.2656 Y75.3459 
G01 X-12.2012 Y75.2194 
G01 X-12.1178 Y75.1046 
G01 X-12.0174 Y75.0042 
G01 X-11.9026 Y74.9208 
G01 X-11.7983 Y74.8676 
G01 X-11.7983 Y74.8961 
G00 Z2.5400 
G00 X-13.6676 Y74.8688 
G01 Z-0.1778 F254.00 
G01 X-13.7144 Y74.8494 F508.00 
G01 X-13.7287 Y74.8465 
G01 X-13.7287 Y74.7773 
G01 X-13.7220 Y74.7890 
G01 X-13.7139 Y74.8084 
G01 X-13.7011 Y74.8251 
G01 X-13.6907 Y74.8432 
G01 X-13.6758 Y74.8581 
G01 X-13.6676 Y74.8688 
G00 Z2.5400 
G00 X-14.2113 Y74.8465 
G01 Z-0.1778 F254.00 
G01 X-14.2256 Y74.8494 F508.00 
G01 X-14.2724 Y74.8687 
G01 X-14.2642 Y74.8581 
G01 X-14.2493 Y74.8432 
G01 X-14.2388 Y74.8251 
G01 X-14.2261 Y74.8084 
G01 X-14.2180 Y74.7890 
G01 X-14.2113 Y74.7773 
G01 X-14.2113 Y74.8465 
G00 Z2.5400 
G00 X-16.1650 Y74.8566 
G01 Z-0.1778 F254.00 
G01 X-16.1545 Y74.8748 F508.00 
G01 X-16.1396 Y74.8896 
G01 X-16.1314 Y74.9003 
G01 X-16.1925 Y74.8750 
G01 X-16.1925 Y74.8089 
G01 X-16.1858 Y74.8206 
G01 X-16.1777 Y74.8400 
G01 X-16.1650 Y74.8566 
G00 Z2.5400 
G00 X-16.8275 Y74.8750 
G01 Z-0.1778 F254.00 
G01 X-16.8886 Y74.9003 F508.00 
G01 X-16.8804 Y74.8896 
G01 X-16.8655 Y74.8748 
G01 X-16.8550 Y74.8566 
G01 X-16.8423 Y74.8400 
G01 X-16.8342 Y74.8206 
G01 X-16.8275 Y74.8089 
G01 X-16.8275 Y74.8750 
G00 Z2.5400 
G00 X-19.6167 Y75.6306 
G01 Z-0.1778 F254.00 
G01 X-19.4966 Y75.7507 F508.00 
G01 X-19.3967 Y75.8882 
G01 X-19.3196 Y76.0396 
G01 X-19.3046 Y76.0857 
G01 X-19.3313 Y76.0857 
G01 X-19.3431 Y76.0494 
G01 X-19.4185 Y75.9015 
G01 X-19.5160 Y75.7673 
G01 X-19.6333 Y75.6500 
G01 X-19.7675 Y75.5525 
G01 X-19.9154 Y75.4771 
G01 X-19.9517 Y75.4653 
G01 X-19.9517 Y75.4386 
G01 X-19.9056 Y75.4536 
G01 X-19.7542 Y75.5307 
G01 X-19.6167 Y75.6306 
G00 Z2.5400 
G00 X-20.6883 Y75.4653 
G01 Z-0.1778 F254.00 
G01 X-20.7246 Y75.4771 F508.00 
G01 X-20.8725 Y75.5525 
G01 X-21.0067 Y75.6500 
G01 X-21.1240 Y75.7673 
G01 X-21.2215 Y75.9015 
G01 X-21.2969 Y76.0494 
G01 X-21.3481 Y76.2072 
G01 X-21.3741 Y76.3710 
G01 X-21.3741 Y76.5370 
G01 X-21.3481 Y76.7008 
G01 X-21.2969 Y76.8586 
G01 X-21.2215 Y77.0065 
G01 X-21.1240 Y77.1407 
G01 X-21.0067 Y77.2580 
G01 X-20.8725 Y77.3555 
G01 X-20.7246 Y77.4309 
G01 X-20.6883 Y77.4427 
G01 X-20.6883 Y77.4694 
G01 X-20.7344 Y77.4544 
G01 X-20.8858 Y77.3773 
G01 X-21.0233 Y77.2774 
G01 X-21.1434 Y77.1573 
G01 X-21.2433 Y77.0198 
G01 X-21.3194 Y76.8704 
G01 X-21.3211 Y76.8663 
G01 X-21.3302 Y76.8384 
G01 X-21.3370 Y76.8278 
G01 X-21.3419 Y76.8161 
G01 X-21.3597 Y76.7928 
G01 X-21.3757 Y76.7683 
G01 X-21.3851 Y76.7598 
G01 X-21.3928 Y76.7498 
G01 X-21.4160 Y76.7319 
G01 X-21.4378 Y76.7123 
G01 X-21.4491 Y76.7066 
G01 X-21.4591 Y76.6989 
G01 X-21.4862 Y76.6877 
G01 X-21.5123 Y76.6744 
G01 X-21.5246 Y76.6717 
G01 X-21.5363 Y76.6669 
G01 X-21.5654 Y76.6631 
G01 X-21.5941 Y76.6570 
G01 X-21.6067 Y76.6576 
G01 X-21.6192 Y76.6560 
G01 X-21.6483 Y76.6598 
G01 X-21.6775 Y76.6614 
G01 X-21.6896 Y76.6653 
G01 X-21.7021 Y76.6669 
G01 X-21.7292 Y76.6781 
G01 X-21.7571 Y76.6872 
G01 X-21.7676 Y76.6941 
G01 X-21.7793 Y76.6989 
G01 X-21.8026 Y76.7168 
G01 X-21.8272 Y76.7327 
G01 X-21.8356 Y76.7421 
G01 X-21.8456 Y76.7498 
G01 X-21.8493 Y76.7546 
G01 X-21.8319 Y76.7008 
G01 X-21.8059 Y76.5370 
G01 X-21.8059 Y76.3710 
G01 X-21.8319 Y76.2072 
G01 X-21.8493 Y76.1534 
G01 X-21.8456 Y76.1582 
G01 X-21.8356 Y76.1659 
G01 X-21.8272 Y76.1753 
G01 X-21.8026 Y76.1912 
G01 X-21.7793 Y76.2091 
G01 X-21.7676 Y76.2139 
G01 X-21.7571 Y76.2208 
G01 X-21.7292 Y76.2299 
G01 X-21.7021 Y76.2411 
G01 X-21.6896 Y76.2427 
G01 X-21.6775 Y76.2466 
G01 X-21.6483 Y76.2482 
G01 X-21.6192 Y76.2520 
G01 X-21.6067 Y76.2503 
G01 X-21.5941 Y76.2510 
G01 X-21.5654 Y76.2449 
G01 X-21.5363 Y76.2411 
G01 X-21.5246 Y76.2363 
G01 X-21.5123 Y76.2336 
G01 X-21.4862 Y76.2203 
G01 X-21.4591 Y76.2091 
G01 X-21.4491 Y76.2014 
G01 X-21.4378 Y76.1957 
G01 X-21.4160 Y76.1761 
G01 X-21.3928 Y76.1582 
G01 X-21.3851 Y76.1482 
G01 X-21.3757 Y76.1397 
G01 X-21.3597 Y76.1152 
G01 X-21.3419 Y76.0919 
G01 X-21.3370 Y76.0802 
G01 X-21.3302 Y76.0696 
G01 X-21.3211 Y76.0417 
G01 X-21.3194 Y76.0376 
G01 X-21.2433 Y75.8882 
G01 X-21.1434 Y75.7507 
G01 X-21.0233 Y75.6306 
G01 X-20.8858 Y75.5307 
G01 X-20.7344 Y75.4536 
G01 X-20.6883 Y75.4386 
G01 X-20.6883 Y75.4653 
G00 Z2.5400 
G00 X-19.3313 Y76.8223 
G01 Z-0.1778 F254.00 
G01 X-19.3046 Y76.8223 F508.00 
G01 X-19.3196 Y76.8684 
G01 X-19.3967 Y77.0198 
G01 X-19.4966 Y77.1573 
G01 X-19.6167 Y77.2774 
G01 X-19.7542 Y77.3773 
G01 X-19.9056 Y77.4544 
G01 X-19.9517 Y77.4694 
G01 X-19.9517 Y77.4427 
G01 X-19.9154 Y77.4309 
G01 X-19.7675 Y77.3555 
G01 X-19.6333 Y77.2580 
G01 X-19.5160 Y77.1407 
G01 X-19.4185 Y77.0065 
G01 X-19.3431 Y76.8586 
G01 X-19.3313 Y76.8223 
G00 Z2.5400 
G00 X-23.8884 Y76.6990 
G01 Z-0.1778 F254.00 
G01 X-23.9035 Y76.6793 F508.00 
G01 X-23.9699 Y76.6284 
G01 X-24.0471 Y76.5964 
G01 X-24.1300 Y76.5855 
G01 X-24.2059 Y76.5955 
G01 X-24.2129 Y76.5964 
G01 X-24.2901 Y76.6284 
G01 X-24.3184 Y76.6501 
G01 X-24.3564 Y76.6793 
G01 X-24.3716 Y76.6990 
G01 X-24.3459 Y76.5370 
G01 X-24.3459 Y76.3710 
G01 X-24.3716 Y76.2090 
G01 X-24.3564 Y76.2287 
G01 X-24.3194 Y76.2571 
G01 X-24.2901 Y76.2796 
G01 X-24.2129 Y76.3116 
G01 X-24.1300 Y76.3225 
G01 X-24.0541 Y76.3125 
G01 X-24.0471 Y76.3116 
G01 X-23.9699 Y76.2796 
G01 X-23.9035 Y76.2287 
G01 X-23.8884 Y76.2090 
G01 X-23.9141 Y76.3710 
G01 X-23.9141 Y76.5370 
G01 X-23.8884 Y76.6990 
G00 Z2.5400 
G00 X-26.4281 Y76.7008 
G01 Z-0.1778 F254.00 
G01 X-26.4107 Y76.7546 F508.00 
G01 X-26.4143 Y76.7498 
G01 X-26.4244 Y76.7421 
G01 X-26.4328 Y76.7327 
G01 X-26.4574 Y76.7168 
G01 X-26.4807 Y76.6989 
G01 X-26.4923 Y76.6941 
G01 X-26.5029 Y76.6872 
G01 X-26.5308 Y76.6781 
G01 X-26.5579 Y76.6669 
G01 X-26.5704 Y76.6653 
G01 X-26.5824 Y76.6614 
G01 X-26.6117 Y76.6598 
G01 X-26.6408 Y76.6560 
G01 X-26.6533 Y76.6576 
G01 X-26.6659 Y76.6570 
G01 X-26.6946 Y76.6631 
G01 X-26.7237 Y76.6669 
G01 X-26.7353 Y76.6717 
G01 X-26.7477 Y76.6744 
G01 X-26.7738 Y76.6877 
G01 X-26.8009 Y76.6989 
G01 X-26.8109 Y76.7066 
G01 X-26.8222 Y76.7123 
G01 X-26.8440 Y76.7319 
G01 X-26.8672 Y76.7498 
G01 X-26.8749 Y76.7598 
G01 X-26.8843 Y76.7683 
G01 X-26.9003 Y76.7928 
G01 X-26.9181 Y76.8161 
G01 X-26.9230 Y76.8278 
G01 X-26.9298 Y76.8384 
G01 X-26.9389 Y76.8663 
G01 X-26.9406 Y76.8704 
G01 X-27.0167 Y77.0198 
G01 X-27.1166 Y77.1573 
G01 X-27.2367 Y77.2774 
G01 X-27.3742 Y77.3773 
G01 X-27.5256 Y77.4544 
G01 X-27.5717 Y77.4694 
G01 X-27.5717 Y77.4427 
G01 X-27.5354 Y77.4309 
G01 X-27.3875 Y77.3555 
G01 X-27.2533 Y77.2580 
G01 X-27.1360 Y77.1407 
G01 X-27.0385 Y77.0065 
G01 X-26.9631 Y76.8586 
G01 X-26.9119 Y76.7008 
G01 X-26.8859 Y76.5370 
G01 X-26.8859 Y76.3710 
G01 X-26.9119 Y76.2072 
G01 X-26.9631 Y76.0494 
G01 X-27.0385 Y75.9015 
G01 X-27.1360 Y75.7673 
G01 X-27.2533 Y75.6500 
G01 X-27.3875 Y75.5525 
G01 X-27.5354 Y75.4771 
G01 X-27.5717 Y75.4653 
G01 X-27.5717 Y75.4386 
G01 X-27.5256 Y75.4536 
G01 X-27.3742 Y75.5307 
G01 X-27.2367 Y75.6306 
G01 X-27.1166 Y75.7507 
G01 X-27.0167 Y75.8882 
G01 X-26.9406 Y76.0376 
G01 X-26.9389 Y76.0417 
G01 X-26.9298 Y76.0696 
G01 X-26.9230 Y76.0802 
G01 X-26.9181 Y76.0919 
G01 X-26.9003 Y76.1152 
G01 X-26.8843 Y76.1397 
G01 X-26.8749 Y76.1482 
G01 X-26.8672 Y76.1582 
G01 X-26.8440 Y76.1761 
G01 X-26.8222 Y76.1957 
G01 X-26.8109 Y76.2014 
G01 X-26.8009 Y76.2091 
G01 X-26.7738 Y76.2203 
G01 X-26.7477 Y76.2336 
G01 X-26.7353 Y76.2362 
G01 X-26.7237 Y76.2411 
G01 X-26.6946 Y76.2449 
G01 X-26.6659 Y76.2510 
G01 X-26.6533 Y76.2503 
G01 X-26.6408 Y76.2520 
G01 X-26.6117 Y76.2482 
G01 X-26.5824 Y76.2466 
G01 X-26.5704 Y76.2427 
G01 X-26.5579 Y76.2411 
G01 X-26.5308 Y76.2299 
G01 X-26.5029 Y76.2208 
G01 X-26.4923 Y76.2139 
G01 X-26.4807 Y76.2091 
G01 X-26.4574 Y76.1912 
G01 X-26.4328 Y76.1753 
G01 X-26.4244 Y76.1659 
G01 X-26.4143 Y76.1582 
G01 X-26.4107 Y76.1534 
G01 X-26.4281 Y76.2072 
G01 X-26.4541 Y76.3710 
G01 X-26.4541 Y76.5370 
G01 X-26.4281 Y76.7008 
G00 Z2.5400 
G00 X-28.9681 Y76.7008 
G01 Z-0.1778 F254.00 
G01 X-28.9169 Y76.8586 F508.00 
G01 X-28.8415 Y77.0065 
G01 X-28.7440 Y77.1407 
G01 X-28.6267 Y77.2580 
G01 X-28.4925 Y77.3555 
G01 X-28.3446 Y77.4309 
G01 X-28.3083 Y77.4427 
G01 X-28.3083 Y77.4694 
G01 X-28.3544 Y77.4544 
G01 X-28.5058 Y77.3773 
G01 X-28.6433 Y77.2774 
G01 X-28.7634 Y77.1573 
G01 X-28.8633 Y77.0198 
G01 X-28.9394 Y76.8704 
G01 X-28.9411 Y76.8663 
G01 X-28.9502 Y76.8384 
G01 X-28.9570 Y76.8278 
G01 X-28.9619 Y76.8161 
G01 X-28.9797 Y76.7928 
G01 X-28.9957 Y76.7683 
G01 X-29.0051 Y76.7598 
G01 X-29.0128 Y76.7498 
G01 X-29.0360 Y76.7319 
G01 X-29.0578 Y76.7123 
G01 X-29.0691 Y76.7066 
G01 X-29.0791 Y76.6989 
G01 X-29.1062 Y76.6877 
G01 X-29.1323 Y76.6744 
G01 X-29.1446 Y76.6717 
G01 X-29.1563 Y76.6669 
G01 X-29.1854 Y76.6631 
G01 X-29.2141 Y76.6570 
G01 X-29.2267 Y76.6576 
G01 X-29.2392 Y76.6560 
G01 X-29.2683 Y76.6598 
G01 X-29.2975 Y76.6614 
G01 X-29.3096 Y76.6653 
G01 X-29.3221 Y76.6669 
G01 X-29.3492 Y76.6781 
G01 X-29.3771 Y76.6872 
G01 X-29.3876 Y76.6941 
G01 X-29.3993 Y76.6989 
G01 X-29.4226 Y76.7168 
G01 X-29.4472 Y76.7327 
G01 X-29.4556 Y76.7421 
G01 X-29.4656 Y76.7498 
G01 X-29.4693 Y76.7546 
G01 X-29.4519 Y76.7008 
G01 X-29.4259 Y76.5370 
G01 X-29.4259 Y76.3710 
G01 X-29.4519 Y76.2072 
G01 X-29.4693 Y76.1534 
G01 X-29.4656 Y76.1582 
G01 X-29.4556 Y76.1659 
G01 X-29.4472 Y76.1753 
G01 X-29.4226 Y76.1912 
G01 X-29.3993 Y76.2091 
G01 X-29.3876 Y76.2139 
G01 X-29.3771 Y76.2208 
G01 X-29.3492 Y76.2299 
G01 X-29.3221 Y76.2411 
G01 X-29.3096 Y76.2427 
G01 X-29.2975 Y76.2466 
G01 X-29.2683 Y76.2482 
G01 X-29.2392 Y76.2520 
G01 X-29.2267 Y76.2503 
G01 X-29.2141 Y76.2510 
G01 X-29.1854 Y76.2449 
G01 X-29.1563 Y76.2411 
G01 X-29.1446 Y76.2362 
G01 X-29.1323 Y76.2336 
G01 X-29.1062 Y76.2203 
G01 X-29.0791 Y76.2091 
G01 X-29.0691 Y76.2014 
G01 X-29.0578 Y76.1957 
G01 X-29.0360 Y76.1761 
G01 X-29.0128 Y76.1582 
G01 X-29.0051 Y76.1482 
G01 X-28.9957 Y76.1397 
G01 X-28.9797 Y76.1152 
G01 X-28.9619 Y76.0919 
G01 X-28.9570 Y76.0802 
G01 X-28.9502 Y76.0696 
G01 X-28.9411 Y76.0417 
G01 X-28.9394 Y76.0376 
G01 X-28.8633 Y75.8882 
G01 X-28.7634 Y75.7507 
G01 X-28.6432 Y75.6306 
G01 X-28.5058 Y75.5307 
G01 X-28.3544 Y75.4536 
G01 X-28.3083 Y75.4386 
G01 X-28.3083 Y75.4653 
G01 X-28.3446 Y75.4771 
G01 X-28.4925 Y75.5525 
G01 X-28.6267 Y75.6500 
G01 X-28.7440 Y75.7673 
G01 X-28.8415 Y75.9015 
G01 X-28.9169 Y76.0494 
G01 X-28.9681 Y76.2072 
G01 X-28.9941 Y76.3710 
G01 X-28.9941 Y76.5370 
G01 X-28.9681 Y76.7008 
G00 Z2.5400 
G00 X-34.2731 Y74.7348 
G01 Z-0.1778 F254.00 
G01 X-34.2773 Y74.7320 F508.00 
G01 X-34.2773 Y74.7275 
G01 X-34.2731 Y74.7348 
G00 Z2.5400 
G00 X-35.3187 Y74.7320 
G01 Z-0.1778 F254.00 
G01 X-35.3229 Y74.7348 F508.00 
G01 X-35.3187 Y74.7275 
G01 X-35.3187 Y74.7320 
G00 Z2.5400 
G00 X-34.9133 Y73.0623 
G01 Z-0.1778 F254.00 
G01 X-34.8398 Y73.0820 F508.00 
G01 X-34.7562 Y73.0820 
G01 X-34.6827 Y73.0623 
G01 X-34.7980 Y73.1776 
G01 X-34.9133 Y73.0623 
G00 Z2.5400 
G00 X-39.1902 Y74.8506 
G01 Z-0.1778 F254.00 
G01 X-39.1068 Y74.9654 F508.00 
G01 X-39.0424 Y75.0919 
G01 X-38.9985 Y75.2268 
G01 X-38.9763 Y75.3670 
G01 X-38.9763 Y75.8317 
G01 X-39.0017 Y75.8317 
G01 X-39.0017 Y75.3517 
G01 X-39.0354 Y75.1824 
G01 X-39.1014 Y75.0229 
G01 X-39.1973 Y74.8794 
G01 X-39.3194 Y74.7573 
G01 X-39.4629 Y74.6614 
G01 X-39.5097 Y74.6421 
G01 X-39.5097 Y74.6137 
G01 X-39.4054 Y74.6668 
G01 X-39.2906 Y74.7502 
G01 X-39.1902 Y74.8506 
G00 Z2.5400 
G00 X-40.2463 Y74.6421 
G01 Z-0.1778 F254.00 
G01 X-40.2931 Y74.6614 F508.00 
G01 X-40.4366 Y74.7573 
G01 X-40.5587 Y74.8794 
G01 X-40.6546 Y75.0229 
G01 X-40.7206 Y75.1824 
G01 X-40.7543 Y75.3517 
G01 X-40.7543 Y75.8317 
G01 X-40.7797 Y75.8317 
G01 X-40.7797 Y75.3670 
G01 X-40.7575 Y75.2268 
G01 X-40.7136 Y75.0919 
G01 X-40.6492 Y74.9654 
G01 X-40.5658 Y74.8506 
G01 X-40.4654 Y74.7502 
G01 X-40.3506 Y74.6668 
G01 X-40.2463 Y74.6137 
G01 X-40.2463 Y74.6421 
G00 Z2.5400 
G00 X-40.7543 Y76.5683 
G01 Z-0.1778 F254.00 
G01 X-40.7543 Y77.0483 F508.00 
G01 X-40.7206 Y77.2176 
G01 X-40.6546 Y77.3771 
G01 X-40.5587 Y77.5206 
G01 X-40.4366 Y77.6427 
G01 X-40.2931 Y77.7386 
G01 X-40.1336 Y77.8046 
G01 X-39.9643 Y77.8383 
G01 X-39.7917 Y77.8383 
G01 X-39.6224 Y77.8046 
G01 X-39.4629 Y77.7386 
G01 X-39.3194 Y77.6427 
G01 X-39.1973 Y77.5206 
G01 X-39.1014 Y77.3771 
G01 X-39.0354 Y77.2176 
G01 X-39.0017 Y77.0483 
G01 X-39.0017 Y76.5683 
G01 X-38.9763 Y76.5683 
G01 X-38.9763 Y77.0330 
G01 X-38.9985 Y77.1732 
G01 X-39.0424 Y77.3081 
G01 X-39.1068 Y77.4346 
G01 X-39.1902 Y77.5494 
G01 X-39.2906 Y77.6498 
G01 X-39.4054 Y77.7332 
G01 X-39.5319 Y77.7976 
G01 X-39.6570 Y77.8383 
G01 X-39.6635 Y77.8383 
G01 X-39.6878 Y77.8448 
G01 X-39.7126 Y77.8487 
G01 X-39.7280 Y77.8556 
G01 X-39.7443 Y77.8599 
G01 X-39.7660 Y77.8725 
G01 X-39.7890 Y77.8827 
G01 X-39.8021 Y77.8933 
G01 X-39.8167 Y77.9017 
G01 X-39.8344 Y77.9195 
G01 X-39.8540 Y77.9353 
G01 X-39.8639 Y77.9490 
G01 X-39.8758 Y77.9608 
G01 X-39.8780 Y77.9647 
G01 X-39.8802 Y77.9608 
G01 X-39.8921 Y77.9490 
G01 X-39.9020 Y77.9353 
G01 X-39.9216 Y77.9195 
G01 X-39.9393 Y77.9017 
G01 X-39.9539 Y77.8933 
G01 X-39.9670 Y77.8827 
G01 X-39.9900 Y77.8725 
G01 X-40.0117 Y77.8599 
G01 X-40.0280 Y77.8556 
G01 X-40.0434 Y77.8487 
G01 X-40.0682 Y77.8448 
G01 X-40.0925 Y77.8383 
G01 X-40.0990 Y77.8383 
G01 X-40.2241 Y77.7976 
G01 X-40.3506 Y77.7332 
G01 X-40.4654 Y77.6498 
G01 X-40.5658 Y77.5494 
G01 X-40.6492 Y77.4346 
G01 X-40.7136 Y77.3081 
G01 X-40.7575 Y77.1732 
G01 X-40.7797 Y77.0330 
G01 X-40.7797 Y76.5683 
G01 X-40.7543 Y76.5683 
G00 Z2.5400 
G00 X-43.4171 Y74.7348 
G01 Z-0.1778 F254.00 
G01 X-43.4213 Y74.7320 F508.00 
G01 X-43.4213 Y74.7275 
G01 X-43.4171 Y74.7348 
G00 Z2.5400 
G00 X-44.4627 Y74.7320 
G01 Z-0.1778 F254.00 
G01 X-44.4669 Y74.7348 F508.00 
G01 X-44.4627 Y74.7275 
G01 X-44.4627 Y74.7320 
G00 Z2.5400 
G00 X-43.9420 Y73.1776 
G01 Z-0.1778 F254.00 
G01 X-44.0573 Y73.0623 F508.00 
G01 X-44.0528 Y73.0635 
G01 X-43.9838 Y73.0820 
G01 X-43.9002 Y73.0820 
G01 X-43.8362 Y73.0649 
G01 X-43.8267 Y73.0623 
G01 X-43.8507 Y73.0863 
G01 X-43.9420 Y73.1776 
G00 Z2.5400 
G00 X-48.4346 Y74.7502 
G01 Z-0.1778 F254.00 
G01 X-48.3342 Y74.8506 F508.00 
G01 X-48.2508 Y74.9654 
G01 X-48.1864 Y75.0919 
G01 X-48.1425 Y75.2268 
G01 X-48.1203 Y75.3670 
G01 X-48.1203 Y75.8317 
G01 X-48.1457 Y75.8317 
G01 X-48.1457 Y75.3517 
G01 X-48.1794 Y75.1824 
G01 X-48.2454 Y75.0229 
G01 X-48.3413 Y74.8794 
G01 X-48.4634 Y74.7573 
G01 X-48.6069 Y74.6614 
G01 X-48.6537 Y74.6421 
G01 X-48.6537 Y74.6137 
G01 X-48.5494 Y74.6668 
G01 X-48.4346 Y74.7502 
G00 Z2.5400 
G00 X-49.3903 Y74.6421 
G01 Z-0.1778 F254.00 
G01 X-49.4371 Y74.6614 F508.00 
G01 X-49.5806 Y74.7573 
G01 X-49.7027 Y74.8794 
G01 X-49.7986 Y75.0229 
G01 X-49.8646 Y75.1824 
G01 X-49.8983 Y75.3517 
G01 X-49.8983 Y75.8317 
G01 X-49.9237 Y75.8317 
G01 X-49.9237 Y75.3670 
G01 X-49.9015 Y75.2268 
G01 X-49.8576 Y75.0919 
G01 X-49.7932 Y74.9654 
G01 X-49.7098 Y74.8506 
G01 X-49.6094 Y74.7502 
G01 X-49.4946 Y74.6668 
G01 X-49.3903 Y74.6137 
G01 X-49.3903 Y74.6421 
G00 Z2.5400 
G00 X-49.8983 Y76.5683 
G01 Z-0.1778 F254.00 
G01 X-49.8983 Y77.0483 F508.00 
G01 X-49.8646 Y77.2176 
G01 X-49.7986 Y77.3771 
G01 X-49.7027 Y77.5206 
G01 X-49.5806 Y77.6427 
G01 X-49.4371 Y77.7386 
G01 X-49.2776 Y77.8046 
G01 X-49.1083 Y77.8383 
G01 X-48.9357 Y77.8383 
G01 X-48.7664 Y77.8046 
G01 X-48.6069 Y77.7386 
G01 X-48.4634 Y77.6427 
G01 X-48.3413 Y77.5206 
G01 X-48.2454 Y77.3771 
G01 X-48.1794 Y77.2176 
G01 X-48.1457 Y77.0483 
G01 X-48.1457 Y76.5683 
G01 X-48.1203 Y76.5683 
G01 X-48.1203 Y77.0330 
G01 X-48.1425 Y77.1732 
G01 X-48.1864 Y77.3081 
G01 X-48.2508 Y77.4346 
G01 X-48.3342 Y77.5494 
G01 X-48.4346 Y77.6498 
G01 X-48.5494 Y77.7332 
G01 X-48.6759 Y77.7976 
G01 X-48.8010 Y77.8383 
G01 X-48.8075 Y77.8383 
G01 X-48.8318 Y77.8448 
G01 X-48.8566 Y77.8487 
G01 X-48.8720 Y77.8556 
G01 X-48.8883 Y77.8599 
G01 X-48.9100 Y77.8725 
G01 X-48.9330 Y77.8827 
G01 X-48.9461 Y77.8933 
G01 X-48.9607 Y77.9017 
G01 X-48.9784 Y77.9195 
G01 X-48.9980 Y77.9353 
G01 X-49.0079 Y77.9490 
G01 X-49.0198 Y77.9608 
G01 X-49.0220 Y77.9647 
G01 X-49.0242 Y77.9608 
G01 X-49.0361 Y77.9490 
G01 X-49.0460 Y77.9353 
G01 X-49.0656 Y77.9195 
G01 X-49.0833 Y77.9017 
G01 X-49.0979 Y77.8933 
G01 X-49.1110 Y77.8827 
G01 X-49.1339 Y77.8725 
G01 X-49.1557 Y77.8599 
G01 X-49.1720 Y77.8556 
G01 X-49.1873 Y77.8487 
G01 X-49.2122 Y77.8448 
G01 X-49.2365 Y77.8383 
G01 X-49.2430 Y77.8383 
G01 X-49.3681 Y77.7976 
G01 X-49.4946 Y77.7332 
G01 X-49.6094 Y77.6498 
G01 X-49.7098 Y77.5494 
G01 X-49.7932 Y77.4346 
G01 X-49.8576 Y77.3081 
G01 X-49.9015 Y77.1732 
G01 X-49.9237 Y77.0330 
G01 X-49.9237 Y76.5683 
G01 X-49.8983 Y76.5683 
G00 Z2.5400 
G00 X-52.3071 Y74.7348 
G01 Z-0.1778 F254.00 
G01 X-52.3113 Y74.7320 F508.00 
G01 X-52.3113 Y74.7275 
G01 X-52.3071 Y74.7348 
G00 Z2.5400 
G00 X-53.3527 Y74.7320 
G01 Z-0.1778 F254.00 
G01 X-53.3569 Y74.7348 F508.00 
G01 X-53.3527 Y74.7275 
G01 X-53.3527 Y74.7320 
G00 Z2.5400 
G00 X-52.8320 Y72.9236 
G01 Z-0.1778 F254.00 
G01 X-52.9473 Y72.8083 F508.00 
G01 X-52.9428 Y72.8095 
G01 X-52.8738 Y72.8280 
G01 X-52.7902 Y72.8280 
G01 X-52.7262 Y72.8109 
G01 X-52.7167 Y72.8083 
G01 X-52.7407 Y72.8323 
G01 X-52.8320 Y72.9236 
G00 Z2.5400 
G00 X-57.3246 Y74.7502 
G01 Z-0.1778 F254.00 
G01 X-57.2242 Y74.8506 F508.00 
G01 X-57.1408 Y74.9654 
G01 X-57.0764 Y75.0919 
G01 X-57.0325 Y75.2268 
G01 X-57.0103 Y75.3670 
G01 X-57.0103 Y75.8317 
G01 X-57.0357 Y75.8317 
G01 X-57.0357 Y75.3517 
G01 X-57.0694 Y75.1824 
G01 X-57.1354 Y75.0229 
G01 X-57.2313 Y74.8794 
G01 X-57.3534 Y74.7573 
G01 X-57.4969 Y74.6614 
G01 X-57.5437 Y74.6421 
G01 X-57.5437 Y74.6137 
G01 X-57.4394 Y74.6668 
G01 X-57.3246 Y74.7502 
G00 Z2.5400 
G00 X-58.2803 Y74.6421 
G01 Z-0.1778 F254.00 
G01 X-58.3271 Y74.6614 F508.00 
G01 X-58.4706 Y74.7573 
G01 X-58.5927 Y74.8794 
G01 X-58.6886 Y75.0229 
G01 X-58.7546 Y75.1824 
G01 X-58.7883 Y75.3517 
G01 X-58.7883 Y75.8317 
G01 X-58.8137 Y75.8317 
G01 X-58.8137 Y75.3670 
G01 X-58.7915 Y75.2268 
G01 X-58.7476 Y75.0919 
G01 X-58.6832 Y74.9654 
G01 X-58.5998 Y74.8506 
G01 X-58.4994 Y74.7502 
G01 X-58.3846 Y74.6668 
G01 X-58.2803 Y74.6137 
G01 X-58.2803 Y74.6421 
G00 Z2.5400 
G00 X-58.7883 Y76.5683 
G01 Z-0.1778 F254.00 
G01 X-58.7883 Y77.0483 F508.00 
G01 X-58.7546 Y77.2176 
G01 X-58.6886 Y77.3771 
G01 X-58.5927 Y77.5206 
G01 X-58.4706 Y77.6427 
G01 X-58.3271 Y77.7386 
G01 X-58.1676 Y77.8046 
G01 X-57.9983 Y77.8383 
G01 X-57.8257 Y77.8383 
G01 X-57.6564 Y77.8046 
G01 X-57.4969 Y77.7386 
G01 X-57.3534 Y77.6427 
G01 X-57.2313 Y77.5206 
G01 X-57.1354 Y77.3771 
G01 X-57.0694 Y77.2176 
G01 X-57.0357 Y77.0483 
G01 X-57.0357 Y76.5683 
G01 X-57.0103 Y76.5683 
G01 X-57.0103 Y77.0330 
G01 X-57.0325 Y77.1732 
G01 X-57.0764 Y77.3081 
G01 X-57.1408 Y77.4346 
G01 X-57.2242 Y77.5494 
G01 X-57.3246 Y77.6498 
G01 X-57.4394 Y77.7332 
G01 X-57.5659 Y77.7976 
G01 X-57.6910 Y77.8383 
G01 X-57.6975 Y77.8383 
G01 X-57.7218 Y77.8448 
G01 X-57.7466 Y77.8487 
G01 X-57.7620 Y77.8556 
G01 X-57.7783 Y77.8599 
G01 X-57.8000 Y77.8725 
G01 X-57.8230 Y77.8827 
G01 X-57.8361 Y77.8933 
G01 X-57.8507 Y77.9017 
G01 X-57.8684 Y77.9195 
G01 X-57.8880 Y77.9353 
G01 X-57.8979 Y77.9490 
G01 X-57.9098 Y77.9608 
G01 X-57.9120 Y77.9647 
G01 X-57.9142 Y77.9608 
G01 X-57.9261 Y77.9490 
G01 X-57.9360 Y77.9353 
G01 X-57.9556 Y77.9195 
G01 X-57.9733 Y77.9017 
G01 X-57.9879 Y77.8933 
G01 X-58.0010 Y77.8827 
G01 X-58.0240 Y77.8725 
G01 X-58.0457 Y77.8599 
G01 X-58.0620 Y77.8556 
G01 X-58.0774 Y77.8487 
G01 X-58.1022 Y77.8448 
G01 X-58.1265 Y77.8383 
G01 X-58.1330 Y77.8383 
G01 X-58.2581 Y77.7976 
G01 X-58.3846 Y77.7332 
G01 X-58.4994 Y77.6498 
G01 X-58.5998 Y77.5494 
G01 X-58.6832 Y77.4346 
G01 X-58.7476 Y77.3081 
G01 X-58.7915 Y77.1732 
G01 X-58.8137 Y77.0330 
G01 X-58.8137 Y76.5683 
G01 X-58.7883 Y76.5683 
G00 Z2.5400 
G00 X-61.1971 Y74.7348 
G01 Z-0.1778 F254.00 
G01 X-61.2013 Y74.7320 F508.00 
G01 X-61.2013 Y74.7275 
G01 X-61.1971 Y74.7348 
G00 Z2.5400 
G00 X-62.2427 Y74.7320 
G01 Z-0.1778 F254.00 
G01 X-62.2469 Y74.7348 F508.00 
G01 X-62.2427 Y74.7275 
G01 X-62.2427 Y74.7320 
G00 Z2.5400 
G00 X-61.7220 Y72.6696 
G01 Z-0.1778 F254.00 
G01 X-61.8373 Y72.5543 F508.00 
G01 X-61.8328 Y72.5555 
G01 X-61.7638 Y72.5740 
G01 X-61.6802 Y72.5740 
G01 X-61.6162 Y72.5569 
G01 X-61.6067 Y72.5543 
G01 X-61.6307 Y72.5783 
G01 X-61.7220 Y72.6696 
G00 Z2.5400 
G00 X-60.8428 Y70.6041 
G01 Z-0.1778 F254.00 
G01 X-60.7998 Y70.5296 F508.00 
G01 X-60.7695 Y70.4165 
G01 X-60.7695 Y70.2995 
G01 X-60.7998 Y70.1864 
G01 X-60.8583 Y70.0851 
G01 X-60.9411 Y70.0023 
G01 X-60.9727 Y69.9840 
G01 X-60.9727 Y63.8539 
G01 X-58.3193 Y61.2005 
G01 X-29.5171 Y60.9755 
G01 X-29.5454 Y60.9922 
G01 X-29.5807 Y61.0125 
G01 X-29.6111 Y61.0429 
G01 X-29.6398 Y61.0716 
G01 X-29.6613 Y61.1089 
G01 X-29.6816 Y61.1440 
G01 X-29.6927 Y61.1854 
G01 X-29.7032 Y61.2248 
G01 X-29.7032 Y61.2677 
G01 X-29.7032 Y61.3084 
G01 X-29.6921 Y61.3500 
G01 X-29.6835 Y61.3819 
G01 X-29.6991 Y61.3663 
G01 X-29.8004 Y61.3078 
G01 X-29.9135 Y61.2775 
G01 X-30.0305 Y61.2775 
G01 X-30.1436 Y61.3078 
G01 X-30.2449 Y61.3663 
G01 X-30.3277 Y61.4491 
G01 X-30.3459 Y61.4807 
G01 X-58.2140 Y61.4807 
G01 X-58.3027 Y61.5174 
G01 X-58.3706 Y61.5853 
G01 X-60.4026 Y63.6173 
G01 X-60.4393 Y63.7060 
G01 X-60.4393 Y69.9840 
G01 X-60.4709 Y70.0023 
G01 X-60.5537 Y70.0851 
G01 X-60.6122 Y70.1864 
G01 X-60.6425 Y70.2995 
G01 X-60.6425 Y70.4165 
G01 X-60.6122 Y70.5296 
G01 X-60.5692 Y70.6041 
G01 X-60.5835 Y70.5958 
G01 X-60.6532 Y70.5772 
G01 X-60.6642 Y70.5742 
G01 X-60.7478 Y70.5742 
G01 X-60.8286 Y70.5958 
G01 X-60.8428 Y70.6041 
G00 Z2.5400 
G00 X-61.4553 Y69.9840 
G01 Z-0.1778 F254.00 
G01 X-61.4599 Y69.9867 F508.00 
G01 X-61.4553 Y69.9788 
G01 X-61.4553 Y69.9840 
G00 Z2.5400 
G00 X-59.9567 Y69.9840 
G01 Z-0.1778 F254.00 
G01 X-59.9567 Y69.9787 F508.00 
G01 X-59.9521 Y69.9867 
G01 X-59.9567 Y69.9840 
G00 Z2.5400 
G00 X-63.1211 Y67.5767 
G01 Z-0.1778 F254.00 
G01 X-63.6760 Y67.5767 F508.00 
G01 X-63.6101 Y67.5387 
G01 X-63.5520 Y67.4805 
G01 X-63.5290 Y67.4413 
G01 X-63.5092 Y67.4072 
G01 X-63.5052 Y67.3922 
G01 X-63.4876 Y67.3264 
G01 X-63.4876 Y67.2428 
G01 X-63.4990 Y67.2004 
G01 X-63.5089 Y67.1635 
G01 X-63.4176 Y67.2162 
G01 X-63.3045 Y67.2465 
G01 X-63.1875 Y67.2465 
G01 X-63.0744 Y67.2162 
G01 X-62.9731 Y67.1577 
G01 X-62.8903 Y67.0749 
G01 X-62.8318 Y66.9736 
G01 X-62.8015 Y66.8605 
G01 X-62.8015 Y66.7435 
G01 X-62.8318 Y66.6304 
G01 X-62.8903 Y66.5291 
G01 X-62.9731 Y66.4463 
G01 X-63.0047 Y66.4280 
G01 X-63.0047 Y62.8379 
G01 X-59.0820 Y58.9153 
G01 X-39.3220 Y58.9153 
G01 X-39.2333 Y58.8786 
G01 X-39.1654 Y58.8107 
G01 X-34.1900 Y53.8353 
G01 X-32.3693 Y53.8353 
G01 X-32.4352 Y53.8733 
G01 X-32.4943 Y53.9324 
G01 X-32.5361 Y54.0048 
G01 X-32.5578 Y54.0856 
G01 X-32.5578 Y54.1692 
G01 X-32.5361 Y54.2499 
G01 X-32.4943 Y54.3223 
G01 X-32.4366 Y54.3800 
G01 X-32.4640 Y54.3687 
G01 X-33.9160 Y54.3687 
G01 X-33.9343 Y54.3371 
G01 X-34.0171 Y54.2543 
G01 X-34.1184 Y54.1958 
G01 X-34.2315 Y54.1655 
G01 X-34.3485 Y54.1655 
G01 X-34.4616 Y54.1958 
G01 X-34.5629 Y54.2543 
G01 X-34.6457 Y54.3371 
G01 X-34.7042 Y54.4384 
G01 X-34.7345 Y54.5515 
G01 X-34.7345 Y54.6685 
G01 X-34.7250 Y54.7038 
G01 X-39.2159 Y59.1947 
G01 X-58.7220 Y59.1947 
G01 X-58.8107 Y59.2314 
G01 X-58.8786 Y59.2993 
G01 X-62.6886 Y63.1093 
G01 X-62.7253 Y63.1980 
G01 X-62.7253 Y66.9829 
G01 X-63.1211 Y67.5767 
G00 Z2.5400 
G00 X-63.6766 Y66.6917 
G01 Z-0.1778 F254.00 
G01 X-63.6867 Y66.6540 F508.00 
G01 X-63.7285 Y66.5816 
G01 X-63.7876 Y66.5225 
G01 X-63.8600 Y66.4807 
G01 X-63.8977 Y66.4706 
G01 X-63.8364 Y66.4542 
G01 X-63.7351 Y66.3957 
G01 X-63.6523 Y66.3129 
G01 X-63.5938 Y66.2116 
G01 X-63.5635 Y66.0985 
G01 X-63.5635 Y65.9815 
G01 X-63.5938 Y65.8684 
G01 X-63.6523 Y65.7671 
G01 X-63.7351 Y65.6843 
G01 X-63.7667 Y65.6660 
G01 X-63.7667 Y62.5840 
G01 X-59.3360 Y58.1533 
G01 X-39.6270 Y58.1533 
G01 X-39.5819 Y58.1544 
G01 X-39.5790 Y58.1533 
G01 X-39.5760 Y58.1533 
G01 X-39.5344 Y58.1361 
G01 X-39.4923 Y58.1198 
G01 X-39.4873 Y58.1166 
G01 X-39.4555 Y58.0847 
G01 X-34.1935 Y53.0733 
G01 X-30.9400 Y53.0733 
G01 X-30.8513 Y53.0366 
G01 X-30.0893 Y52.2746 
G01 X-30.0214 Y52.2067 
G01 X-29.9962 Y52.1458 
G01 X-29.9885 Y52.1748 
G01 X-29.9467 Y52.2472 
G01 X-29.8875 Y52.3063 
G01 X-29.8151 Y52.3481 
G01 X-29.7344 Y52.3698 
G01 X-29.6508 Y52.3698 
G01 X-29.5773 Y52.3501 
G01 X-30.5800 Y53.3527 
G01 X-34.3380 Y53.3527 
G01 X-34.4267 Y53.3894 
G01 X-39.4699 Y58.4327 
G01 X-59.2300 Y58.4327 
G01 X-59.3187 Y58.4694 
G01 X-63.3827 Y62.5334 
G01 X-63.4506 Y62.6013 
G01 X-63.4873 Y62.6900 
G01 X-63.4873 Y66.4280 
G01 X-63.5189 Y66.4463 
G01 X-63.6017 Y66.5291 
G01 X-63.6602 Y66.6304 
G01 X-63.6766 Y66.6917 
G00 Z2.5400 
G00 X-64.4313 Y65.9022 
G01 Z-0.1778 F254.00 
G01 X-64.4325 Y65.8975 F508.00 
G01 X-64.4353 Y65.8767 
G01 X-64.4433 Y65.8573 
G01 X-64.4487 Y65.8370 
G01 X-64.4592 Y65.8188 
G01 X-64.4673 Y65.7994 
G01 X-64.4800 Y65.7828 
G01 X-64.4905 Y65.7646 
G01 X-64.5054 Y65.7498 
G01 X-64.5182 Y65.7331 
G01 X-64.5348 Y65.7203 
G01 X-64.5496 Y65.7055 
G01 X-64.5678 Y65.6950 
G01 X-64.5845 Y65.6822 
G01 X-64.6039 Y65.6742 
G01 X-64.6220 Y65.6637 
G01 X-64.6423 Y65.6583 
G01 X-64.6617 Y65.6502 
G01 X-64.6825 Y65.6475 
G01 X-64.7028 Y65.6421 
G01 X-64.7238 Y65.6421 
G01 X-64.7446 Y65.6393 
G01 X-64.7654 Y65.6421 
G01 X-64.7511 Y65.6337 
G01 X-64.6683 Y65.5509 
G01 X-64.6098 Y65.4496 
G01 X-64.5795 Y65.3365 
G01 X-64.5795 Y65.2195 
G01 X-64.6098 Y65.1064 
G01 X-64.6683 Y65.0051 
G01 X-64.7511 Y64.9223 
G01 X-64.7827 Y64.9040 
G01 X-64.7827 Y62.3299 
G01 X-61.8104 Y59.3576 
G01 X-59.5983 Y57.3913 
G01 X-39.8840 Y57.3913 
G01 X-39.8421 Y57.3934 
G01 X-39.8362 Y57.3913 
G01 X-39.8300 Y57.3913 
G01 X-39.7912 Y57.3752 
G01 X-39.7517 Y57.3611 
G01 X-39.7471 Y57.3569 
G01 X-39.7413 Y57.3546 
G01 X-39.7116 Y57.3249 
G01 X-34.4510 Y52.5653 
G01 X-32.2100 Y52.5653 
G01 X-32.1213 Y52.5286 
G01 X-32.0534 Y52.4607 
G01 X-31.7761 Y52.1833 
G01 X-31.7958 Y52.2568 
G01 X-31.7958 Y52.3404 
G01 X-31.7741 Y52.4211 
G01 X-31.7592 Y52.4471 
G01 X-31.7323 Y52.4935 
G01 X-31.6732 Y52.5527 
G01 X-31.6073 Y52.5907 
G01 X-34.2870 Y52.5907 
G01 X-34.3321 Y52.5896 
G01 X-34.3349 Y52.5907 
G01 X-34.3380 Y52.5907 
G01 X-34.3796 Y52.6079 
G01 X-34.4217 Y52.6242 
G01 X-34.4267 Y52.6274 
G01 X-34.4585 Y52.6593 
G01 X-39.7205 Y57.6707 
G01 X-59.4840 Y57.6707 
G01 X-59.5727 Y57.7074 
G01 X-59.6406 Y57.7753 
G01 X-64.2126 Y62.3473 
G01 X-64.2493 Y62.4360 
G01 X-64.2493 Y65.6660 
G01 X-64.2809 Y65.6843 
G01 X-64.3637 Y65.7671 
G01 X-64.4222 Y65.8684 
G01 X-64.4313 Y65.9022 
G00 Z2.5400 
G00 X-65.2653 Y64.9040 
G01 Z-0.1778 F254.00 
G01 X-65.2699 Y64.9067 F508.00 
G01 X-65.2653 Y64.8988 
G01 X-65.2653 Y64.9040 
G00 Z2.5400 
G00 X-68.0801 Y65.3953 
G01 Z-0.1778 F254.00 
G01 X-68.0847 Y65.4032 F508.00 
G01 X-68.0847 Y65.3979 
G01 X-68.0801 Y65.3953 
G00 Z2.5400 
G00 X-68.5673 Y65.3979 
G01 Z-0.1778 F254.00 
G01 X-68.5673 Y67.2864 F508.00 
G01 X-68.5720 Y67.3103 
G01 X-68.5673 Y67.3339 
G01 X-68.5673 Y67.3580 
G01 X-68.5580 Y67.3805 
G01 X-68.5532 Y67.4044 
G01 X-68.5398 Y67.4244 
G01 X-68.5383 Y67.4279 
G01 X-68.5809 Y67.3995 
G01 X-68.5883 Y67.3922 
G01 X-68.6156 Y67.3764 
G01 X-68.6419 Y67.3589 
G01 X-68.6517 Y67.3556 
G01 X-68.6606 Y67.3504 
G01 X-68.6911 Y67.3422 
G01 X-68.7210 Y67.3321 
G01 X-68.7314 Y67.3314 
G01 X-68.7414 Y67.3288 
G01 X-68.7730 Y67.3288 
G01 X-68.8045 Y67.3267 
G01 X-68.8146 Y67.3288 
G01 X-68.8250 Y67.3288 
G01 X-68.8555 Y67.3369 
G01 X-68.8864 Y67.3431 
G01 X-68.8957 Y67.3477 
G01 X-68.9057 Y67.3504 
G01 X-68.9331 Y67.3662 
G01 X-68.9614 Y67.3802 
G01 X-68.9692 Y67.3870 
G01 X-68.9781 Y67.3922 
G01 X-69.0004 Y67.4145 
G01 X-69.0242 Y67.4354 
G01 X-69.0299 Y67.4440 
G01 X-69.0373 Y67.4513 
G01 X-69.0530 Y67.4786 
G01 X-69.0706 Y67.5049 
G01 X-69.0739 Y67.5147 
G01 X-69.0753 Y64.5686 
G01 X-69.0490 Y64.6141 
G01 X-69.0373 Y64.6344 
G01 X-68.9791 Y64.6926 
G01 X-68.9205 Y64.7268 
G01 X-68.9057 Y64.7354 
G01 X-68.8317 Y64.7552 
G01 X-68.8250 Y64.7570 
G01 X-68.7836 Y64.7570 
G01 X-68.7414 Y64.7570 
G01 X-68.7232 Y64.7521 
G01 X-68.6679 Y64.7373 
G01 X-68.6817 Y64.7511 
G01 X-68.7402 Y64.8524 
G01 X-68.7705 Y64.9655 
G01 X-68.7705 Y65.0825 
G01 X-68.7402 Y65.1956 
G01 X-68.6817 Y65.2969 
G01 X-68.5989 Y65.3797 
G01 X-68.5673 Y65.3979 
G00 Z2.5400 
G00 X-68.0847 Y67.1536 
G01 Z-0.1778 F254.00 
G01 X-68.0727 Y67.1744 F508.00 
G01 X-68.0620 Y67.1960 
G01 X-68.0847 Y67.1809 
G01 X-68.0847 Y67.1536 
G00 Z2.5400 
G00 X-68.9123 Y72.1233 
G01 Z-0.1778 F254.00 
G01 X-69.0753 Y72.1233 F508.00 
G01 X-69.0753 Y71.9603 
G01 X-69.0373 Y72.0261 
G01 X-68.9781 Y72.0853 
G01 X-68.9123 Y72.1233 
G00 Z2.5400 
G00 X-69.8373 Y74.7275 
G01 Z-0.1778 F254.00 
G01 X-69.8331 Y74.7348 F508.00 
G01 X-69.8373 Y74.7320 
G01 X-69.8373 Y74.7275 
G00 Z2.5400 
G00 X-70.8787 Y74.7275 
G01 Z-0.1778 F254.00 
G01 X-70.8787 Y74.7320 F508.00 
G01 X-70.8829 Y74.7348 
G01 X-70.8787 Y74.7275 
G00 Z2.5400 
G00 X-72.2121 Y74.7321 
G01 Z-0.1778 F254.00 
G01 X-72.2175 Y74.7523 F508.00 
G01 X-72.2175 Y74.7733 
G01 X-72.2203 Y74.7941 
G01 X-72.2175 Y74.8149 
G01 X-72.2175 Y74.8359 
G01 X-72.2121 Y74.8562 
G01 X-72.2094 Y74.8770 
G01 X-72.2013 Y74.8964 
G01 X-72.1982 Y74.9080 
G01 X-72.2173 Y74.8794 
G01 X-72.3079 Y74.7889 
G01 X-72.1978 Y74.6788 
G01 X-72.2013 Y74.6919 
G01 X-72.2094 Y74.7113 
G01 X-72.2121 Y74.7321 
G00 Z2.5400 
G00 X-72.1995 Y73.3084 
G01 Z-0.1778 F254.00 
G01 X-72.2009 Y73.3059 F508.00 
G01 X-72.2042 Y73.2961 
G01 X-72.2218 Y73.2698 
G01 X-72.2375 Y73.2425 
G01 X-72.2449 Y73.2352 
G01 X-72.2506 Y73.2266 
G01 X-72.2743 Y73.2057 
G01 X-72.2966 Y73.1834 
G01 X-72.3056 Y73.1782 
G01 X-72.3134 Y73.1714 
G01 X-72.3417 Y73.1574 
G01 X-72.3690 Y73.1416 
G01 X-72.3791 Y73.1389 
G01 X-72.3883 Y73.1343 
G01 X-72.4193 Y73.1281 
G01 X-72.4498 Y73.1200 
G01 X-72.4602 Y73.1200 
G01 X-72.4703 Y73.1179 
G01 X-72.5018 Y73.1200 
G01 X-72.5334 Y73.1200 
G01 X-72.5434 Y73.1226 
G01 X-72.5462 Y73.1228 
G01 X-72.5298 Y73.1119 
G01 X-72.5073 Y73.1026 
G01 X-72.4903 Y73.0855 
G01 X-72.4702 Y73.0721 
G01 X-72.4567 Y73.0519 
G01 X-72.4394 Y73.0347 
G01 X-72.4302 Y73.0124 
G01 X-72.4168 Y72.9924 
G01 X-72.4120 Y72.9685 
G01 X-72.4027 Y72.9460 
G01 X-72.4027 Y72.9219 
G01 X-72.3980 Y72.8983 
G01 X-72.4027 Y72.8744 
G01 X-72.4027 Y64.8899 
G01 X-72.3711 Y64.8717 
G01 X-72.2883 Y64.7889 
G01 X-72.2298 Y64.6876 
G01 X-72.1995 Y64.5745 
G01 X-72.1995 Y64.4575 
G01 X-72.2298 Y64.3444 
G01 X-72.2883 Y64.2431 
G01 X-72.3711 Y64.1603 
G01 X-72.4724 Y64.1018 
G01 X-72.4781 Y64.1003 
G01 X-72.4708 Y64.0993 
G01 X-72.4498 Y64.0993 
G01 X-72.4295 Y64.0939 
G01 X-72.4088 Y64.0912 
G01 X-72.3894 Y64.0831 
G01 X-72.3690 Y64.0777 
G01 X-72.3509 Y64.0672 
G01 X-72.3315 Y64.0592 
G01 X-72.3148 Y64.0464 
G01 X-72.2966 Y64.0359 
G01 X-72.2818 Y64.0211 
G01 X-72.2652 Y64.0083 
G01 X-72.2524 Y63.9916 
G01 X-72.2375 Y63.9768 
G01 X-72.2271 Y63.9586 
G01 X-72.2143 Y63.9420 
G01 X-72.2062 Y63.9226 
G01 X-72.1995 Y63.9109 
G01 X-72.1995 Y73.3084 
G00 Z2.5400 
G00 X-72.8853 Y72.7689 
G01 Z-0.1778 F254.00 
G01 X-74.2411 Y73.6727 F508.00 
G01 X-82.0900 Y73.6727 
G01 X-82.1787 Y73.7094 
G01 X-82.5239 Y74.0547 
G01 X-82.5042 Y73.9812 
G01 X-82.5042 Y73.8976 
G01 X-82.5259 Y73.8168 
G01 X-82.5408 Y73.7909 
G01 X-82.5677 Y73.7444 
G01 X-82.6268 Y73.6853 
G01 X-82.6927 Y73.6473 
G01 X-74.4517 Y73.6473 
G01 X-74.4340 Y73.6517 
G01 X-74.4041 Y73.6473 
G01 X-74.3740 Y73.6473 
G01 X-74.3571 Y73.6403 
G01 X-74.3390 Y73.6376 
G01 X-74.3132 Y73.6221 
G01 X-74.2853 Y73.6106 
G01 X-74.2724 Y73.5976 
G01 X-73.0432 Y72.8601 
G01 X-73.0153 Y72.8486 
G01 X-73.0024 Y72.8356 
G01 X-72.9867 Y72.8262 
G01 X-72.9688 Y72.8020 
G01 X-72.9474 Y72.7807 
G01 X-72.9404 Y72.7638 
G01 X-72.9295 Y72.7491 
G01 X-72.9222 Y72.7198 
G01 X-72.9107 Y72.6920 
G01 X-72.9107 Y72.6737 
G01 X-72.9063 Y72.6560 
G01 X-72.9107 Y72.6261 
G01 X-72.9107 Y65.4840 
G01 X-72.9474 Y65.3953 
G01 X-73.0153 Y65.3274 
G01 X-73.1647 Y65.1780 
G01 X-73.1647 Y63.9425 
G01 X-73.1580 Y63.9541 
G01 X-73.1499 Y63.9735 
G01 X-73.1371 Y63.9902 
G01 X-73.1267 Y64.0083 
G01 X-73.1118 Y64.0232 
G01 X-73.0990 Y64.0398 
G01 X-73.0824 Y64.0526 
G01 X-73.0675 Y64.0675 
G01 X-73.0494 Y64.0780 
G01 X-73.0327 Y64.0907 
G01 X-73.0133 Y64.0988 
G01 X-72.9951 Y64.1093 
G01 X-72.9749 Y64.1147 
G01 X-72.9555 Y64.1227 
G01 X-72.9347 Y64.1255 
G01 X-72.9144 Y64.1309 
G01 X-72.8934 Y64.1309 
G01 X-72.8726 Y64.1336 
G01 X-72.9169 Y64.1603 
G01 X-72.9997 Y64.2431 
G01 X-73.0582 Y64.3444 
G01 X-73.0885 Y64.4575 
G01 X-73.0885 Y64.5745 
G01 X-73.0582 Y64.6876 
G01 X-72.9997 Y64.7889 
G01 X-72.9169 Y64.8717 
G01 X-72.8853 Y64.8899 
G01 X-72.8853 Y72.7689 
G00 Z2.5400 
G00 X-73.3933 Y72.5074 
G01 Z-0.1778 F254.00 
G01 X-73.4244 Y72.5261 F508.00 
G01 X-73.4091 Y72.4984 
G01 X-73.3933 Y72.4711 
G01 X-73.3933 Y72.5074 
G00 Z2.5400 
G00 X-74.8563 Y74.1553 
G01 Z-0.1778 F254.00 
G01 X-74.8716 Y74.1641 F508.00 
G01 X-74.8946 Y74.1744 
G01 X-74.9076 Y74.1849 
G01 X-74.9222 Y74.1933 
G01 X-74.9400 Y74.2111 
G01 X-74.9595 Y74.2270 
G01 X-74.9694 Y74.2406 
G01 X-74.9813 Y74.2524 
G01 X-74.9939 Y74.2742 
G01 X-75.0087 Y74.2946 
G01 X-75.0147 Y74.3103 
G01 X-75.0231 Y74.3248 
G01 X-75.0296 Y74.3492 
G01 X-75.0386 Y74.3726 
G01 X-75.0404 Y74.3894 
G01 X-75.0447 Y74.4056 
G01 X-75.0447 Y74.4308 
G01 X-75.0474 Y74.4558 
G01 X-75.0447 Y74.4724 
G01 X-75.0447 Y74.4892 
G01 X-75.0382 Y74.5135 
G01 X-75.0343 Y74.5384 
G01 X-75.0274 Y74.5537 
G01 X-75.0231 Y74.5699 
G01 X-75.0105 Y74.5917 
G01 X-75.0003 Y74.6147 
G01 X-74.9897 Y74.6278 
G01 X-74.9813 Y74.6423 
G01 X-74.9635 Y74.6601 
G01 X-74.9477 Y74.6797 
G01 X-74.9340 Y74.6896 
G01 X-74.9222 Y74.7015 
G01 X-74.9004 Y74.7140 
G01 X-74.8506 Y74.7502 
G01 X-74.7502 Y74.8506 
G01 X-74.6668 Y74.9654 
G01 X-74.6024 Y75.0919 
G01 X-74.5585 Y75.2268 
G01 X-74.5363 Y75.3670 
G01 X-74.5363 Y75.8317 
G01 X-74.5617 Y75.8317 
G01 X-74.5617 Y75.3517 
G01 X-74.5954 Y75.1824 
G01 X-74.6614 Y75.0229 
G01 X-74.7573 Y74.8794 
G01 X-74.8794 Y74.7573 
G01 X-75.0229 Y74.6614 
G01 X-75.1824 Y74.5954 
G01 X-75.3517 Y74.5617 
G01 X-75.5243 Y74.5617 
G01 X-75.6936 Y74.5954 
G01 X-75.8531 Y74.6614 
G01 X-75.9966 Y74.7573 
G01 X-76.1187 Y74.8794 
G01 X-76.2146 Y75.0229 
G01 X-76.2806 Y75.1824 
G01 X-76.3143 Y75.3517 
G01 X-76.3143 Y75.8317 
G01 X-76.3397 Y75.8317 
G01 X-76.3397 Y75.3670 
G01 X-76.3175 Y75.2268 
G01 X-76.2736 Y75.0919 
G01 X-76.2092 Y74.9654 
G01 X-76.1258 Y74.8506 
G01 X-76.0254 Y74.7502 
G01 X-75.9756 Y74.7140 
G01 X-75.9538 Y74.7015 
G01 X-75.9419 Y74.6896 
G01 X-75.9283 Y74.6797 
G01 X-75.9125 Y74.6601 
G01 X-75.8947 Y74.6423 
G01 X-75.8863 Y74.6278 
G01 X-75.8757 Y74.6147 
G01 X-75.8655 Y74.5917 
G01 X-75.8529 Y74.5699 
G01 X-75.8486 Y74.5537 
G01 X-75.8417 Y74.5384 
G01 X-75.8378 Y74.5135 
G01 X-75.8313 Y74.4892 
G01 X-75.8313 Y74.4724 
G01 X-75.8286 Y74.4558 
G01 X-75.8313 Y74.4308 
G01 X-75.8313 Y74.4056 
G01 X-75.8356 Y74.3894 
G01 X-75.8374 Y74.3726 
G01 X-75.8464 Y74.3492 
G01 X-75.8529 Y74.3248 
G01 X-75.8613 Y74.3103 
G01 X-75.8673 Y74.2946 
G01 X-75.8821 Y74.2742 
G01 X-75.8947 Y74.2524 
G01 X-75.9066 Y74.2406 
G01 X-75.9165 Y74.2270 
G01 X-75.9360 Y74.2111 
G01 X-75.9538 Y74.1933 
G01 X-75.9684 Y74.1849 
G01 X-75.9814 Y74.1744 
G01 X-76.0044 Y74.1641 
G01 X-76.0197 Y74.1553 
G01 X-74.8563 Y74.1553 
G00 Z2.5400 
G00 X-74.5617 Y76.5683 
G01 Z-0.1778 F254.00 
G01 X-74.5363 Y76.5683 F508.00 
G01 X-74.5363 Y77.0330 
G01 X-74.5585 Y77.1732 
G01 X-74.6024 Y77.3081 
G01 X-74.6668 Y77.4346 
G01 X-74.7502 Y77.5494 
G01 X-74.8506 Y77.6498 
G01 X-74.9654 Y77.7332 
G01 X-75.0919 Y77.7976 
G01 X-75.2170 Y77.8383 
G01 X-75.2235 Y77.8383 
G01 X-75.2478 Y77.8448 
G01 X-75.2726 Y77.8487 
G01 X-75.2880 Y77.8556 
G01 X-75.3043 Y77.8599 
G01 X-75.3260 Y77.8725 
G01 X-75.3490 Y77.8827 
G01 X-75.3621 Y77.8933 
G01 X-75.3767 Y77.9017 
G01 X-75.3944 Y77.9195 
G01 X-75.4140 Y77.9353 
G01 X-75.4239 Y77.9490 
G01 X-75.4358 Y77.9608 
G01 X-75.4380 Y77.9647 
G01 X-75.4402 Y77.9608 
G01 X-75.4521 Y77.9490 
G01 X-75.4620 Y77.9353 
G01 X-75.4816 Y77.9195 
G01 X-75.4993 Y77.9017 
G01 X-75.5139 Y77.8933 
G01 X-75.5270 Y77.8827 
G01 X-75.5499 Y77.8725 
G01 X-75.5717 Y77.8599 
G01 X-75.5880 Y77.8556 
G01 X-75.6034 Y77.8487 
G01 X-75.6282 Y77.8448 
G01 X-75.6525 Y77.8383 
G01 X-75.6590 Y77.8383 
G01 X-75.7841 Y77.7976 
G01 X-75.9106 Y77.7332 
G01 X-76.0254 Y77.6498 
G01 X-76.1258 Y77.5494 
G01 X-76.2092 Y77.4346 
G01 X-76.2736 Y77.3081 
G01 X-76.3175 Y77.1732 
G01 X-76.3397 Y77.0330 
G01 X-76.3397 Y76.5683 
G01 X-76.3143 Y76.5683 
G01 X-76.3143 Y77.0483 
G01 X-76.2806 Y77.2176 
G01 X-76.2146 Y77.3771 
G01 X-76.1187 Y77.5206 
G01 X-75.9966 Y77.6427 
G01 X-75.8531 Y77.7386 
G01 X-75.6936 Y77.8046 
G01 X-75.5243 Y77.8383 
G01 X-75.3517 Y77.8383 
G01 X-75.1824 Y77.8046 
G01 X-75.0229 Y77.7386 
G01 X-74.8794 Y77.6427 
G01 X-74.7573 Y77.5206 
G01 X-74.6614 Y77.3771 
G01 X-74.5954 Y77.2176 
G01 X-74.5617 Y77.0483 
G01 X-74.5617 Y76.5683 
G00 Z2.5400 
G00 X-79.1083 Y76.5683 
G01 Z-0.1778 F254.00 
G01 X-79.1083 Y77.0330 F508.00 
G01 X-79.1305 Y77.1732 
G01 X-79.1744 Y77.3081 
G01 X-79.2388 Y77.4346 
G01 X-79.3222 Y77.5494 
G01 X-79.4226 Y77.6498 
G01 X-79.5374 Y77.7332 
G01 X-79.6639 Y77.7976 
G01 X-79.7890 Y77.8383 
G01 X-79.7955 Y77.8383 
G01 X-79.8198 Y77.8448 
G01 X-79.8446 Y77.8487 
G01 X-79.8600 Y77.8556 
G01 X-79.8763 Y77.8599 
G01 X-79.8980 Y77.8725 
G01 X-79.9210 Y77.8827 
G01 X-79.9341 Y77.8933 
G01 X-79.9487 Y77.9017 
G01 X-79.9664 Y77.9195 
G01 X-79.9860 Y77.9353 
G01 X-79.9959 Y77.9490 
G01 X-80.0078 Y77.9608 
G01 X-80.0100 Y77.9647 
G01 X-80.0122 Y77.9608 
G01 X-80.0241 Y77.9490 
G01 X-80.0340 Y77.9353 
G01 X-80.0536 Y77.9195 
G01 X-80.0713 Y77.9017 
G01 X-80.0859 Y77.8933 
G01 X-80.0990 Y77.8827 
G01 X-80.1220 Y77.8725 
G01 X-80.1437 Y77.8599 
G01 X-80.1600 Y77.8556 
G01 X-80.1753 Y77.8487 
G01 X-80.2002 Y77.8448 
G01 X-80.2245 Y77.8383 
G01 X-80.2310 Y77.8383 
G01 X-80.3561 Y77.7976 
G01 X-80.4826 Y77.7332 
G01 X-80.5974 Y77.6498 
G01 X-80.6978 Y77.5494 
G01 X-80.7812 Y77.4346 
G01 X-80.8456 Y77.3081 
G01 X-80.8895 Y77.1732 
G01 X-80.9117 Y77.0330 
G01 X-80.9117 Y76.5683 
G01 X-80.8863 Y76.5683 
G01 X-80.8863 Y77.0483 
G01 X-80.8526 Y77.2176 
G01 X-80.7866 Y77.3771 
G01 X-80.6907 Y77.5206 
G01 X-80.5686 Y77.6427 
G01 X-80.4251 Y77.7386 
G01 X-80.2656 Y77.8046 
G01 X-80.0963 Y77.8383 
G01 X-79.9237 Y77.8383 
G01 X-79.7544 Y77.8046 
G01 X-79.5949 Y77.7386 
G01 X-79.4514 Y77.6427 
G01 X-79.3293 Y77.5206 
G01 X-79.2334 Y77.3771 
G01 X-79.1674 Y77.2176 
G01 X-79.1337 Y77.0483 
G01 X-79.1337 Y76.5683 
G01 X-79.1083 Y76.5683 
G00 Z2.5400 
G00 X-79.1083 Y75.8317 
G01 Z-0.1778 F254.00 
G01 X-79.1337 Y75.8317 F508.00 
G01 X-79.1337 Y75.3517 
G01 X-79.1674 Y75.1824 
G01 X-79.2334 Y75.0229 
G01 X-79.3293 Y74.8794 
G01 X-79.4514 Y74.7573 
G01 X-79.5949 Y74.6614 
G01 X-79.7544 Y74.5954 
G01 X-79.9237 Y74.5617 
G01 X-80.0963 Y74.5617 
G01 X-80.2656 Y74.5954 
G01 X-80.4251 Y74.6614 
G01 X-80.5686 Y74.7573 
G01 X-80.6907 Y74.8794 
G01 X-80.7866 Y75.0229 
G01 X-80.8526 Y75.1824 
G01 X-80.8863 Y75.3517 
G01 X-80.8863 Y75.8317 
G01 X-80.9117 Y75.8317 
G01 X-80.9117 Y75.3670 
G01 X-80.8895 Y75.2268 
G01 X-80.8456 Y75.0919 
G01 X-80.7812 Y74.9654 
G01 X-80.6978 Y74.8506 
G01 X-80.5974 Y74.7502 
G01 X-80.5476 Y74.7140 
G01 X-80.5258 Y74.7015 
G01 X-80.5139 Y74.6896 
G01 X-80.5003 Y74.6797 
G01 X-80.4845 Y74.6601 
G01 X-80.4667 Y74.6423 
G01 X-80.4583 Y74.6278 
G01 X-80.4477 Y74.6147 
G01 X-80.4375 Y74.5917 
G01 X-80.4249 Y74.5699 
G01 X-80.4206 Y74.5537 
G01 X-80.4137 Y74.5384 
G01 X-80.4098 Y74.5135 
G01 X-80.4033 Y74.4892 
G01 X-80.4033 Y74.4724 
G01 X-80.4006 Y74.4558 
G01 X-80.4033 Y74.4307 
G01 X-80.4033 Y74.4056 
G01 X-80.4076 Y74.3894 
G01 X-80.4094 Y74.3726 
G01 X-80.4184 Y74.3492 
G01 X-80.4249 Y74.3248 
G01 X-80.4333 Y74.3103 
G01 X-80.4393 Y74.2946 
G01 X-80.4541 Y74.2742 
G01 X-80.4667 Y74.2524 
G01 X-80.4786 Y74.2406 
G01 X-80.4885 Y74.2270 
G01 X-80.5080 Y74.2111 
G01 X-80.5258 Y74.1933 
G01 X-80.5404 Y74.1849 
G01 X-80.5534 Y74.1744 
G01 X-80.5764 Y74.1641 
G01 X-80.5917 Y74.1553 
G01 X-79.4283 Y74.1553 
G01 X-79.4436 Y74.1641 
G01 X-79.4666 Y74.1744 
G01 X-79.4796 Y74.1849 
G01 X-79.4942 Y74.1933 
G01 X-79.5120 Y74.2111 
G01 X-79.5315 Y74.2270 
G01 X-79.5414 Y74.2406 
G01 X-79.5533 Y74.2524 
G01 X-79.5659 Y74.2742 
G01 X-79.5807 Y74.2946 
G01 X-79.5867 Y74.3103 
G01 X-79.5951 Y74.3248 
G01 X-79.6016 Y74.3492 
G01 X-79.6106 Y74.3726 
G01 X-79.6124 Y74.3894 
G01 X-79.6167 Y74.4056 
G01 X-79.6167 Y74.4308 
G01 X-79.6194 Y74.4558 
G01 X-79.6167 Y74.4724 
G01 X-79.6167 Y74.4892 
G01 X-79.6102 Y74.5135 
G01 X-79.6063 Y74.5384 
G01 X-79.5994 Y74.5537 
G01 X-79.5951 Y74.5699 
G01 X-79.5825 Y74.5917 
G01 X-79.5723 Y74.6147 
G01 X-79.5617 Y74.6278 
G01 X-79.5533 Y74.6423 
G01 X-79.5355 Y74.6601 
G01 X-79.5197 Y74.6797 
G01 X-79.5060 Y74.6896 
G01 X-79.4942 Y74.7015 
G01 X-79.4724 Y74.7140 
G01 X-79.4226 Y74.7502 
G01 X-79.3222 Y74.8506 
G01 X-79.2388 Y74.9654 
G01 X-79.1744 Y75.0919 
G01 X-79.1305 Y75.2268 
G01 X-79.1083 Y75.3670 
G01 X-79.1083 Y75.8317 
G00 Z2.5400 
G00 X-78.9614 Y73.0990 
G01 Z-0.1778 F254.00 
G01 X-78.9447 Y73.1118 F508.00 
G01 X-78.9299 Y73.1267 
G01 X-78.9117 Y73.1372 
G01 X-78.8951 Y73.1499 
G01 X-78.8757 Y73.1580 
G01 X-78.8640 Y73.1647 
G01 X-79.6320 Y73.1647 
G01 X-79.6203 Y73.1580 
G01 X-79.6009 Y73.1499 
G01 X-79.5843 Y73.1371 
G01 X-79.5661 Y73.1267 
G01 X-79.5513 Y73.1118 
G01 X-79.5346 Y73.0990 
G01 X-79.5218 Y73.0824 
G01 X-79.5070 Y73.0675 
G01 X-79.4965 Y73.0494 
G01 X-79.4837 Y73.0327 
G01 X-79.4757 Y73.0133 
G01 X-79.4652 Y72.9951 
G01 X-79.4597 Y72.9749 
G01 X-79.4517 Y72.9555 
G01 X-79.4490 Y72.9347 
G01 X-79.4435 Y72.9144 
G01 X-79.4435 Y72.8934 
G01 X-79.4408 Y72.8726 
G01 X-79.4435 Y72.8518 
G01 X-79.4435 Y72.8308 
G01 X-79.4490 Y72.8105 
G01 X-79.4517 Y72.7897 
G01 X-79.4598 Y72.7703 
G01 X-79.4652 Y72.7500 
G01 X-79.4757 Y72.7319 
G01 X-79.4837 Y72.7125 
G01 X-79.4965 Y72.6958 
G01 X-79.5070 Y72.6776 
G01 X-79.5218 Y72.6628 
G01 X-79.5346 Y72.6462 
G01 X-79.5412 Y72.6411 
G01 X-79.4948 Y72.6561 
G01 X-79.3310 Y72.6821 
G01 X-79.1650 Y72.6821 
G01 X-79.0012 Y72.6561 
G01 X-78.9548 Y72.6411 
G01 X-78.9614 Y72.6462 
G01 X-78.9742 Y72.6628 
G01 X-78.9890 Y72.6776 
G01 X-78.9995 Y72.6958 
G01 X-79.0123 Y72.7125 
G01 X-79.0203 Y72.7319 
G01 X-79.0308 Y72.7500 
G01 X-79.0362 Y72.7703 
G01 X-79.0443 Y72.7897 
G01 X-79.0470 Y72.8105 
G01 X-79.0524 Y72.8308 
G01 X-79.0524 Y72.8518 
G01 X-79.0552 Y72.8726 
G01 X-79.0524 Y72.8934 
G01 X-79.0524 Y72.9144 
G01 X-79.0470 Y72.9347 
G01 X-79.0443 Y72.9555 
G01 X-79.0362 Y72.9749 
G01 X-79.0308 Y72.9951 
G01 X-79.0203 Y73.0133 
G01 X-79.0123 Y73.0327 
G01 X-78.9995 Y73.0494 
G01 X-78.9890 Y73.0675 
G01 X-78.9742 Y73.0824 
G01 X-78.9614 Y73.0990 
G00 Z2.5400 
G00 X-79.0030 Y70.5996 
G01 Z-0.1778 F254.00 
G01 X-79.1650 Y70.5739 F508.00 
G01 X-79.3310 Y70.5739 
G01 X-79.4930 Y70.5996 
G01 X-79.4733 Y70.5844 
G01 X-79.4224 Y70.5181 
G01 X-79.3904 Y70.4409 
G01 X-79.3795 Y70.3580 
G01 X-79.3895 Y70.2821 
G01 X-79.3904 Y70.2751 
G01 X-79.4224 Y70.1979 
G01 X-79.4441 Y70.1696 
G01 X-79.4733 Y70.1316 
G01 X-79.4930 Y70.1164 
G01 X-79.3310 Y70.1421 
G01 X-79.1650 Y70.1421 
G01 X-79.0030 Y70.1164 
G01 X-79.0227 Y70.1316 
G01 X-79.0511 Y70.1686 
G01 X-79.0736 Y70.1979 
G01 X-79.1056 Y70.2751 
G01 X-79.1165 Y70.3580 
G01 X-79.1065 Y70.4339 
G01 X-79.1056 Y70.4409 
G01 X-79.0736 Y70.5181 
G01 X-79.0227 Y70.5844 
G01 X-79.0030 Y70.5996 
G00 Z2.5400 
G00 X-78.2523 Y69.4347 
G01 Z-0.1778 F254.00 
G01 X-78.2428 Y69.4055 F508.00 
G01 X-78.2142 Y69.4055 
G01 X-78.2241 Y69.4131 
G01 X-78.2523 Y69.4347 
G00 Z2.5400 
G00 X-78.2729 Y68.6799 
G01 Z-0.1778 F254.00 
G01 X-78.3465 Y68.5355 F508.00 
G01 X-78.4440 Y68.4013 
G01 X-78.5613 Y68.2840 
G01 X-78.6955 Y68.1865 
G01 X-78.8434 Y68.1111 
G01 X-79.0012 Y68.0599 
G01 X-79.1650 Y68.0339 
G01 X-79.3310 Y68.0339 
G01 X-79.4930 Y68.0596 
G01 X-79.4733 Y68.0444 
G01 X-79.4224 Y67.9781 
G01 X-79.3904 Y67.9009 
G01 X-79.3795 Y67.8180 
G01 X-79.3895 Y67.7421 
G01 X-79.3904 Y67.7351 
G01 X-79.4224 Y67.6579 
G01 X-79.4441 Y67.6296 
G01 X-79.4733 Y67.5916 
G01 X-79.4930 Y67.5764 
G01 X-79.3310 Y67.6021 
G01 X-79.1650 Y67.6021 
G01 X-79.0012 Y67.5761 
G01 X-78.8434 Y67.5249 
G01 X-78.6955 Y67.4495 
G01 X-78.5613 Y67.3520 
G01 X-78.4440 Y67.2347 
G01 X-78.3465 Y67.1005 
G01 X-78.2711 Y66.9526 
G01 X-78.2199 Y66.7948 
G01 X-78.1939 Y66.6310 
G01 X-78.1939 Y66.4650 
G01 X-78.2199 Y66.3012 
G01 X-78.2711 Y66.1434 
G01 X-78.3127 Y66.0617 
G01 X-77.8465 Y65.5955 
G01 X-77.0191 Y65.5955 
G01 X-76.9809 Y65.6337 
G01 X-76.8796 Y65.6922 
G01 X-76.7665 Y65.7225 
G01 X-76.6495 Y65.7225 
G01 X-76.5497 Y65.6958 
G01 X-76.5779 Y65.7325 
G01 X-76.5935 Y65.7529 
G01 X-76.6057 Y65.7822 
G01 X-76.6255 Y65.8301 
G01 X-76.6277 Y65.8466 
G01 X-76.6364 Y65.9130 
G01 X-76.6289 Y65.9700 
G01 X-76.6255 Y65.9959 
G01 X-76.6086 Y66.0368 
G01 X-76.5935 Y66.0731 
G01 X-76.5517 Y66.1277 
G01 X-76.5497 Y66.1302 
G01 X-76.6495 Y66.1035 
G01 X-76.7665 Y66.1035 
G01 X-76.8796 Y66.1338 
G01 X-76.9809 Y66.1923 
G01 X-77.0637 Y66.2751 
G01 X-77.1222 Y66.3764 
G01 X-77.1525 Y66.4895 
G01 X-77.1525 Y66.6065 
G01 X-77.1222 Y66.7196 
G01 X-77.0637 Y66.8209 
G01 X-77.0255 Y66.8591 
G01 X-77.0255 Y67.4325 
G01 X-78.2729 Y68.6799 
G00 Z2.5400 
G00 X-78.7617 Y65.6127 
G01 Z-0.1778 F254.00 
G01 X-78.8434 Y65.5711 F508.00 
G01 X-79.0012 Y65.5199 
G01 X-79.1650 Y65.4939 
G01 X-79.3310 Y65.4939 
G01 X-79.4930 Y65.5196 
G01 X-79.4733 Y65.5044 
G01 X-79.4224 Y65.4381 
G01 X-79.3904 Y65.3609 
G01 X-79.3795 Y65.2780 
G01 X-79.3895 Y65.2021 
G01 X-79.3904 Y65.1951 
G01 X-79.4224 Y65.1179 
G01 X-79.4441 Y65.0896 
G01 X-79.4733 Y65.0516 
G01 X-79.4930 Y65.0364 
G01 X-79.3310 Y65.0621 
G01 X-79.1650 Y65.0621 
G01 X-79.0012 Y65.0361 
G01 X-78.8434 Y64.9849 
G01 X-78.6955 Y64.9095 
G01 X-78.5613 Y64.8120 
G01 X-78.4440 Y64.6947 
G01 X-78.3758 Y64.6008 
G01 X-78.3765 Y64.6063 
G01 X-78.3819 Y64.6266 
G01 X-78.3819 Y64.6476 
G01 X-78.3847 Y64.6684 
G01 X-78.3819 Y64.6892 
G01 X-78.3819 Y64.7102 
G01 X-78.3765 Y64.7305 
G01 X-78.3738 Y64.7513 
G01 X-78.3657 Y64.7707 
G01 X-78.3603 Y64.7909 
G01 X-78.3498 Y64.8091 
G01 X-78.3418 Y64.8285 
G01 X-78.3290 Y64.8452 
G01 X-78.3185 Y64.8633 
G01 X-78.3037 Y64.8782 
G01 X-78.2909 Y64.8948 
G01 X-78.2742 Y64.9076 
G01 X-78.2594 Y64.9225 
G01 X-78.2412 Y64.9330 
G01 X-78.2245 Y64.9457 
G01 X-78.2052 Y64.9538 
G01 X-78.1870 Y64.9643 
G01 X-78.1667 Y64.9697 
G01 X-78.1473 Y64.9777 
G01 X-78.1265 Y64.9805 
G01 X-78.1068 Y64.9857 
G01 X-78.1729 Y65.0239 
G01 X-78.7617 Y65.6127 
G00 Z2.5400 
G00 X-80.2337 Y64.3853 
G01 Z-0.1778 F254.00 
G01 X-80.2428 Y64.3784 F508.00 
G01 X-80.2577 Y64.3635 
G01 X-80.2758 Y64.3530 
G01 X-80.2925 Y64.3403 
G01 X-80.3119 Y64.3322 
G01 X-80.3235 Y64.3255 
G01 X-80.2532 Y64.3255 
G01 X-80.2337 Y64.3853 
G00 Z2.5400 
G00 X-80.2532 Y63.6905 
G01 Z-0.1778 F254.00 
G01 X-80.3865 Y63.6905 F508.00 
G01 X-80.5131 Y63.5639 
G01 X-80.5001 Y63.5674 
G01 X-80.4807 Y63.5754 
G01 X-80.4599 Y63.5782 
G01 X-80.4396 Y63.5836 
G01 X-80.4186 Y63.5836 
G01 X-80.3978 Y63.5863 
G01 X-80.3770 Y63.5836 
G01 X-80.3560 Y63.5836 
G01 X-80.3357 Y63.5782 
G01 X-80.3149 Y63.5754 
G01 X-80.2955 Y63.5674 
G01 X-80.2752 Y63.5620 
G01 X-80.2571 Y63.5515 
G01 X-80.2377 Y63.5434 
G01 X-80.2210 Y63.5306 
G01 X-80.2029 Y63.5202 
G01 X-80.1880 Y63.5053 
G01 X-80.1713 Y63.4925 
G01 X-80.1625 Y63.4810 
G01 X-80.2249 Y63.6034 
G01 X-80.2532 Y63.6905 
G00 Z2.5400 
G00 X-79.5486 Y62.9973 
G01 Z-0.1778 F254.00 
G01 X-79.5438 Y62.9936 F508.00 
G01 X-79.5361 Y62.9836 
G01 X-79.5267 Y62.9752 
G01 X-79.5108 Y62.9506 
G01 X-79.4929 Y62.9273 
G01 X-79.4881 Y62.9156 
G01 X-79.4812 Y62.9051 
G01 X-79.4721 Y62.8772 
G01 X-79.4609 Y62.8501 
G01 X-79.4593 Y62.8376 
G01 X-79.4554 Y62.8255 
G01 X-79.4538 Y62.7963 
G01 X-79.4500 Y62.7672 
G01 X-79.4516 Y62.7547 
G01 X-79.4510 Y62.7421 
G01 X-79.4571 Y62.7134 
G01 X-79.4609 Y62.6843 
G01 X-79.4657 Y62.6726 
G01 X-79.4684 Y62.6603 
G01 X-79.4817 Y62.6342 
G01 X-79.4929 Y62.6071 
G01 X-79.5006 Y62.5971 
G01 X-79.5063 Y62.5858 
G01 X-79.5259 Y62.5640 
G01 X-79.5438 Y62.5408 
G01 X-79.5538 Y62.5331 
G01 X-79.5623 Y62.5237 
G01 X-79.5868 Y62.5077 
G01 X-79.6101 Y62.4899 
G01 X-79.6218 Y62.4850 
G01 X-79.6324 Y62.4782 
G01 X-79.6603 Y62.4691 
G01 X-79.6644 Y62.4674 
G01 X-79.8138 Y62.3913 
G01 X-79.9513 Y62.2914 
G01 X-80.0714 Y62.1713 
G01 X-80.1713 Y62.0338 
G01 X-80.2484 Y61.8824 
G01 X-80.2634 Y61.8363 
G01 X-80.2367 Y61.8363 
G01 X-80.2249 Y61.8726 
G01 X-80.1495 Y62.0205 
G01 X-80.0520 Y62.1547 
G01 X-79.9347 Y62.2720 
G01 X-79.8005 Y62.3695 
G01 X-79.6526 Y62.4449 
G01 X-79.4948 Y62.4961 
G01 X-79.3310 Y62.5221 
G01 X-79.1650 Y62.5221 
G01 X-79.0012 Y62.4961 
G01 X-78.8434 Y62.4449 
G01 X-78.6955 Y62.3695 
G01 X-78.5613 Y62.2720 
G01 X-78.4440 Y62.1547 
G01 X-78.3465 Y62.0205 
G01 X-78.2711 Y61.8726 
G01 X-78.2199 Y61.7148 
G01 X-78.1939 Y61.5510 
G01 X-78.1939 Y61.3850 
G01 X-78.2199 Y61.2212 
G01 X-78.2711 Y61.0634 
G01 X-78.3465 Y60.9155 
G01 X-78.4440 Y60.7813 
G01 X-78.5613 Y60.6640 
G01 X-78.6955 Y60.5665 
G01 X-78.8434 Y60.4911 
G01 X-78.8797 Y60.4793 
G01 X-78.8797 Y59.9167 
G01 X-78.8434 Y59.9049 
G01 X-78.6955 Y59.8295 
G01 X-78.5613 Y59.7320 
G01 X-78.4440 Y59.6147 
G01 X-78.3465 Y59.4805 
G01 X-78.2711 Y59.3326 
G01 X-78.2593 Y59.2963 
G01 X-78.1961 Y59.2963 
G01 X-78.1959 Y59.2991 
G01 X-78.1941 Y59.3042 
G01 X-78.1936 Y59.3096 
G01 X-78.1805 Y59.3437 
G01 X-78.1686 Y59.3781 
G01 X-78.1656 Y59.3826 
G01 X-78.1636 Y59.3877 
G01 X-78.1422 Y59.4172 
G01 X-78.1218 Y59.4473 
G01 X-78.1177 Y59.4509 
G01 X-78.1145 Y59.4553 
G01 X-78.0861 Y59.4782 
G01 X-78.0586 Y59.5021 
G01 X-78.0537 Y59.5045 
G01 X-78.0495 Y59.5079 
G01 X-78.0163 Y59.5227 
G01 X-77.9835 Y59.5387 
G01 X-77.9781 Y59.5397 
G01 X-77.9731 Y59.5419 
G01 X-77.9372 Y59.5476 
G01 X-77.9014 Y59.5545 
G01 X-77.8959 Y59.5541 
G01 X-77.8906 Y59.5550 
G01 X-77.8543 Y59.5512 
G01 X-77.8180 Y59.5486 
G01 X-77.8128 Y59.5468 
G01 X-77.8074 Y59.5463 
G01 X-77.7734 Y59.5332 
G01 X-77.7393 Y59.5214 
G01 X-77.7580 Y59.5499 
G01 X-77.7610 Y59.5591 
G01 X-77.7659 Y59.5674 
G01 X-77.7742 Y59.5986 
G01 X-77.7844 Y59.6292 
G01 X-77.7850 Y59.6389 
G01 X-77.7875 Y59.6482 
G01 X-77.7875 Y59.6805 
G01 X-77.7894 Y59.7127 
G01 X-77.7875 Y59.7222 
G01 X-77.7875 Y62.1075 
G01 X-77.7963 Y62.0922 
G01 X-77.8065 Y62.0692 
G01 X-77.8171 Y62.0562 
G01 X-77.8255 Y62.0416 
G01 X-77.8433 Y62.0238 
G01 X-77.8592 Y62.0043 
G01 X-77.8728 Y61.9944 
G01 X-77.8846 Y61.9825 
G01 X-77.9064 Y61.9699 
G01 X-77.9268 Y61.9551 
G01 X-77.9425 Y61.9491 
G01 X-77.9570 Y61.9407 
G01 X-77.9814 Y61.9342 
G01 X-78.0048 Y61.9252 
G01 X-78.0216 Y61.9234 
G01 X-78.0378 Y61.9190 
G01 X-78.0630 Y61.9190 
G01 X-78.0880 Y61.9164 
G01 X-78.1046 Y61.9190 
G01 X-78.1214 Y61.9190 
G01 X-78.1457 Y61.9256 
G01 X-78.1705 Y61.9295 
G01 X-78.1859 Y61.9363 
G01 X-78.2021 Y61.9407 
G01 X-78.2239 Y61.9533 
G01 X-78.2469 Y61.9635 
G01 X-78.2600 Y61.9741 
G01 X-78.2745 Y61.9825 
G01 X-78.2923 Y62.0003 
G01 X-78.3119 Y62.0161 
G01 X-78.3218 Y62.0297 
G01 X-78.3337 Y62.0416 
G01 X-78.3462 Y62.0634 
G01 X-78.4246 Y62.1712 
G01 X-78.5447 Y62.2914 
G01 X-78.6822 Y62.3913 
G01 X-78.8316 Y62.4674 
G01 X-78.8357 Y62.4691 
G01 X-78.8636 Y62.4782 
G01 X-78.8742 Y62.4850 
G01 X-78.8859 Y62.4899 
G01 X-78.9092 Y62.5077 
G01 X-78.9337 Y62.5237 
G01 X-78.9422 Y62.5331 
G01 X-78.9522 Y62.5408 
G01 X-78.9701 Y62.5640 
G01 X-78.9897 Y62.5858 
G01 X-78.9954 Y62.5971 
G01 X-79.0031 Y62.6071 
G01 X-79.0143 Y62.6342 
G01 X-79.0276 Y62.6603 
G01 X-79.0302 Y62.6726 
G01 X-79.0351 Y62.6843 
G01 X-79.0389 Y62.7134 
G01 X-79.0450 Y62.7421 
G01 X-79.0443 Y62.7547 
G01 X-79.0460 Y62.7672 
G01 X-79.0422 Y62.7963 
G01 X-79.0406 Y62.8255 
G01 X-79.0367 Y62.8376 
G01 X-79.0351 Y62.8501 
G01 X-79.0239 Y62.8772 
G01 X-79.0148 Y62.9051 
G01 X-79.0079 Y62.9156 
G01 X-79.0031 Y62.9273 
G01 X-78.9852 Y62.9506 
G01 X-78.9693 Y62.9752 
G01 X-78.9599 Y62.9836 
G01 X-78.9522 Y62.9936 
G01 X-78.9474 Y62.9973 
G01 X-79.0012 Y62.9799 
G01 X-79.1650 Y62.9539 
G01 X-79.3310 Y62.9539 
G01 X-79.4948 Y62.9799 
G01 X-79.5486 Y62.9973 
G00 Z2.5400 
G00 X-81.6632 Y63.0400 
G01 Z-0.1778 F254.00 
G01 X-81.6798 Y63.0272 F508.00 
G01 X-81.6946 Y63.0124 
G01 X-81.7128 Y63.0019 
G01 X-81.7295 Y62.9891 
G01 X-81.7489 Y62.9811 
G01 X-81.7670 Y62.9706 
