(.../Tools/pcb/gcode/pcb-gcode.ulp)
(Copyright 2005 - 2012 by John Johnson)
(See readme.txt for licensing terms.)
(This file generated from the board:)
(.../LagoVista.EaglePCB.Tests/picopter_tx.brd)
(Current profile is .../pcb/gcode/profiles/generic.pp  )
(This file generated 4/7/2017 14:08)
(Settings from pcb-machine.h)
(spindle on time = 3.0000)
(  Tool Size)
(0.0070 )
(spindle speed = 30000.0000)
(tool change at 0.0000 0.0000 1.0000 )
(feed rate xy = F20.00 )
(feed rate z  = F10.00 )
(Z Axis Settings)
(  High     Up        Down     Drill)
(0.5000 	0.1000 	-0.0070 	-0.0320 )
(Settings from pcb-defaults.h)
(isolate min = 0.0010)
(isolate max = 0.0200)
(isolate step = 0.0050)
(Generated top outlines, top drill, bottom outlines, bottom drill, )
(Unit of measure: inch)
(Inch Mode)
G20
(Absolute Coordinates)
G90
S30000
G00 Z0.5000 
G00 X0.0000 Y0.0000 
M03
G04 P3.000000
G00 Z0.1000 
G00 X0.0033 Y0.2073 
G01 Z-0.0070 F10.00 
G01 X0.0026 Y0.2082 F20.00 
G01 X0.0018 Y0.2090 
G01 X0.0016 Y0.2095 
G01 X0.0012 Y0.2099 
G01 X0.0009 Y0.2110 
G01 X0.0005 Y0.2121 
G01 X0.0005 Y0.2127 
G01 X0.0004 Y0.2132 
G01 X0.0005 Y0.2143 
G01 X0.0005 Y0.5784 
G01 X0.0005 Y0.5801 
G01 X0.0005 Y0.5817 
G01 X0.0014 Y0.5838 
G01 X0.0018 Y0.5849 
G01 X0.0030 Y0.5861 
G01 X0.0042 Y0.5872 
G01 X0.0058 Y0.5879 
G01 X0.0073 Y0.5885 
G01 X0.0090 Y0.5885 
G01 X0.0103 Y0.5885 
G01 X0.0103 Y0.6406 
G01 X0.0090 Y0.6406 
G01 X0.0073 Y0.6406 
G01 X0.0058 Y0.6412 
G01 X0.0042 Y0.6419 
G01 X0.0030 Y0.6431 
G01 X0.0018 Y0.6443 
G01 X0.0014 Y0.6453 
G01 X0.0005 Y0.6474 
G01 X0.0005 Y0.6491 
G01 X0.0005 Y0.6508 
G01 X0.0005 Y2.5357 
G01 X0.0004 Y2.5368 
G01 X0.0005 Y2.5373 
G01 X0.0005 Y2.5379 
G01 X0.0009 Y2.5390 
G01 X0.0012 Y2.5401 
G01 X0.0016 Y2.5405 
G01 X0.0018 Y2.5410 
G01 X0.0026 Y2.5418 
G01 X0.0033 Y2.5427 
G01 X0.0038 Y2.5430 
G01 X0.0042 Y2.5434 
G01 X0.0052 Y2.5439 
G01 X0.0062 Y2.5444 
G01 X0.0068 Y2.5445 
G01 X0.0073 Y2.5447 
G01 X0.0084 Y2.5447 
G01 X0.0096 Y2.5449 
G01 X0.0101 Y2.5447 
G01 X0.0107 Y2.5447 
G01 X0.0117 Y2.5443 
G01 X0.0128 Y2.5440 
G01 X0.0133 Y2.5436 
G01 X0.0138 Y2.5434 
G01 X0.0146 Y2.5426 
G01 X0.0155 Y2.5419 
G01 X0.0158 Y2.5414 
G01 X0.0162 Y2.5410 
G01 X0.0166 Y2.5400 
G01 X0.0336 Y2.5107 
G01 X0.0607 Y2.4836 
G01 X0.0938 Y2.4644 
G01 X0.1308 Y2.4545 
G01 X0.1692 Y2.4545 
G01 X0.2023 Y2.4634 
G01 X0.2033 Y2.4638 
G01 X0.2039 Y2.4638 
G01 X0.2045 Y2.4640 
G01 X0.2056 Y2.4638 
G01 X0.2067 Y2.4638 
G01 X0.2073 Y2.4636 
G01 X0.2078 Y2.4635 
G01 X0.2088 Y2.4630 
G01 X0.2098 Y2.4625 
G01 X0.2103 Y2.4621 
G01 X0.2107 Y2.4618 
G01 X0.2114 Y2.4609 
G01 X0.2122 Y2.4601 
G01 X0.2125 Y2.4596 
G01 X0.2128 Y2.4591 
G01 X0.2131 Y2.4581 
G01 X0.2135 Y2.4570 
G01 X0.2135 Y2.4564 
G01 X0.2137 Y2.4559 
G01 X0.2135 Y2.4548 
G01 X0.2135 Y2.4545 
G01 X0.2141 Y2.4548 
G01 X0.2210 Y2.4584 
G01 X0.2231 Y2.4590 
G01 X0.2228 Y2.4593 
G01 X0.2223 Y2.4595 
G01 X0.2215 Y2.4603 
G01 X0.2206 Y2.4610 
G01 X0.2203 Y2.4615 
G01 X0.2199 Y2.4619 
G01 X0.2194 Y2.4629 
G01 X0.2189 Y2.4639 
G01 X0.2188 Y2.4645 
G01 X0.2186 Y2.4650 
G01 X0.2186 Y2.4661 
G01 X0.2184 Y2.4673 
G01 X0.2186 Y2.4678 
G01 X0.2186 Y2.4684 
G01 X0.2190 Y2.4694 
G01 X0.2193 Y2.4705 
G01 X0.2197 Y2.4710 
G01 X0.2199 Y2.4715 
G01 X0.2207 Y2.4723 
G01 X0.2214 Y2.4732 
G01 X0.2219 Y2.4735 
G01 X0.2223 Y2.4739 
G01 X0.2233 Y2.4743 
G01 X0.2393 Y2.4836 
G01 X0.2664 Y2.5107 
G01 X0.2856 Y2.5438 
G01 X0.2955 Y2.5808 
G01 X0.2955 Y2.6192 
G01 X0.2856 Y2.6562 
G01 X0.2664 Y2.6893 
G01 X0.2393 Y2.7164 
G01 X0.2100 Y2.7334 
G01 X0.2090 Y2.7338 
G01 X0.2086 Y2.7342 
G01 X0.2081 Y2.7345 
G01 X0.2074 Y2.7354 
G01 X0.2066 Y2.7362 
G01 X0.2064 Y2.7367 
G01 X0.2060 Y2.7372 
G01 X0.2057 Y2.7383 
G01 X0.2053 Y2.7393 
G01 X0.2053 Y2.7399 
G01 X0.2051 Y2.7404 
G01 X0.2053 Y2.7416 
G01 X0.2053 Y2.7427 
G01 X0.2055 Y2.7432 
G01 X0.2056 Y2.7438 
G01 X0.2061 Y2.7448 
G01 X0.2066 Y2.7458 
G01 X0.2070 Y2.7462 
G01 X0.2073 Y2.7467 
G01 X0.2082 Y2.7474 
G01 X0.2090 Y2.7482 
G01 X0.2095 Y2.7484 
G01 X0.2099 Y2.7488 
G01 X0.2110 Y2.7491 
G01 X0.2121 Y2.7495 
G01 X0.2127 Y2.7495 
G01 X0.2132 Y2.7496 
G01 X0.2143 Y2.7495 
G01 X2.7857 Y2.7495 
G01 X2.7868 Y2.7496 
G01 X2.7873 Y2.7495 
G01 X2.7879 Y2.7495 
G01 X2.7890 Y2.7491 
G01 X2.7901 Y2.7488 
G01 X2.7905 Y2.7484 
G01 X2.7910 Y2.7482 
G01 X2.7918 Y2.7474 
G01 X2.7927 Y2.7467 
G01 X2.7930 Y2.7462 
G01 X2.7934 Y2.7458 
G01 X2.7939 Y2.7448 
G01 X2.7944 Y2.7438 
G01 X2.7945 Y2.7432 
G01 X2.7947 Y2.7427 
G01 X2.7947 Y2.7416 
G01 X2.7949 Y2.7404 
G01 X2.7947 Y2.7399 
G01 X2.7947 Y2.7393 
G01 X2.7943 Y2.7383 
G01 X2.7940 Y2.7372 
G01 X2.7936 Y2.7367 
G01 X2.7934 Y2.7362 
G01 X2.7926 Y2.7354 
G01 X2.7919 Y2.7345 
G01 X2.7914 Y2.7342 
G01 X2.7910 Y2.7338 
G01 X2.7900 Y2.7334 
G01 X2.7607 Y2.7164 
G01 X2.7336 Y2.6893 
G01 X2.7144 Y2.6562 
G01 X2.7045 Y2.6192 
G01 X2.7045 Y2.5808 
G01 X2.7144 Y2.5438 
G01 X2.7336 Y2.5107 
G01 X2.7607 Y2.4836 
G01 X2.7938 Y2.4644 
G01 X2.8308 Y2.4545 
G01 X2.8692 Y2.4545 
G01 X2.9062 Y2.4644 
G01 X2.9393 Y2.4836 
G01 X2.9664 Y2.5107 
G01 X2.9834 Y2.5400 
G01 X2.9838 Y2.5410 
G01 X2.9842 Y2.5414 
G01 X2.9845 Y2.5419 
G01 X2.9854 Y2.5426 
G01 X2.9862 Y2.5434 
G01 X2.9867 Y2.5436 
G01 X2.9872 Y2.5440 
G01 X2.9883 Y2.5443 
G01 X2.9893 Y2.5447 
G01 X2.9899 Y2.5447 
G01 X2.9904 Y2.5449 
G01 X2.9916 Y2.5447 
G01 X2.9927 Y2.5447 
G01 X2.9932 Y2.5445 
G01 X2.9938 Y2.5444 
G01 X2.9948 Y2.5439 
G01 X2.9958 Y2.5434 
G01 X2.9962 Y2.5430 
G01 X2.9967 Y2.5427 
G01 X2.9974 Y2.5418 
G01 X2.9982 Y2.5410 
G01 X2.9984 Y2.5405 
G01 X2.9988 Y2.5401 
G01 X2.9991 Y2.5390 
G01 X2.9995 Y2.5379 
G01 X2.9995 Y2.5373 
G01 X2.9996 Y2.5368 
G01 X2.9995 Y2.5357 
G01 X2.9995 Y0.9634 
G01 X2.9995 Y0.9617 
G01 X2.9995 Y0.9600 
G01 X2.9989 Y0.9586 
G01 X2.9982 Y0.9569 
G01 X2.9970 Y0.9557 
G01 X2.9958 Y0.9545 
G01 X2.9937 Y0.9536 
G01 X2.9927 Y0.9532 
G01 X2.9910 Y0.9532 
G01 X2.9895 Y0.9532 
G01 X2.9895 Y0.9375 
G01 X2.9927 Y0.9375 
G01 X2.9958 Y0.9362 
G01 X2.9982 Y0.9338 
G01 X2.9995 Y0.9307 
G01 X2.9995 Y0.9193 
G01 X2.9982 Y0.9162 
G01 X2.9958 Y0.9138 
G01 X2.9927 Y0.9125 
G01 X2.9895 Y0.9125 
G01 X2.9895 Y0.8968 
G01 X2.9910 Y0.8968 
G01 X2.9927 Y0.8968 
G01 X2.9937 Y0.8963 
G01 X2.9958 Y0.8955 
G01 X2.9970 Y0.8943 
G01 X2.9982 Y0.8931 
G01 X2.9989 Y0.8913 
G01 X2.9995 Y0.8900 
G01 X2.9995 Y0.8883 
G01 X2.9995 Y0.8866 
G01 X2.9995 Y0.8615 
G01 X2.9984 Y0.8587 
G01 X2.9982 Y0.8583 
G01 X2.9970 Y0.8571 
G01 X2.9958 Y0.8559 
G01 X2.9952 Y0.8557 
G01 X2.9927 Y0.8546 
G01 X2.9895 Y0.8546 
G01 X2.9895 Y0.7954 
G01 X2.9927 Y0.7954 
G01 X2.9953 Y0.7943 
G01 X2.9958 Y0.7941 
G01 X2.9970 Y0.7929 
G01 X2.9982 Y0.7917 
G01 X2.9984 Y0.7913 
G01 X2.9995 Y0.7885 
G01 X2.9995 Y0.7634 
G01 X2.9995 Y0.7617 
G01 X2.9995 Y0.7600 
G01 X2.9989 Y0.7586 
G01 X2.9982 Y0.7569 
G01 X2.9970 Y0.7557 
G01 X2.9958 Y0.7545 
G01 X2.9937 Y0.7536 
G01 X2.9927 Y0.7532 
G01 X2.9910 Y0.7532 
G01 X2.9895 Y0.7532 
G01 X2.9895 Y0.7375 
G01 X2.9927 Y0.7375 
G01 X2.9958 Y0.7362 
G01 X2.9982 Y0.7338 
G01 X2.9995 Y0.7307 
G01 X2.9995 Y0.7193 
G01 X2.9982 Y0.7162 
G01 X2.9958 Y0.7138 
G01 X2.9927 Y0.7125 
G01 X2.9895 Y0.7125 
G01 X2.9895 Y0.6968 
G01 X2.9910 Y0.6968 
G01 X2.9927 Y0.6968 
G01 X2.9937 Y0.6963 
G01 X2.9958 Y0.6955 
G01 X2.9970 Y0.6943 
G01 X2.9982 Y0.6931 
G01 X2.9989 Y0.6913 
G01 X2.9995 Y0.6900 
G01 X2.9995 Y0.6883 
G01 X2.9995 Y0.6866 
G01 X2.9995 Y0.3625 
G01 X2.9995 Y0.3608 
G01 X2.9989 Y0.3592 
G01 X2.9982 Y0.3577 
G01 X2.9970 Y0.3565 
G01 X2.9958 Y0.3553 
G01 X2.9943 Y0.3546 
G01 X2.9927 Y0.3540 
G01 X2.9910 Y0.3540 
G01 X2.4310 Y0.3525 
G01 X2.4331 Y0.3504 
G01 X2.4345 Y0.3469 
G01 X2.4345 Y0.1281 
G01 X2.4331 Y0.1246 
G01 X2.4304 Y0.1219 
G01 X2.4269 Y0.1205 
G01 X2.3631 Y0.1205 
G01 X2.3596 Y0.1219 
G01 X2.3569 Y0.1246 
G01 X2.3555 Y0.1281 
G01 X2.3555 Y0.3469 
G01 X2.3569 Y0.3504 
G01 X2.3588 Y0.3523 
G01 X2.2635 Y0.3520 
G01 X2.2635 Y0.2048 
G01 X2.2625 Y0.2025 
G01 X2.2635 Y0.2002 
G01 X2.2635 Y0.0823 
G01 X2.2622 Y0.0792 
G01 X2.2598 Y0.0768 
G01 X2.2567 Y0.0755 
G01 X2.1923 Y0.0755 
G01 X2.1892 Y0.0768 
G01 X2.1868 Y0.0792 
G01 X2.1855 Y0.0823 
G01 X2.1855 Y0.2002 
G01 X2.1865 Y0.2025 
G01 X2.1855 Y0.2048 
G01 X2.1855 Y0.3502 
G01 X2.1848 Y0.3509 
G01 X2.1827 Y0.3518 
G01 X2.0717 Y0.3515 
G01 X2.0707 Y0.3511 
G01 X2.0692 Y0.3505 
G01 X2.0691 Y0.3505 
G01 X2.0674 Y0.3505 
G01 X2.0648 Y0.3505 
G01 X2.0645 Y0.3502 
G01 X2.0645 Y0.2335 
G01 X2.0646 Y0.2330 
G01 X2.0645 Y0.2318 
G01 X2.0645 Y0.2307 
G01 X2.0643 Y0.2302 
G01 X2.0642 Y0.2297 
G01 X2.0637 Y0.2286 
G01 X2.0632 Y0.2275 
G01 X2.0628 Y0.2272 
G01 X2.0204 Y0.1518 
G01 X2.0200 Y0.1507 
G01 X2.0196 Y0.1503 
G01 X2.0195 Y0.1501 
G01 X2.0195 Y0.1499 
G01 X2.0196 Y0.1497 
G01 X2.0197 Y0.1496 
G01 X2.0199 Y0.1495 
G01 X2.0201 Y0.1495 
G01 X2.0206 Y0.1496 
G01 X2.0217 Y0.1495 
G01 X2.0577 Y0.1495 
G01 X2.0608 Y0.1482 
G01 X2.0632 Y0.1458 
G01 X2.0645 Y0.1427 
G01 X2.0645 Y0.0073 
G01 X2.0632 Y0.0042 
G01 X2.0608 Y0.0018 
G01 X2.0577 Y0.0005 
G01 X0.2143 Y0.0005 
G01 X0.2132 Y0.0004 
G01 X0.2127 Y0.0005 
G01 X0.2121 Y0.0005 
G01 X0.2110 Y0.0009 
G01 X0.2099 Y0.0012 
G01 X0.2095 Y0.0016 
G01 X0.2090 Y0.0018 
G01 X0.2082 Y0.0026 
G01 X0.2073 Y0.0033 
G01 X0.2070 Y0.0038 
G01 X0.2066 Y0.0042 
G01 X0.2061 Y0.0052 
G01 X0.2056 Y0.0062 
G01 X0.2055 Y0.0068 
G01 X0.2053 Y0.0073 
G01 X0.2053 Y0.0084 
G01 X0.2051 Y0.0096 
G01 X0.2053 Y0.0101 
G01 X0.2053 Y0.0107 
G01 X0.2057 Y0.0117 
G01 X0.2060 Y0.0128 
G01 X0.2064 Y0.0133 
G01 X0.2066 Y0.0138 
G01 X0.2074 Y0.0146 
G01 X0.2081 Y0.0155 
G01 X0.2086 Y0.0158 
G01 X0.2090 Y0.0162 
G01 X0.2100 Y0.0166 
G01 X0.2393 Y0.0336 
G01 X0.2664 Y0.0607 
G01 X0.2856 Y0.0938 
G01 X0.2955 Y0.1308 
G01 X0.2955 Y0.1692 
G01 X0.2856 Y0.2062 
G01 X0.2664 Y0.2393 
G01 X0.2393 Y0.2664 
G01 X0.2062 Y0.2856 
G01 X0.1692 Y0.2955 
G01 X0.1308 Y0.2955 
G01 X0.0938 Y0.2856 
G01 X0.0607 Y0.2664 
G01 X0.0336 Y0.2393 
G01 X0.0166 Y0.2100 
G01 X0.0162 Y0.2090 
G01 X0.0158 Y0.2086 
G01 X0.0155 Y0.2081 
G01 X0.0146 Y0.2074 
G01 X0.0138 Y0.2066 
G01 X0.0133 Y0.2064 
G01 X0.0128 Y0.2060 
G01 X0.0117 Y0.2057 
G01 X0.0107 Y0.2053 
G01 X0.0101 Y0.2053 
G01 X0.0096 Y0.2051 
G01 X0.0084 Y0.2053 
G01 X0.0073 Y0.2053 
G01 X0.0068 Y0.2055 
G01 X0.0062 Y0.2056 
G01 X0.0052 Y0.2061 
G01 X0.0042 Y0.2066 
G01 X0.0038 Y0.2070 
G01 X0.0033 Y0.2073 
G00 Z0.1000 
G00 X0.0847 Y0.4323 
G01 Z-0.0070 F10.00 
G01 X0.0853 Y0.4324 F20.00 
G01 X0.0861 Y0.4322 
G01 X0.0870 Y0.4322 
G01 X0.0878 Y0.4319 
G01 X0.0874 Y0.4331 
G01 X0.0864 Y0.4378 
G01 X0.0864 Y0.4822 
G01 X0.0874 Y0.4869 
G01 X0.0879 Y0.4881 
G01 X0.0870 Y0.4878 
G01 X0.0861 Y0.4878 
G01 X0.0853 Y0.4876 
G01 X0.0847 Y0.4877 
G01 X0.0850 Y0.4869 
G01 X0.0859 Y0.4822 
G01 X0.0859 Y0.4378 
G01 X0.0850 Y0.4331 
G01 X0.0847 Y0.4323 
G00 Z0.1000 
G00 X0.1333 Y0.4309 
G01 Z-0.0070 F10.00 
G01 X0.1336 Y0.4310 F20.00 
G01 X0.1371 Y0.4311 
G01 X0.1375 Y0.4309 
G01 X0.1366 Y0.4331 
G01 X0.1357 Y0.4378 
G01 X0.1357 Y0.4822 
G01 X0.1366 Y0.4869 
G01 X0.1375 Y0.4891 
G01 X0.1371 Y0.4889 
G01 X0.1337 Y0.4889 
G01 X0.1333 Y0.4891 
G01 X0.1342 Y0.4869 
G01 X0.1351 Y0.4822 
G01 X0.1351 Y0.4378 
G01 X0.1342 Y0.4331 
G01 X0.1333 Y0.4309 
G00 Z0.1000 
G00 X0.1825 Y0.4309 
G01 Z-0.0070 F10.00 
G01 X0.1828 Y0.4310 F20.00 
G01 X0.1863 Y0.4311 
G01 X0.1867 Y0.4309 
G01 X0.1858 Y0.4331 
G01 X0.1849 Y0.4378 
G01 X0.1849 Y0.4822 
G01 X0.1858 Y0.4869 
G01 X0.1867 Y0.4891 
G01 X0.1863 Y0.4889 
G01 X0.1829 Y0.4889 
G01 X0.1825 Y0.4891 
G01 X0.1834 Y0.4869 
G01 X0.1843 Y0.4822 
G01 X0.1843 Y0.4378 
G01 X0.1834 Y0.4331 
G01 X0.1825 Y0.4309 
G00 Z0.1000 
G00 X0.2317 Y0.4309 
G01 Z-0.0070 F10.00 
G01 X0.2320 Y0.4310 F20.00 
G01 X0.2355 Y0.4311 
G01 X0.2359 Y0.4309 
G01 X0.2350 Y0.4331 
G01 X0.2341 Y0.4378 
G01 X0.2341 Y0.4822 
G01 X0.2350 Y0.4869 
G01 X0.2359 Y0.4891 
G01 X0.2355 Y0.4889 
G01 X0.2321 Y0.4889 
G01 X0.2317 Y0.4891 
G01 X0.2326 Y0.4869 
G01 X0.2336 Y0.4822 
G01 X0.2336 Y0.4378 
G01 X0.2326 Y0.4331 
G01 X0.2317 Y0.4309 
G00 Z0.1000 
G00 X0.2828 Y0.4765 
G01 Z-0.0070 F10.00 
G01 X0.2858 Y0.4765 F20.00 
G01 X0.2873 Y0.4780 
G01 X0.2863 Y0.4780 
G01 X0.2832 Y0.4793 
G01 X0.2828 Y0.4797 
G01 X0.2828 Y0.4765 
G00 Z0.1000 
G00 X0.3794 Y0.5389 
G01 Z-0.0070 F10.00 
G01 X0.3795 Y0.5389 F20.00 
G00 Z0.1000 
G00 X0.4085 Y0.5389 
G01 Z-0.0070 F10.00 
G01 X0.4085 Y0.5389 F20.00 
G00 Z0.1000 
G00 X0.3637 Y0.5864 
G01 Z-0.0070 F10.00 
G01 X0.3633 Y0.5868 F20.00 
G01 X0.3623 Y0.5877 
G01 X0.3621 Y0.5880 
G01 X0.3619 Y0.5882 
G01 X0.3614 Y0.5895 
G01 X0.3608 Y0.5907 
G01 X0.3607 Y0.5910 
G01 X0.3606 Y0.5913 
G01 X0.3606 Y0.5923 
G01 X0.3477 Y0.5794 
G01 X0.3487 Y0.5794 
G01 X0.3518 Y0.5781 
G01 X0.3536 Y0.5763 
G01 X0.3537 Y0.5768 
G01 X0.3560 Y0.5807 
G01 X0.3593 Y0.5840 
G01 X0.3632 Y0.5863 
G01 X0.3637 Y0.5864 
G00 Z0.1000 
G00 X0.5310 Y0.5465 
G01 Z-0.0070 F10.00 
G01 X0.5317 Y0.5458 F20.00 
G01 X0.5319 Y0.5452 
G01 X0.5330 Y0.5427 
G01 X0.5330 Y0.5393 
G01 X0.5328 Y0.5389 
G01 X0.5648 Y0.5389 
G01 X0.5646 Y0.5393 
G01 X0.5646 Y0.5427 
G01 X0.5657 Y0.5453 
G01 X0.5659 Y0.5458 
G01 X0.5666 Y0.5465 
G01 X0.5310 Y0.5465 
G00 Z0.1000 
G00 X0.6885 Y0.5465 
G01 Z-0.0070 F10.00 
G01 X0.6892 Y0.5458 F20.00 
G01 X0.6894 Y0.5452 
G01 X0.6905 Y0.5427 
G01 X0.6905 Y0.5393 
G01 X0.6903 Y0.5389 
G01 X0.7223 Y0.5389 
G01 X0.7221 Y0.5393 
G01 X0.7221 Y0.5427 
G01 X0.7232 Y0.5453 
G01 X0.7234 Y0.5458 
G01 X0.7241 Y0.5465 
G01 X0.6885 Y0.5465 
G00 Z0.1000 
G00 X0.4488 Y0.4127 
G01 Z-0.0070 F10.00 
G01 X0.4482 Y0.4120 F20.00 
G01 X0.4451 Y0.4107 
G01 X0.4417 Y0.4107 
G01 X0.4425 Y0.4073 
G01 X0.4425 Y0.4027 
G01 X0.4424 Y0.4024 
G01 X0.4488 Y0.3960 
G01 X0.4488 Y0.4127 
G00 Z0.1000 
G00 X0.2350 Y0.8179 
G01 Z-0.0070 F10.00 
G01 X0.2361 Y0.8204 F20.00 
G01 X0.2367 Y0.8211 
G01 X0.1891 Y0.8211 
G01 X0.1882 Y0.8215 
G01 X0.1872 Y0.8190 
G01 X0.1865 Y0.8183 
G01 X0.2342 Y0.8183 
G01 X0.2350 Y0.8179 
G00 Z0.1000 
G00 X0.2361 Y0.8623 
G01 Z-0.0070 F10.00 
G01 X0.2350 Y0.8648 F20.00 
G01 X0.2342 Y0.8644 
G01 X0.1865 Y0.8644 
G01 X0.1872 Y0.8637 
G01 X0.1882 Y0.8612 
G01 X0.1891 Y0.8616 
G01 X0.2367 Y0.8616 
G01 X0.2361 Y0.8623 
G00 Z0.1000 
G00 X0.2378 Y0.8931 
G01 Z-0.0070 F10.00 
G01 X0.2675 Y0.8931 F20.00 
G01 X0.2675 Y0.8973 
G01 X0.2687 Y0.9018 
G01 X0.2710 Y0.9057 
G01 X0.2743 Y0.9090 
G01 X0.2782 Y0.9113 
G01 X0.2827 Y0.9125 
G01 X0.2873 Y0.9125 
G01 X0.2911 Y0.9115 
G01 X0.2911 Y0.9146 
G01 X0.2924 Y0.9178 
G01 X0.2931 Y0.9185 
G01 X0.2299 Y0.9185 
G01 X0.2299 Y0.9113 
G01 X0.2292 Y0.9097 
G01 X0.2279 Y0.9084 
G01 X0.2263 Y0.9077 
G01 X0.1707 Y0.9077 
G01 X0.1714 Y0.9070 
G01 X0.1724 Y0.9045 
G01 X0.1733 Y0.9049 
G01 X0.2342 Y0.9049 
G01 X0.2358 Y0.9042 
G01 X0.2371 Y0.9029 
G01 X0.2378 Y0.9013 
G01 X0.2378 Y0.8931 
G00 Z0.1000 
G00 X0.2299 Y0.9375 
G01 Z-0.0070 F10.00 
G01 X0.3340 Y0.9375 F20.00 
G01 X0.3333 Y0.9381 
G01 X0.3320 Y0.9412 
G01 X0.3320 Y0.9446 
G01 X0.3324 Y0.9457 
G01 X0.3298 Y0.9450 
G01 X0.3252 Y0.9450 
G01 X0.3207 Y0.9462 
G01 X0.3168 Y0.9485 
G01 X0.3135 Y0.9518 
G01 X0.3112 Y0.9557 
G01 X0.3100 Y0.9602 
G01 X0.3100 Y0.9628 
G01 X0.2378 Y0.9628 
G01 X0.2378 Y0.9546 
G01 X0.2371 Y0.9530 
G01 X0.2358 Y0.9517 
G01 X0.2342 Y0.9510 
G01 X0.1733 Y0.9510 
G01 X0.1724 Y0.9514 
G01 X0.1714 Y0.9489 
G01 X0.1707 Y0.9482 
G01 X0.2263 Y0.9482 
G01 X0.2279 Y0.9475 
G01 X0.2292 Y0.9462 
G01 X0.2299 Y0.9446 
G01 X0.2299 Y0.9375 
G00 Z0.1000 
G00 X0.2279 Y0.9915 
G01 Z-0.0070 F10.00 
G01 X0.2272 Y0.9922 F20.00 
G01 X0.2265 Y0.9938 
G01 X0.2263 Y0.9943 
G01 X0.1716 Y0.9943 
G01 X0.1722 Y0.9930 
G01 X0.1727 Y0.9916 
G01 X0.1727 Y0.9913 
G01 X0.1733 Y0.9915 
G01 X0.2279 Y0.9915 
G00 Z0.1000 
G00 X0.2263 Y1.0348 
G01 Z-0.0070 F10.00 
G01 X0.2271 Y1.0369 F20.00 
G01 X0.2279 Y1.0376 
G01 X0.1733 Y1.0376 
G01 X0.1727 Y1.0379 
G01 X0.1727 Y1.0375 
G01 X0.1722 Y1.0362 
G01 X0.1716 Y1.0348 
G01 X0.2263 Y1.0348 
G00 Z0.1000 
G00 X0.2330 Y1.0781 
G01 Z-0.0070 F10.00 
G01 X0.2330 Y1.0809 F20.00 
G01 X0.1745 Y1.0809 
G01 X0.1745 Y1.0781 
G01 X0.2330 Y1.0781 
G00 Z0.1000 
G00 X0.2243 Y1.4694 
G01 Z-0.0070 F10.00 
G01 X0.2243 Y1.4995 F20.00 
G01 X0.2250 Y1.5012 
G01 X0.2263 Y1.5024 
G01 X0.2279 Y1.5031 
G01 X0.2325 Y1.5031 
G01 X0.2325 Y1.5073 
G01 X0.2223 Y1.5175 
G01 X0.1902 Y1.5175 
G01 X0.1870 Y1.5184 
G01 X0.1866 Y1.5186 
G01 X0.1645 Y1.5186 
G01 X0.1645 Y1.5158 
G01 X0.2203 Y1.5158 
G01 X0.2219 Y1.5151 
G01 X0.2232 Y1.5138 
G01 X0.2239 Y1.5122 
G01 X0.2239 Y1.4966 
G01 X0.2232 Y1.4950 
G01 X0.2219 Y1.4937 
G01 X0.2203 Y1.4930 
G01 X0.1651 Y1.4930 
G01 X0.1652 Y1.4926 
G01 X0.1652 Y1.4909 
G01 X0.1652 Y1.4902 
G01 X0.2203 Y1.4902 
G01 X0.2219 Y1.4895 
G01 X0.2232 Y1.4883 
G01 X0.2239 Y1.4866 
G01 X0.2239 Y1.4710 
G01 X0.2235 Y1.4702 
G01 X0.2243 Y1.4694 
G00 Z0.1000 
G00 X0.2291 Y1.5425 
G01 Z-0.0070 F10.00 
G01 X0.2323 Y1.5416 F20.00 
G01 X0.2352 Y1.5400 
G01 X0.2369 Y1.5383 
G01 X0.2369 Y1.5393 
G01 X0.2382 Y1.5424 
G01 X0.2388 Y1.5431 
G01 X0.1902 Y1.5431 
G01 X0.1870 Y1.5439 
G01 X0.1866 Y1.5442 
G01 X0.1645 Y1.5442 
G01 X0.1645 Y1.5414 
G01 X0.1866 Y1.5414 
G01 X0.1870 Y1.5416 
G01 X0.1902 Y1.5425 
G01 X0.2291 Y1.5425 
G00 Z0.1000 
G00 X0.2229 Y1.5681 
G01 Z-0.0070 F10.00 
G01 X0.2222 Y1.5688 F20.00 
G01 X0.2215 Y1.5703 
G01 X0.2203 Y1.5698 
G01 X0.1971 Y1.5698 
G01 X0.1967 Y1.5695 
G01 X0.1935 Y1.5687 
G01 X0.1902 Y1.5687 
G01 X0.1870 Y1.5695 
G01 X0.1866 Y1.5698 
G01 X0.1645 Y1.5698 
G01 X0.1645 Y1.5670 
G01 X0.1866 Y1.5670 
G01 X0.1870 Y1.5672 
G01 X0.1902 Y1.5681 
G01 X0.2229 Y1.5681 
G00 Z0.1000 
G00 X0.7420 Y1.5730 
G01 Z-0.0070 F10.00 
G01 X0.7420 Y1.5625 F20.00 
G01 X0.7443 Y1.5625 
G01 X0.7443 Y1.5731 
G01 X0.7426 Y1.5730 
G01 X0.7420 Y1.5730 
G00 Z0.1000 
G00 X0.7420 Y1.5375 
G01 Z-0.0070 F10.00 
G01 X0.7420 Y1.5270 F20.00 
G01 X0.7426 Y1.5270 
G01 X0.7443 Y1.5270 
G01 X0.7443 Y1.5375 
G01 X0.7420 Y1.5375 
G00 Z0.1000 
G00 X0.7420 Y1.4980 
G01 Z-0.0070 F10.00 
G01 X0.7420 Y1.4875 F20.00 
G01 X0.7443 Y1.4875 
G01 X0.7443 Y1.4981 
G01 X0.7426 Y1.4980 
G01 X0.7420 Y1.4980 
G00 Z0.1000 
G00 X0.7420 Y1.4625 
G01 Z-0.0070 F10.00 
G01 X0.7420 Y1.4520 F20.00 
G01 X0.7426 Y1.4520 
G01 X0.7443 Y1.4520 
G01 X0.7443 Y1.4625 
G01 X0.7420 Y1.4625 
G00 Z0.1000 
G00 X0.8557 Y1.4891 
G01 Z-0.0070 F10.00 
G01 X0.8570 Y1.4904 F20.00 
G01 X0.8570 Y1.5021 
G01 X0.8563 Y1.5014 
G01 X0.8551 Y1.5009 
G01 X0.8557 Y1.4995 
G01 X0.8557 Y1.4891 
G00 Z0.1000 
G00 X0.8570 Y1.5229 
G01 Z-0.0070 F10.00 
G01 X0.8570 Y1.7914 F20.00 
G01 X0.8577 Y1.7941 
G01 X0.8591 Y1.7964 
G01 X0.8611 Y1.7984 
G01 X0.8632 Y1.7997 
G01 X0.8868 Y1.8275 
G01 X0.8869 Y1.8279 
G01 X0.8880 Y1.8289 
G01 X0.8890 Y1.8301 
G01 X0.8893 Y1.8303 
G01 X0.8896 Y1.8306 
G01 X0.8910 Y1.8311 
G01 X0.8923 Y1.8318 
G01 X0.8927 Y1.8318 
G01 X0.8931 Y1.8320 
G01 X0.8946 Y1.8320 
G01 X0.8961 Y1.8321 
G01 X0.8965 Y1.8320 
G01 X1.4473 Y1.8320 
G01 X1.4490 Y1.8321 
G01 X1.4492 Y1.8320 
G01 X1.4494 Y1.8320 
G01 X1.4510 Y1.8314 
G01 X1.4525 Y1.8308 
G01 X1.4527 Y1.8306 
G01 X1.4529 Y1.8306 
G01 X1.4541 Y1.8294 
G01 X1.5152 Y1.7731 
G01 X1.5154 Y1.7731 
G01 X1.5166 Y1.7719 
G01 X1.5178 Y1.7707 
G01 X1.5179 Y1.7705 
G01 X1.5181 Y1.7704 
G01 X1.5187 Y1.7688 
G01 X1.5194 Y1.7673 
G01 X1.5194 Y1.7671 
G01 X1.5195 Y1.7669 
G01 X1.5195 Y1.7652 
G01 X1.5196 Y1.7635 
G01 X1.5195 Y1.7633 
G01 X1.5195 Y1.2496 
G01 X1.5193 Y1.2491 
G01 X1.5193 Y1.2211 
G01 X1.5201 Y1.2211 
G01 X1.5201 Y1.2493 
G01 X1.5200 Y1.2495 
G01 X1.5200 Y1.7715 
G01 X1.4561 Y1.8355 
G01 X0.8889 Y1.8355 
G01 X0.8445 Y1.7911 
G01 X0.8445 Y1.7422 
G01 X0.8457 Y1.7415 
G01 X0.8490 Y1.7382 
G01 X0.8513 Y1.7343 
G01 X0.8525 Y1.7298 
G01 X0.8525 Y1.7252 
G01 X0.8513 Y1.7207 
G01 X0.8490 Y1.7168 
G01 X0.8457 Y1.7135 
G01 X0.8445 Y1.7128 
G01 X0.8445 Y1.5781 
G01 X0.8521 Y1.5781 
G01 X0.8537 Y1.5774 
G01 X0.8550 Y1.5762 
G01 X0.8557 Y1.5745 
G01 X0.8557 Y1.5255 
G01 X0.8551 Y1.5241 
G01 X0.8563 Y1.5236 
G01 X0.8570 Y1.5229 
G00 Z0.1000 
G00 X0.8600 Y1.8335 
G01 Z-0.0070 F10.00 
G01 X0.8796 Y1.8531 F20.00 
G01 X0.8821 Y1.8541 
G01 X0.8809 Y1.8552 
G01 X0.8798 Y1.8580 
G01 X0.8778 Y1.8553 
G01 X0.8722 Y1.8497 
G01 X0.8659 Y1.8452 
G01 X0.8590 Y1.8416 
G01 X0.8552 Y1.8404 
G01 X0.8563 Y1.8400 
G01 X0.8576 Y1.8387 
G01 X0.8587 Y1.8376 
G01 X0.8593 Y1.8362 
G01 X0.8600 Y1.8344 
G01 X0.8600 Y1.8335 
G00 Z0.1000 
G00 X0.9263 Y2.0055 
G01 Z-0.0070 F10.00 
G01 X0.9537 Y2.0055 F20.00 
G01 X0.9536 Y2.0056 
G01 X0.9534 Y2.0059 
G01 X0.9532 Y2.0062 
G01 X0.9527 Y2.0074 
G01 X0.9520 Y2.0086 
G01 X0.9520 Y2.0090 
G01 X0.9519 Y2.0093 
G01 X0.9519 Y2.0107 
G01 X0.9518 Y2.0120 
G01 X0.9518 Y2.0121 
G01 X0.9515 Y2.0120 
G01 X0.9439 Y2.0105 
G01 X0.9361 Y2.0105 
G01 X0.9285 Y2.0120 
G01 X0.9282 Y2.0121 
G01 X0.9282 Y2.0120 
G01 X0.9281 Y2.0107 
G01 X0.9281 Y2.0093 
G01 X0.9280 Y2.0090 
G01 X0.9280 Y2.0086 
G01 X0.9273 Y2.0074 
G01 X0.9268 Y2.0062 
G01 X0.9266 Y2.0059 
G01 X0.9264 Y2.0056 
G01 X0.9263 Y2.0055 
G00 Z0.1000 
G00 X1.1493 Y2.1876 
G01 Z-0.0070 F10.00 
G01 X1.1500 Y2.1876 F20.00 
G01 X1.1500 Y2.1881 
G01 X1.1493 Y2.1876 
G00 Z0.1000 
G00 X1.1496 Y2.2172 
G01 Z-0.0070 F10.00 
G01 X1.1501 Y2.2169 F20.00 
G01 X1.1502 Y2.2174 
G01 X1.1496 Y2.2172 
G00 Z0.1000 
G00 X1.2885 Y2.3414 
G01 Z-0.0070 F10.00 
G01 X1.2901 Y2.3420 F20.00 
G01 X1.2913 Y2.3425 
G01 X1.2934 Y2.3425 
G01 X1.2934 Y2.3427 
G01 X1.2925 Y2.3459 
G01 X1.2925 Y2.3907 
G01 X1.2746 Y2.4134 
G01 X1.2744 Y2.4130 
G01 X1.2744 Y2.4125 
G01 X1.2738 Y2.4115 
G01 X1.2733 Y2.4104 
G01 X1.2730 Y2.4100 
G01 X1.2727 Y2.4096 
G01 X1.2718 Y2.4088 
G01 X1.2711 Y2.4081 
G01 X1.2760 Y2.4048 
G01 X1.2808 Y2.4000 
G01 X1.2846 Y2.3943 
G01 X1.2872 Y2.3881 
G01 X1.2885 Y2.3814 
G01 X1.2885 Y2.3414 
G00 Z0.1000 
G00 X1.2708 Y2.4546 
G01 Z-0.0070 F10.00 
G01 X1.2706 Y2.4552 F20.00 
G01 X1.2706 Y2.4557 
G01 X1.2705 Y2.4562 
G01 X1.2706 Y2.4573 
G01 X1.2706 Y2.4585 
G01 X1.2708 Y2.4590 
G01 X1.2709 Y2.4595 
G01 X1.2714 Y2.4606 
G01 X1.2719 Y2.4617 
G01 X1.2723 Y2.4620 
G01 X1.2724 Y2.4624 
G01 X1.2515 Y2.4624 
G01 X1.2516 Y2.4622 
G01 X1.2516 Y2.4588 
G01 X1.2505 Y2.4562 
G01 X1.2503 Y2.4557 
G01 X1.2496 Y2.4550 
G01 X1.2666 Y2.4550 
G01 X1.2673 Y2.4551 
G01 X1.2682 Y2.4550 
G01 X1.2691 Y2.4550 
G01 X1.2699 Y2.4548 
G01 X1.2706 Y2.4547 
G01 X1.2708 Y2.4546 
G00 Z0.1000 
G00 X1.3570 Y2.5333 
G01 Z-0.0070 F10.00 
G01 X1.3570 Y2.5333 F20.00 
G00 Z0.1000 
G00 X1.8532 Y2.6399 
G01 Z-0.0070 F10.00 
G01 X1.8545 Y2.6404 F20.00 
G01 X1.8562 Y2.6404 
G01 X1.8579 Y2.6404 
G01 X1.8588 Y2.6401 
G01 X1.8575 Y2.6431 
G01 X1.8563 Y2.6493 
G01 X1.8563 Y2.6557 
G01 X1.8575 Y2.6619 
G01 X1.8588 Y2.6649 
G01 X1.8579 Y2.6646 
G01 X1.8568 Y2.6646 
G01 X1.8545 Y2.6646 
G01 X1.8532 Y2.6651 
G01 X1.8535 Y2.6639 
G01 X1.8547 Y2.6563 
G01 X1.8547 Y2.6487 
G01 X1.8535 Y2.6411 
G01 X1.8532 Y2.6399 
G00 Z0.1000 
G00 X2.0762 Y2.6401 
G01 Z-0.0070 F10.00 
G01 X2.0771 Y2.6404 F20.00 
G01 X2.0788 Y2.6404 
G01 X2.0805 Y2.6404 
G01 X2.0818 Y2.6399 
G01 X2.0815 Y2.6411 
G01 X2.0802 Y2.6487 
G01 X2.0802 Y2.6563 
G01 X2.0815 Y2.6639 
G01 X2.0818 Y2.6651 
G01 X2.0805 Y2.6646 
G01 X2.0788 Y2.6646 
G01 X2.0771 Y2.6646 
G01 X2.0762 Y2.6649 
G01 X2.0775 Y2.6619 
G01 X2.0787 Y2.6557 
G01 X2.0787 Y2.6493 
G01 X2.0775 Y2.6431 
G01 X2.0762 Y2.6401 
G00 Z0.1000 
G00 X1.9307 Y2.0448 
G01 Z-0.0070 F10.00 
G01 X1.9298 Y2.0439 F20.00 
G01 X1.9268 Y2.0426 
G01 X1.9257 Y2.0426 
G01 X1.9515 Y2.0168 
G01 X1.9515 Y2.0223 
G01 X1.9477 Y2.0239 
G01 X1.9420 Y2.0277 
G01 X1.9372 Y2.0325 
G01 X1.9334 Y2.0382 
G01 X1.9308 Y2.0444 
G01 X1.9307 Y2.0448 
G00 Z0.1000 
G00 X1.7528 Y2.0444 
G01 Z-0.0070 F10.00 
G01 X1.7515 Y2.0511 F20.00 
G01 X1.7515 Y2.1179 
G01 X1.7528 Y2.1246 
G01 X1.7519 Y2.1242 
G01 X1.7486 Y2.1242 
G01 X1.7473 Y2.1247 
G01 X1.7475 Y2.1241 
G01 X1.7475 Y2.0124 
G01 X1.8136 Y1.9404 
G01 X1.8137 Y1.9414 
G01 X1.8144 Y1.9429 
G01 X1.8151 Y1.9444 
G01 X1.8164 Y1.9456 
G01 X1.8176 Y1.9467 
G01 X1.8192 Y1.9473 
G01 X1.8205 Y1.9478 
G01 X1.8199 Y1.9482 
G01 X1.8191 Y1.9491 
G01 X1.8182 Y1.9498 
G01 X1.8176 Y1.9507 
G01 X1.8169 Y1.9514 
G01 X1.8164 Y1.9524 
G01 X1.7790 Y2.0066 
G01 X1.7787 Y2.0069 
G01 X1.7778 Y2.0084 
G01 X1.7767 Y2.0099 
G01 X1.7766 Y2.0102 
G01 X1.7764 Y2.0105 
G01 X1.7759 Y2.0123 
G01 X1.7753 Y2.0140 
G01 X1.7752 Y2.0144 
G01 X1.7751 Y2.0147 
G01 X1.7751 Y2.0165 
G01 X1.7749 Y2.0183 
G01 X1.7750 Y2.0187 
G01 X1.7749 Y2.0218 
G01 X1.7697 Y2.0239 
G01 X1.7640 Y2.0277 
G01 X1.7592 Y2.0325 
G01 X1.7554 Y2.0382 
G01 X1.7528 Y2.0444 
G00 Z0.1000 
G00 X1.7225 Y2.0556 
G01 Z-0.0070 F10.00 
G01 X1.7225 Y2.0874 F20.00 
G01 X1.7218 Y2.0867 
G01 X1.7202 Y2.0861 
G01 X1.7187 Y2.0854 
G01 X1.7170 Y2.0854 
G01 X1.7153 Y2.0854 
G01 X1.7144 Y2.0858 
G01 X1.7162 Y2.0816 
G01 X1.7175 Y2.0749 
G01 X1.7175 Y2.0681 
G01 X1.7162 Y2.0614 
G01 X1.7144 Y2.0572 
G01 X1.7153 Y2.0576 
G01 X1.7170 Y2.0576 
G01 X1.7187 Y2.0576 
G01 X1.7202 Y2.0569 
G01 X1.7218 Y2.0563 
G01 X1.7225 Y2.0556 
G00 Z0.1000 
G00 X1.7133 Y1.9248 
G01 Z-0.0070 F10.00 
G01 X1.7133 Y1.9238 F20.00 
G01 X1.7130 Y1.9232 
G01 X1.7129 Y1.9225 
G01 X1.7123 Y1.9217 
G01 X1.7119 Y1.9207 
G01 X1.7114 Y1.9203 
G01 X1.7110 Y1.9197 
G01 X1.7102 Y1.9191 
G01 X1.7094 Y1.9184 
G01 X1.7088 Y1.9182 
G01 X1.7082 Y1.9178 
G01 X1.7076 Y1.9177 
G01 X1.7090 Y1.9163 
G01 X1.7095 Y1.9171 
G01 X1.7099 Y1.9180 
G01 X1.7104 Y1.9185 
G01 X1.7108 Y1.9191 
G01 X1.7116 Y1.9196 
G01 X1.7123 Y1.9203 
G01 X1.7130 Y1.9206 
G01 X1.7136 Y1.9210 
G01 X1.7146 Y1.9211 
G01 X1.7155 Y1.9215 
G01 X1.7162 Y1.9215 
G01 X1.7164 Y1.9215 
G01 X1.7133 Y1.9248 
G00 Z0.1000 
G00 X1.8650 Y1.8115 
G01 Z-0.0070 F10.00 
G01 X1.8650 Y1.8077 F20.00 
G01 X1.8643 Y1.8051 
G01 X1.8653 Y1.8055 
G01 X1.8687 Y1.8055 
G01 X1.8700 Y1.8049 
G01 X1.8718 Y1.8042 
G01 X1.8725 Y1.8035 
G01 X1.8725 Y1.8073 
G01 X1.8732 Y1.8099 
G01 X1.8722 Y1.8095 
G01 X1.8688 Y1.8095 
G01 X1.8657 Y1.8108 
G01 X1.8650 Y1.8115 
G00 Z0.1000 
G00 X1.8721 Y1.6413 
G01 Z-0.0070 F10.00 
G01 X1.8402 Y1.6413 F20.00 
G01 X1.8409 Y1.6407 
G01 X1.8418 Y1.6385 
G01 X1.8422 Y1.6375 
G01 X1.8422 Y1.6367 
G01 X1.8734 Y1.6367 
G01 X1.8729 Y1.6380 
G01 X1.8723 Y1.6396 
G01 X1.8723 Y1.6413 
G01 X1.8723 Y1.6414 
G01 X1.8721 Y1.6413 
G00 Z0.1000 
G00 X1.8994 Y1.6413 
G01 Z-0.0070 F10.00 
G01 X1.8994 Y1.6396 F20.00 
G01 X1.8984 Y1.6369 
G01 X1.8983 Y1.6367 
G01 X1.9043 Y1.6367 
G01 X1.9043 Y1.6385 
G01 X1.9054 Y1.6412 
G01 X1.9054 Y1.6413 
G01 X1.8994 Y1.6413 
G00 Z0.1000 
G00 X1.9426 Y1.6486 
G01 Z-0.0070 F10.00 
G01 X1.9439 Y1.6491 F20.00 
G01 X1.9440 Y1.6491 
G01 X1.9457 Y1.6491 
G01 X1.9473 Y1.6491 
G01 X1.9474 Y1.6491 
G01 X1.9483 Y1.6487 
G01 X1.9426 Y1.6628 
G01 X1.9426 Y1.6486 
G00 Z0.1000 
G00 X1.7338 Y1.5936 
G01 Z-0.0070 F10.00 
G01 X1.7332 Y1.5931 F20.00 
G01 X1.7331 Y1.5930 
G01 X1.7316 Y1.5924 
G01 X1.7301 Y1.5918 
G01 X1.7299 Y1.5917 
G01 X1.7283 Y1.5918 
G01 X1.7267 Y1.5918 
G01 X1.7265 Y1.5918 
G01 X1.7251 Y1.5924 
G01 X1.7239 Y1.5929 
G01 X1.7239 Y1.5866 
G01 X1.7238 Y1.5863 
G01 X1.7248 Y1.5867 
G01 X1.7263 Y1.5873 
G01 X1.7265 Y1.5873 
G01 X1.7281 Y1.5873 
G01 X1.7297 Y1.5873 
G01 X1.7298 Y1.5872 
G01 X1.7313 Y1.5866 
G01 X1.7328 Y1.5860 
G01 X1.7329 Y1.5859 
G01 X1.7336 Y1.5852 
G01 X1.7338 Y1.5936 
G00 Z0.1000 
G00 X1.5635 Y1.5544 
G01 Z-0.0070 F10.00 
G01 X1.5625 Y1.5544 F20.00 
G01 X1.5594 Y1.5557 
G01 X1.5587 Y1.5564 
G01 X1.5587 Y1.2495 
G01 X1.5586 Y1.2493 
G01 X1.5586 Y1.2211 
G01 X1.5595 Y1.2211 
G01 X1.5595 Y1.2493 
G01 X1.5594 Y1.2495 
G01 X1.5594 Y1.5483 
G01 X1.5608 Y1.5518 
G01 X1.5635 Y1.5544 
G00 Z0.1000 
G00 X1.5397 Y1.6436 
G01 Z-0.0070 F10.00 
G01 X1.5412 Y1.6471 F20.00 
G01 X1.5438 Y1.6497 
G01 X1.5428 Y1.6497 
G01 X1.5397 Y1.6510 
G01 X1.5390 Y1.6517 
G01 X1.5390 Y1.2495 
G01 X1.5389 Y1.2493 
G01 X1.5389 Y1.2211 
G01 X1.5398 Y1.2211 
G01 X1.5398 Y1.2493 
G01 X1.5397 Y1.2495 
G01 X1.5397 Y1.6436 
G00 Z0.1000 
G00 X1.5973 Y1.6763 
G01 Z-0.0070 F10.00 
G01 X1.5982 Y1.6763 F20.00 
G01 X1.5991 Y1.6760 
G01 X1.5985 Y1.6775 
G01 X1.5973 Y1.6763 
G00 Z0.1000 
G00 X1.6055 Y1.4113 
G01 Z-0.0070 F10.00 
G01 X1.6055 Y1.4088 F20.00 
G01 X1.6042 Y1.4057 
G01 X1.6032 Y1.4047 
G01 X1.6068 Y1.4038 
G01 X1.6107 Y1.4015 
G01 X1.6140 Y1.3982 
G01 X1.6163 Y1.3943 
G01 X1.6175 Y1.3898 
G01 X1.6175 Y1.3852 
G01 X1.6163 Y1.3807 
G01 X1.6140 Y1.3768 
G01 X1.6107 Y1.3735 
G01 X1.6069 Y1.3713 
G01 X1.5998 Y1.3285 
G01 X1.6219 Y1.3757 
G01 X1.6171 Y1.4081 
G01 X1.6151 Y1.4101 
G01 X1.6148 Y1.4100 
G01 X1.6102 Y1.4100 
G01 X1.6057 Y1.4112 
G01 X1.6055 Y1.4113 
G00 Z0.1000 
G00 X1.5844 Y1.3954 
G01 Z-0.0070 F10.00 
G01 X1.5822 Y1.3954 F20.00 
G01 X1.5791 Y1.3967 
G01 X1.5784 Y1.3974 
G01 X1.5784 Y1.2495 
G01 X1.5783 Y1.2493 
G01 X1.5783 Y1.2211 
G01 X1.5792 Y1.2211 
G01 X1.5792 Y1.2493 
G01 X1.5791 Y1.2495 
G01 X1.5791 Y1.3178 
G01 X1.5789 Y1.3186 
G01 X1.5791 Y1.3197 
G01 X1.5791 Y1.3208 
G01 X1.5794 Y1.3215 
G01 X1.5882 Y1.3745 
G01 X1.5860 Y1.3768 
G01 X1.5837 Y1.3807 
G01 X1.5825 Y1.3852 
G01 X1.5825 Y1.3898 
G01 X1.5837 Y1.3943 
G01 X1.5844 Y1.3954 
G00 Z0.1000 
G00 X1.6412 Y1.3729 
G01 Z-0.0070 F10.00 
G01 X1.6412 Y1.3729 F20.00 
G01 X1.6411 Y1.3719 
G01 X1.6407 Y1.3710 
G01 X1.6405 Y1.3701 
G01 X1.6399 Y1.3693 
G01 X1.6170 Y1.3204 
G01 X1.6174 Y1.2824 
G01 X1.6177 Y1.2818 
G01 X1.6177 Y1.2587 
G01 X1.6178 Y1.2496 
G01 X1.6177 Y1.2493 
G01 X1.6177 Y1.2211 
G01 X1.6185 Y1.2211 
G01 X1.6185 Y1.2493 
G01 X1.6185 Y1.2495 
G01 X1.6185 Y1.3141 
G01 X1.6183 Y1.3146 
G01 X1.6185 Y1.3160 
G01 X1.6185 Y1.3173 
G01 X1.6187 Y1.3178 
G01 X1.6187 Y1.3183 
G01 X1.6194 Y1.3196 
G01 X1.6199 Y1.3208 
G01 X1.6203 Y1.3212 
G01 X1.6478 Y1.3716 
G01 X1.6468 Y1.3713 
G01 X1.6462 Y1.3714 
G01 X1.6456 Y1.3713 
G01 X1.6446 Y1.3715 
G01 X1.6435 Y1.3717 
G01 X1.6429 Y1.3719 
G01 X1.6423 Y1.3721 
G01 X1.6415 Y1.3727 
G01 X1.6412 Y1.3729 
G00 Z0.1000 
G00 X1.6713 Y1.3750 
G01 Z-0.0070 F10.00 
G01 X1.6375 Y1.3130 F20.00 
G01 X1.6375 Y1.2495 
G01 X1.6374 Y1.2493 
G01 X1.6374 Y1.2211 
G01 X1.6382 Y1.2211 
G01 X1.6382 Y1.2493 
G01 X1.6381 Y1.2495 
G01 X1.6381 Y1.3016 
G01 X1.6380 Y1.3024 
G01 X1.6381 Y1.3035 
G01 X1.6381 Y1.3045 
G01 X1.6385 Y1.3053 
G01 X1.6386 Y1.3061 
G01 X1.6392 Y1.3070 
G01 X1.6396 Y1.3080 
G01 X1.6402 Y1.3086 
G01 X1.6740 Y1.3619 
G01 X1.6744 Y1.3629 
G01 X1.6750 Y1.3635 
G01 X1.6755 Y1.3642 
G01 X1.6764 Y1.3648 
G01 X1.6819 Y1.3704 
G01 X1.6842 Y1.3726 
G01 X1.6860 Y1.3757 
G01 X1.6893 Y1.3790 
G01 X1.6906 Y1.3798 
G01 X1.6882 Y1.3808 
G01 X1.6858 Y1.3832 
G01 X1.6854 Y1.3842 
G01 X1.6840 Y1.3818 
G01 X1.6807 Y1.3785 
G01 X1.6768 Y1.3762 
G01 X1.6723 Y1.3750 
G01 X1.6713 Y1.3750 
G00 Z0.1000 
G00 X1.6895 Y1.3508 
G01 Z-0.0070 F10.00 
G01 X1.6802 Y1.3362 F20.00 
G01 X1.6804 Y1.3362 
G01 X1.6811 Y1.3363 
G01 X1.6821 Y1.3362 
G01 X1.6830 Y1.3362 
G01 X1.6837 Y1.3359 
G01 X1.6844 Y1.3357 
G01 X1.6853 Y1.3352 
G01 X1.6858 Y1.3350 
G01 X1.6858 Y1.3360 
G01 X1.6865 Y1.3377 
G01 X1.6878 Y1.3389 
G01 X1.6894 Y1.3396 
G01 X1.6975 Y1.3396 
G01 X1.6975 Y1.3437 
G01 X1.6988 Y1.3468 
G01 X1.6995 Y1.3475 
G01 X1.6977 Y1.3475 
G01 X1.6932 Y1.3487 
G01 X1.6895 Y1.3508 
G00 Z0.1000 
G00 X1.7342 Y1.3312 
G01 Z-0.0070 F10.00 
G01 X1.7342 Y1.3289 F20.00 
G01 X1.7370 Y1.3301 
G01 X1.7424 Y1.3301 
G01 X1.7424 Y1.3316 
G01 X1.7403 Y1.3307 
G01 X1.7395 Y1.3304 
G01 X1.7378 Y1.3304 
G01 X1.7362 Y1.3304 
G01 X1.7347 Y1.3310 
G01 X1.7342 Y1.3312 
G00 Z0.1000 
G00 X1.7342 Y1.3010 
G01 Z-0.0070 F10.00 
G01 X1.7342 Y1.2995 F20.00 
G01 X1.7363 Y1.3003 
G01 X1.7370 Y1.3006 
G01 X1.7387 Y1.3006 
G01 X1.7404 Y1.3006 
G01 X1.7419 Y1.3000 
G01 X1.7424 Y1.2998 
G01 X1.7424 Y1.3021 
G01 X1.7395 Y1.3010 
G01 X1.7342 Y1.3010 
G00 Z0.1000 
G00 X1.7342 Y1.2659 
G01 Z-0.0070 F10.00 
G01 X1.7342 Y1.2240 F20.00 
G01 X1.7335 Y1.2223 
G01 X1.7322 Y1.2211 
G01 X1.7306 Y1.2204 
G01 X1.7185 Y1.2204 
G01 X1.7185 Y1.1821 
G01 X1.7283 Y1.1821 
G01 X1.7285 Y1.1821 
G01 X1.7568 Y1.1821 
G01 X1.7585 Y1.1814 
G01 X1.7597 Y1.1801 
G01 X1.7604 Y1.1785 
G01 X1.7604 Y1.1668 
G01 X1.7597 Y1.1652 
G01 X1.7585 Y1.1639 
G01 X1.7568 Y1.1632 
G01 X1.7285 Y1.1632 
G01 X1.7283 Y1.1631 
G01 X1.6592 Y1.1631 
G01 X1.5895 Y1.0718 
G01 X1.5898 Y1.0386 
G01 X1.5904 Y1.0393 
G01 X1.5920 Y1.0400 
G01 X1.5936 Y1.0406 
G01 X1.5953 Y1.0407 
G01 X1.5962 Y1.0407 
G01 X1.5950 Y1.0452 
G01 X1.5950 Y1.0498 
G01 X1.5962 Y1.0543 
G01 X1.5985 Y1.0582 
G01 X1.6018 Y1.0615 
G01 X1.6057 Y1.0638 
G01 X1.6102 Y1.0650 
G01 X1.6148 Y1.0650 
G01 X1.6193 Y1.0638 
G01 X1.6232 Y1.0615 
G01 X1.6265 Y1.0582 
G01 X1.6288 Y1.0543 
G01 X1.6300 Y1.0498 
G01 X1.6300 Y1.0452 
G01 X1.6292 Y1.0422 
G01 X1.6762 Y0.9853 
G01 X1.7283 Y0.9853 
G01 X1.7285 Y0.9852 
G01 X1.7566 Y0.9852 
G01 X1.7566 Y0.9861 
G01 X1.7285 Y0.9861 
G01 X1.7283 Y0.9860 
G01 X1.6860 Y0.9860 
G01 X1.6856 Y0.9858 
G01 X1.6841 Y0.9860 
G01 X1.6826 Y0.9860 
G01 X1.6823 Y0.9861 
G01 X1.6818 Y0.9862 
G01 X1.6805 Y0.9868 
G01 X1.6791 Y0.9874 
G01 X1.6789 Y0.9877 
G01 X1.6785 Y0.9879 
G01 X1.6775 Y0.9890 
G01 X1.6765 Y0.9901 
G01 X1.6763 Y0.9905 
G01 X1.6761 Y0.9908 
G01 X1.6756 Y0.9922 
G01 X1.6750 Y0.9936 
G01 X1.6750 Y0.9940 
G01 X1.6690 Y1.0130 
G01 X1.6540 Y1.0325 
G01 X1.6502 Y1.0325 
G01 X1.6457 Y1.0337 
G01 X1.6418 Y1.0360 
G01 X1.6385 Y1.0393 
G01 X1.6362 Y1.0432 
G01 X1.6350 Y1.0477 
G01 X1.6350 Y1.0523 
G01 X1.6362 Y1.0568 
G01 X1.6385 Y1.0607 
G01 X1.6418 Y1.0640 
G01 X1.6457 Y1.0663 
G01 X1.6502 Y1.0675 
G01 X1.6548 Y1.0675 
G01 X1.6593 Y1.0663 
G01 X1.6632 Y1.0640 
G01 X1.6665 Y1.0607 
G01 X1.6688 Y1.0568 
G01 X1.6700 Y1.0523 
G01 X1.6700 Y1.0477 
G01 X1.6690 Y1.0441 
G01 X1.6849 Y1.0235 
G01 X1.6860 Y1.0222 
G01 X1.6860 Y1.0220 
G01 X1.6862 Y1.0218 
G01 X1.6866 Y1.0202 
G01 X1.6915 Y1.0050 
G01 X1.7283 Y1.0050 
G01 X1.7285 Y1.0049 
G01 X1.7568 Y1.0049 
G01 X1.7584 Y1.0042 
G01 X1.7587 Y1.0050 
G01 X1.7594 Y1.0057 
G01 X1.7245 Y1.0057 
G01 X1.7243 Y1.0057 
G01 X1.6960 Y1.0057 
G01 X1.6943 Y1.0064 
G01 X1.6930 Y1.0077 
G01 X1.6924 Y1.0093 
G01 X1.6924 Y1.0210 
G01 X1.6930 Y1.0226 
G01 X1.6943 Y1.0239 
G01 X1.6960 Y1.0246 
G01 X1.7243 Y1.0246 
G01 X1.7245 Y1.0247 
G01 X1.7837 Y1.0247 
G01 X1.7929 Y1.0338 
G01 X1.7925 Y1.0352 
G01 X1.7925 Y1.0398 
G01 X1.7937 Y1.0443 
G01 X1.7960 Y1.0482 
G01 X1.7993 Y1.0515 
G01 X1.8032 Y1.0538 
G01 X1.8077 Y1.0550 
G01 X1.8123 Y1.0550 
G01 X1.8168 Y1.0538 
G01 X1.8207 Y1.0515 
G01 X1.8240 Y1.0482 
G01 X1.8263 Y1.0443 
G01 X1.8275 Y1.0398 
G01 X1.8275 Y1.0352 
G01 X1.8272 Y1.0342 
G01 X1.8278 Y1.0348 
G01 X1.8309 Y1.0361 
G01 X1.8326 Y1.0361 
G01 X1.8341 Y1.0361 
G01 X1.8280 Y1.0452 
G01 X1.8164 Y1.0615 
G01 X1.7605 Y1.1028 
G01 X1.7581 Y1.1041 
G01 X1.7551 Y1.1042 
G01 X1.6960 Y1.1042 
G01 X1.6943 Y1.1048 
G01 X1.6930 Y1.1061 
G01 X1.6924 Y1.1078 
G01 X1.6924 Y1.1194 
G01 X1.6930 Y1.1211 
G01 X1.6943 Y1.1223 
G01 X1.6960 Y1.1230 
G01 X1.7568 Y1.1230 
G01 X1.7585 Y1.1223 
G01 X1.7597 Y1.1211 
G01 X1.7608 Y1.1210 
G01 X1.7623 Y1.1209 
G01 X1.7625 Y1.1208 
G01 X1.7628 Y1.1208 
G01 X1.7640 Y1.1201 
G01 X1.7653 Y1.1195 
G01 X1.7655 Y1.1193 
G01 X1.7681 Y1.1180 
G01 X1.7687 Y1.1178 
G01 X1.7695 Y1.1172 
G01 X1.7705 Y1.1167 
G01 X1.7709 Y1.1162 
G01 X1.8273 Y1.0745 
G01 X1.8284 Y1.0738 
G01 X1.8286 Y1.0735 
G01 X1.8289 Y1.0733 
G01 X1.8296 Y1.0722 
G01 X1.8410 Y1.0562 
G01 X1.8411 Y1.0561 
G01 X1.8420 Y1.0548 
G01 X1.8429 Y1.0536 
G01 X1.8429 Y1.0534 
G01 X1.8473 Y1.0468 
G01 X1.8469 Y1.0479 
G01 X1.8469 Y1.0666 
G01 X1.7638 Y1.1238 
G01 X1.7245 Y1.1238 
G01 X1.7243 Y1.1238 
G01 X1.6960 Y1.1238 
G01 X1.6943 Y1.1245 
G01 X1.6930 Y1.1258 
G01 X1.6924 Y1.1275 
G01 X1.6924 Y1.1391 
G01 X1.6930 Y1.1407 
G01 X1.6943 Y1.1420 
G01 X1.6960 Y1.1427 
G01 X1.7243 Y1.1427 
G01 X1.7245 Y1.1428 
G01 X1.7659 Y1.1428 
G01 X1.7669 Y1.1430 
G01 X1.7677 Y1.1428 
G01 X1.7686 Y1.1428 
G01 X1.7696 Y1.1424 
G01 X1.7702 Y1.1422 
G01 X1.7700 Y1.1432 
G01 X1.7700 Y1.1434 
G01 X1.7701 Y1.1439 
G01 X1.7698 Y1.1438 
G01 X1.7689 Y1.1435 
G01 X1.7680 Y1.1435 
G01 X1.7671 Y1.1433 
G01 X1.7661 Y1.1435 
G01 X1.7245 Y1.1435 
G01 X1.7243 Y1.1435 
G01 X1.6960 Y1.1435 
G01 X1.6943 Y1.1442 
G01 X1.6930 Y1.1455 
G01 X1.6924 Y1.1471 
G01 X1.6924 Y1.1588 
G01 X1.6930 Y1.1604 
G01 X1.6943 Y1.1617 
G01 X1.6960 Y1.1624 
G01 X1.7243 Y1.1624 
G01 X1.7245 Y1.1625 
G01 X1.7619 Y1.1625 
G01 X1.7692 Y1.1733 
G01 X1.7571 Y1.1995 
G01 X1.7569 Y1.1996 
G01 X1.7563 Y1.2012 
G01 X1.7556 Y1.2027 
G01 X1.7556 Y1.2029 
G01 X1.7555 Y1.2031 
G01 X1.7555 Y1.2048 
G01 X1.7554 Y1.2065 
G01 X1.7555 Y1.2067 
G01 X1.7555 Y1.2219 
G01 X1.7479 Y1.2219 
G01 X1.7463 Y1.2226 
G01 X1.7450 Y1.2238 
G01 X1.7443 Y1.2255 
G01 X1.7443 Y1.2667 
G01 X1.7436 Y1.2660 
G01 X1.7418 Y1.2652 
G01 X1.7405 Y1.2647 
G01 X1.7371 Y1.2647 
G01 X1.7342 Y1.2659 
G00 Z0.1000 
G00 X1.5988 Y1.2494 
G01 Z-0.0070 F10.00 
G01 X1.5981 Y1.3148 F20.00 
G01 X1.5981 Y1.2495 
G01 X1.5980 Y1.2493 
G01 X1.5980 Y1.2211 
G01 X1.5988 Y1.2211 
G01 X1.5988 Y1.2493 
G01 X1.5988 Y1.2494 
G00 Z0.1000 
G00 X1.5004 Y1.2493 
G01 Z-0.0070 F10.00 
G01 X1.5003 Y1.2495 F20.00 
G01 X1.5003 Y1.2533 
G01 X1.5004 Y1.2535 
G01 X1.5004 Y1.2818 
G01 X1.5005 Y1.2820 
G01 X1.5005 Y1.3862 
G01 X1.4998 Y1.3856 
G01 X1.4994 Y1.3854 
G01 X1.4990 Y1.3851 
G01 X1.4978 Y1.3847 
G01 X1.4967 Y1.3843 
G01 X1.4962 Y1.3843 
G01 X1.4957 Y1.3841 
G01 X1.4948 Y1.3842 
G01 X1.4971 Y1.3813 
G01 X1.4981 Y1.3804 
G01 X1.4983 Y1.3799 
G01 X1.4986 Y1.3795 
G01 X1.4990 Y1.3781 
G01 X1.4995 Y1.3769 
G01 X1.4995 Y1.3763 
G01 X1.4997 Y1.3758 
G01 X1.4995 Y1.3745 
G01 X1.4995 Y1.2820 
G01 X1.4996 Y1.2818 
G01 X1.4996 Y1.2535 
G01 X1.4997 Y1.2533 
G01 X1.4997 Y1.2495 
G01 X1.4996 Y1.2493 
G01 X1.4996 Y1.2211 
G01 X1.5004 Y1.2211 
G01 X1.5004 Y1.2493 
G00 Z0.1000 
G00 X1.4807 Y1.2491 
G01 Z-0.0070 F10.00 
G01 X1.4805 Y1.2496 F20.00 
G01 X1.4805 Y1.3717 
G01 X1.4678 Y1.3875 
G01 X1.4652 Y1.3875 
G01 X1.4607 Y1.3887 
G01 X1.4568 Y1.3910 
G01 X1.4535 Y1.3943 
G01 X1.4512 Y1.3982 
G01 X1.4500 Y1.4027 
G01 X1.4500 Y1.4073 
G01 X1.4503 Y1.4083 
G01 X1.4472 Y1.4070 
G01 X1.4438 Y1.4070 
G01 X1.4407 Y1.4083 
G01 X1.4400 Y1.4090 
G01 X1.4400 Y1.4077 
G01 X1.4388 Y1.4032 
G01 X1.4384 Y1.4026 
G01 X1.4779 Y1.3405 
G01 X1.4785 Y1.3399 
G01 X1.4789 Y1.3389 
G01 X1.4795 Y1.3380 
G01 X1.4796 Y1.3372 
G01 X1.4800 Y1.3364 
G01 X1.4800 Y1.3354 
G01 X1.4802 Y1.3343 
G01 X1.4800 Y1.3335 
G01 X1.4800 Y1.2495 
G01 X1.4799 Y1.2493 
G01 X1.4799 Y1.2211 
G01 X1.4807 Y1.2211 
G01 X1.4807 Y1.2491 
G00 Z0.1000 
G00 X1.4611 Y1.2493 
G01 Z-0.0070 F10.00 
G01 X1.4610 Y1.2495 F20.00 
G01 X1.4610 Y1.3318 
G01 X1.4316 Y1.3779 
G01 X1.4314 Y1.3770 
G01 X1.4310 Y1.3764 
G01 X1.4307 Y1.3757 
G01 X1.4300 Y1.3750 
G01 X1.4295 Y1.3742 
G01 X1.4288 Y1.3738 
G01 X1.4283 Y1.3733 
G01 X1.4279 Y1.3731 
G01 X1.4307 Y1.3715 
G01 X1.4340 Y1.3682 
G01 X1.4363 Y1.3643 
G01 X1.4375 Y1.3598 
G01 X1.4375 Y1.3552 
G01 X1.4363 Y1.3507 
G01 X1.4340 Y1.3468 
G01 X1.4307 Y1.3435 
G01 X1.4295 Y1.3428 
G01 X1.4295 Y1.3310 
G01 X1.4297 Y1.3301 
G01 X1.4295 Y1.3291 
G01 X1.4295 Y1.3281 
G01 X1.4292 Y1.3273 
G01 X1.4290 Y1.3264 
G01 X1.4284 Y1.3255 
G01 X1.4281 Y1.3246 
G01 X1.4274 Y1.3240 
G01 X1.4012 Y1.2839 
G01 X1.4012 Y1.2495 
G01 X1.4012 Y1.2493 
G01 X1.4012 Y1.2210 
G01 X1.4005 Y1.2193 
G01 X1.3992 Y1.2180 
G01 X1.3975 Y1.2174 
G01 X1.3859 Y1.2174 
G01 X1.3843 Y1.2180 
G01 X1.3830 Y1.2193 
G01 X1.3823 Y1.2210 
G01 X1.3823 Y1.2493 
G01 X1.3822 Y1.2495 
G01 X1.3822 Y1.2857 
G01 X1.3820 Y1.2866 
G01 X1.3822 Y1.2876 
G01 X1.3822 Y1.2886 
G01 X1.3826 Y1.2895 
G01 X1.3827 Y1.2903 
G01 X1.3833 Y1.2912 
G01 X1.3837 Y1.2921 
G01 X1.3843 Y1.2928 
G01 X1.4105 Y1.3328 
G01 X1.4105 Y1.3428 
G01 X1.4093 Y1.3435 
G01 X1.4060 Y1.3468 
G01 X1.4037 Y1.3507 
G01 X1.4025 Y1.3552 
G01 X1.4025 Y1.3571 
G01 X1.4018 Y1.3564 
G01 X1.4000 Y1.3556 
G01 X1.3987 Y1.3551 
G01 X1.3956 Y1.3551 
G01 X1.3956 Y1.3229 
G01 X1.3949 Y1.3213 
G01 X1.3937 Y1.3200 
G01 X1.3920 Y1.3193 
G01 X1.3815 Y1.3193 
G01 X1.3815 Y1.2495 
G01 X1.3815 Y1.2493 
G01 X1.3815 Y1.2210 
G01 X1.3808 Y1.2193 
G01 X1.3795 Y1.2180 
G01 X1.3779 Y1.2174 
G01 X1.3662 Y1.2174 
G01 X1.3646 Y1.2180 
G01 X1.3633 Y1.2193 
G01 X1.3626 Y1.2210 
G01 X1.3626 Y1.2493 
G01 X1.3625 Y1.2495 
G01 X1.3625 Y1.2955 
G01 X1.3620 Y1.2949 
G01 X1.3619 Y1.2949 
G01 X1.3604 Y1.2942 
G01 X1.3589 Y1.2936 
G01 X1.3587 Y1.2936 
G01 X1.3593 Y1.2931 
G01 X1.3595 Y1.2928 
G01 X1.3597 Y1.2925 
G01 X1.3603 Y1.2911 
G01 X1.3610 Y1.2898 
G01 X1.3611 Y1.2894 
G01 X1.3612 Y1.2890 
G01 X1.3613 Y1.2875 
G01 X1.3614 Y1.2860 
G01 X1.3613 Y1.2856 
G01 X1.3613 Y1.2829 
G01 X1.3618 Y1.2818 
G01 X1.3618 Y1.2562 
G01 X1.3618 Y1.2533 
G01 X1.3619 Y1.2515 
G01 X1.3619 Y1.2496 
G01 X1.3619 Y1.1466 
G01 X1.3625 Y1.1473 
G01 X1.3656 Y1.1486 
G01 X1.3691 Y1.1486 
G01 X1.3706 Y1.1480 
G01 X1.3700 Y1.1502 
G01 X1.3700 Y1.1548 
G01 X1.3712 Y1.1593 
G01 X1.3735 Y1.1632 
G01 X1.3768 Y1.1665 
G01 X1.3807 Y1.1688 
G01 X1.3838 Y1.1696 
G01 X1.4019 Y1.2181 
G01 X1.4019 Y1.2533 
G01 X1.4020 Y1.2535 
G01 X1.4020 Y1.2818 
G01 X1.4027 Y1.2835 
G01 X1.4039 Y1.2847 
G01 X1.4056 Y1.2854 
G01 X1.4172 Y1.2854 
G01 X1.4189 Y1.2847 
G01 X1.4202 Y1.2835 
G01 X1.4208 Y1.2818 
G01 X1.4208 Y1.2535 
G01 X1.4209 Y1.2533 
G01 X1.4209 Y1.2166 
G01 X1.4210 Y1.2149 
G01 X1.4209 Y1.2147 
G01 X1.4209 Y1.2145 
G01 X1.4203 Y1.2129 
G01 X1.4058 Y1.1743 
G01 X1.4067 Y1.1747 
G01 X1.4068 Y1.1747 
G01 X1.4070 Y1.1748 
G01 X1.4085 Y1.1748 
G01 X1.4101 Y1.1748 
G01 X1.4102 Y1.1748 
G01 X1.4104 Y1.1748 
G01 X1.4118 Y1.1742 
G01 X1.4129 Y1.1738 
G01 X1.4125 Y1.1752 
G01 X1.4125 Y1.1798 
G01 X1.4137 Y1.1843 
G01 X1.4160 Y1.1882 
G01 X1.4193 Y1.1915 
G01 X1.4210 Y1.1925 
G01 X1.4216 Y1.2091 
G01 X1.4216 Y1.2533 
G01 X1.4217 Y1.2535 
G01 X1.4217 Y1.2818 
G01 X1.4224 Y1.2835 
G01 X1.4236 Y1.2847 
G01 X1.4253 Y1.2854 
G01 X1.4369 Y1.2854 
G01 X1.4386 Y1.2847 
G01 X1.4398 Y1.2835 
G01 X1.4405 Y1.2818 
G01 X1.4405 Y1.2535 
G01 X1.4406 Y1.2533 
G01 X1.4406 Y1.2183 
G01 X1.4414 Y1.2191 
G01 X1.4415 Y1.2191 
G01 X1.4417 Y1.2192 
G01 X1.4420 Y1.2194 
G01 X1.4414 Y1.2210 
G01 X1.4414 Y1.2818 
G01 X1.4421 Y1.2835 
G01 X1.4433 Y1.2847 
G01 X1.4450 Y1.2854 
G01 X1.4566 Y1.2854 
G01 X1.4583 Y1.2847 
G01 X1.4595 Y1.2835 
G01 X1.4602 Y1.2818 
G01 X1.4602 Y1.2211 
G01 X1.4611 Y1.2211 
G01 X1.4611 Y1.2493 
G00 Z0.1000 
G00 X1.3049 Y1.2914 
G01 Z-0.0070 F10.00 
G01 X1.3042 Y1.2916 F20.00 
G01 X1.3042 Y1.2908 
G01 X1.3046 Y1.2911 
G01 X1.3049 Y1.2914 
G00 Z0.1000 
G00 X1.3039 Y1.1632 
G01 Z-0.0070 F10.00 
G01 X1.2753 Y1.1632 F20.00 
G01 X1.2746 Y1.1630 
G01 X1.2723 Y1.1632 
G01 X1.2514 Y1.1632 
G01 X1.2506 Y1.1629 
G01 X1.2489 Y1.1627 
G01 X1.2756 Y1.1624 
G01 X1.2757 Y1.1624 
G01 X1.3039 Y1.1624 
G01 X1.3039 Y1.1632 
G00 Z0.1000 
G00 X1.3039 Y1.1435 
G01 Z-0.0070 F10.00 
G01 X1.2757 Y1.1435 F20.00 
G01 X1.2754 Y1.1434 
G01 X1.2662 Y1.1435 
G01 X1.2432 Y1.1435 
G01 X1.2426 Y1.1438 
G01 X1.1459 Y1.1448 
G01 X1.1466 Y1.1442 
G01 X1.1472 Y1.1426 
G01 X1.1479 Y1.1411 
G01 X1.1479 Y1.1396 
G01 X1.1507 Y1.1413 
G01 X1.1552 Y1.1425 
G01 X1.1598 Y1.1425 
G01 X1.1643 Y1.1413 
G01 X1.1661 Y1.1402 
G01 X1.1664 Y1.1405 
G01 X1.1678 Y1.1411 
G01 X1.1692 Y1.1418 
G01 X1.1696 Y1.1418 
G01 X1.1699 Y1.1420 
G01 X1.1714 Y1.1420 
G01 X1.1729 Y1.1421 
G01 X1.1733 Y1.1420 
G01 X1.2428 Y1.1425 
G01 X1.2432 Y1.1427 
G01 X1.2631 Y1.1427 
G01 X1.2754 Y1.1428 
G01 X1.2757 Y1.1427 
G01 X1.3039 Y1.1427 
G01 X1.3039 Y1.1435 
G00 Z0.1000 
G00 X1.3039 Y1.1238 
G01 Z-0.0070 F10.00 
G01 X1.2757 Y1.1238 F20.00 
G01 X1.2756 Y1.1238 
G01 X1.2067 Y1.1233 
G01 X1.2074 Y1.1226 
G01 X1.2080 Y1.1210 
G01 X1.2087 Y1.1195 
G01 X1.2087 Y1.1177 
G01 X1.2087 Y1.1176 
G01 X1.2107 Y1.1188 
G01 X1.2152 Y1.1200 
G01 X1.2164 Y1.1200 
G01 X1.2172 Y1.1207 
G01 X1.2182 Y1.1216 
G01 X1.2187 Y1.1218 
G01 X1.2191 Y1.1222 
G01 X1.2204 Y1.1226 
G01 X1.2217 Y1.1231 
G01 X1.2222 Y1.1231 
G01 X1.2227 Y1.1232 
G01 X1.2241 Y1.1231 
G01 X1.2755 Y1.1231 
G01 X1.2757 Y1.1230 
G01 X1.3039 Y1.1230 
G01 X1.3039 Y1.1238 
G00 Z0.1000 
G00 X1.3039 Y1.1042 
G01 Z-0.0070 F10.00 
G01 X1.2757 Y1.1042 F20.00 
G01 X1.2755 Y1.1041 
G01 X1.2350 Y1.1041 
G01 X1.2350 Y1.1002 
G01 X1.2338 Y1.0957 
G01 X1.2315 Y1.0918 
G01 X1.2282 Y1.0885 
G01 X1.2243 Y1.0862 
G01 X1.2198 Y1.0850 
G01 X1.2152 Y1.0850 
G01 X1.2107 Y1.0862 
G01 X1.2095 Y1.0869 
G01 X1.2095 Y1.0848 
G01 X1.2082 Y1.0817 
G01 X1.2075 Y1.0810 
G01 X1.2093 Y1.0810 
G01 X1.2102 Y1.0812 
G01 X1.2109 Y1.0810 
G01 X1.2117 Y1.0810 
G01 X1.2126 Y1.0806 
G01 X1.2135 Y1.0804 
G01 X1.2141 Y1.0800 
G01 X1.2148 Y1.0797 
G01 X1.2155 Y1.0790 
G01 X1.2382 Y1.0630 
G01 X1.2413 Y1.0630 
G01 X1.2415 Y1.0633 
G01 X1.2432 Y1.0639 
G01 X1.3039 Y1.0639 
G01 X1.3039 Y1.0648 
G01 X1.2432 Y1.0648 
G01 X1.2415 Y1.0655 
G01 X1.2403 Y1.0667 
G01 X1.2396 Y1.0684 
G01 X1.2396 Y1.0800 
G01 X1.2403 Y1.0817 
G01 X1.2415 Y1.0829 
G01 X1.2432 Y1.0836 
G01 X1.3039 Y1.0836 
G01 X1.3039 Y1.0845 
G01 X1.2432 Y1.0845 
G01 X1.2415 Y1.0852 
G01 X1.2403 Y1.0864 
G01 X1.2396 Y1.0881 
G01 X1.2396 Y1.0997 
G01 X1.2403 Y1.1014 
G01 X1.2415 Y1.1026 
G01 X1.2432 Y1.1033 
G01 X1.3039 Y1.1033 
G01 X1.3039 Y1.1042 
G00 Z0.1000 
G00 X1.3039 Y1.0451 
G01 Z-0.0070 F10.00 
G01 X1.2432 Y1.0451 F20.00 
G01 X1.2415 Y1.0458 
G01 X1.2413 Y1.0460 
G01 X1.2362 Y1.0460 
G01 X1.2353 Y1.0459 
G01 X1.2345 Y1.0460 
G01 X1.2338 Y1.0460 
G01 X1.2329 Y1.0464 
G01 X1.2320 Y1.0466 
G01 X1.2313 Y1.0470 
G01 X1.2307 Y1.0473 
G01 X1.2300 Y1.0480 
G01 X1.2073 Y1.0640 
G01 X1.1578 Y1.0640 
G01 X1.1565 Y1.0618 
G01 X1.1532 Y1.0585 
G01 X1.1493 Y1.0562 
G01 X1.1448 Y1.0550 
G01 X1.1402 Y1.0550 
G01 X1.1357 Y1.0562 
G01 X1.1320 Y1.0584 
G01 X1.1320 Y1.0573 
G01 X1.1314 Y1.0560 
G01 X1.1307 Y1.0542 
G01 X1.1300 Y1.0535 
G01 X1.2109 Y1.0535 
G01 X1.2111 Y1.0535 
G01 X1.2126 Y1.0535 
G01 X1.2142 Y1.0535 
G01 X1.2143 Y1.0535 
G01 X1.2144 Y1.0534 
G01 X1.2159 Y1.0528 
G01 X1.2173 Y1.0522 
G01 X1.2370 Y1.0433 
G01 X1.2413 Y1.0433 
G01 X1.2415 Y1.0436 
G01 X1.2432 Y1.0443 
G01 X1.3039 Y1.0443 
G01 X1.3039 Y1.0451 
G00 Z0.1000 
G00 X1.3039 Y1.0254 
G01 Z-0.0070 F10.00 
G01 X1.2432 Y1.0254 F20.00 
G01 X1.2415 Y1.0261 
G01 X1.2413 Y1.0263 
G01 X1.2367 Y1.0263 
G01 X1.2366 Y1.0263 
G01 X1.2350 Y1.0263 
G01 X1.2335 Y1.0263 
G01 X1.2333 Y1.0264 
G01 X1.2332 Y1.0264 
G01 X1.2318 Y1.0270 
G01 X1.2303 Y1.0276 
G01 X1.2107 Y1.0365 
G01 X1.1800 Y1.0365 
G01 X1.1807 Y1.0358 
G01 X1.1820 Y1.0327 
G01 X1.1820 Y1.0306 
G01 X1.1832 Y1.0313 
G01 X1.1877 Y1.0325 
G01 X1.1923 Y1.0325 
G01 X1.1968 Y1.0313 
G01 X1.2007 Y1.0290 
G01 X1.2040 Y1.0257 
G01 X1.2053 Y1.0235 
G01 X1.2412 Y1.0235 
G01 X1.2415 Y1.0239 
G01 X1.2432 Y1.0246 
G01 X1.3039 Y1.0246 
G01 X1.3039 Y1.0250 
G01 X1.3039 Y1.0254 
G00 Z0.1000 
G00 X1.3076 Y1.0177 
G01 Z-0.0070 F10.00 
G01 X1.3076 Y1.0093 F20.00 
G01 X1.3070 Y1.0077 
G01 X1.3057 Y1.0064 
G01 X1.3040 Y1.0057 
G01 X1.2432 Y1.0057 
G01 X1.2415 Y1.0064 
G01 X1.2406 Y1.0065 
G01 X1.2413 Y1.0058 
G01 X1.2419 Y1.0044 
G01 X1.2432 Y1.0049 
G01 X1.2715 Y1.0049 
G01 X1.2717 Y1.0050 
G01 X1.3075 Y1.0050 
G01 X1.3075 Y1.0073 
G01 X1.3087 Y1.0118 
G01 X1.3110 Y1.0157 
G01 X1.3117 Y1.0164 
G01 X1.3107 Y1.0164 
G01 X1.3091 Y1.0171 
G01 X1.3076 Y1.0177 
G00 Z0.1000 
G00 X1.3165 Y0.9853 
G01 Z-0.0070 F10.00 
G01 X1.3182 Y0.9863 F20.00 
G01 X1.3227 Y0.9875 
G01 X1.3273 Y0.9875 
G01 X1.3315 Y0.9864 
G01 X1.3315 Y0.9886 
G01 X1.3273 Y0.9875 
G01 X1.3227 Y0.9875 
G01 X1.3213 Y0.9879 
G01 X1.3209 Y0.9874 
G01 X1.3174 Y0.9860 
G01 X1.2717 Y0.9860 
G01 X1.2715 Y0.9861 
G01 X1.2434 Y0.9861 
G01 X1.2434 Y0.9852 
G01 X1.2715 Y0.9852 
G01 X1.2717 Y0.9853 
G01 X1.3165 Y0.9853 
G00 Z0.1000 
G00 X1.3079 Y0.9663 
G01 Z-0.0070 F10.00 
G01 X1.2717 Y0.9663 F20.00 
G01 X1.2715 Y0.9664 
G01 X1.2432 Y0.9664 
G01 X1.2416 Y0.9670 
G01 X1.2413 Y0.9663 
G01 X1.2406 Y0.9656 
G01 X1.2755 Y0.9656 
G01 X1.2757 Y0.9655 
G01 X1.3040 Y0.9655 
G01 X1.3057 Y0.9648 
G01 X1.3070 Y0.9636 
G01 X1.3076 Y0.9619 
G01 X1.3076 Y0.9558 
G01 X1.3083 Y0.9565 
G01 X1.3089 Y0.9568 
G01 X1.3115 Y0.9578 
G01 X1.3124 Y0.9578 
G01 X1.3110 Y0.9593 
G01 X1.3087 Y0.9632 
G01 X1.3079 Y0.9663 
G00 Z0.1000 
G00 X1.3039 Y0.9467 
G01 Z-0.0070 F10.00 
G01 X1.2757 Y0.9467 F20.00 
G01 X1.2755 Y0.9466 
G01 X1.1888 Y0.9466 
G01 X1.1888 Y0.9379 
G01 X1.1882 Y0.9365 
G01 X1.1893 Y0.9360 
G01 X1.1912 Y0.9341 
G01 X1.1912 Y0.9343 
G01 X1.1935 Y0.9382 
G01 X1.1968 Y0.9415 
G01 X1.2007 Y0.9438 
G01 X1.2052 Y0.9450 
G01 X1.2098 Y0.9450 
G01 X1.2143 Y0.9438 
G01 X1.2182 Y0.9415 
G01 X1.2192 Y0.9406 
G01 X1.2396 Y0.9422 
G01 X1.2403 Y0.9439 
G01 X1.2415 Y0.9452 
G01 X1.2432 Y0.9458 
G01 X1.3039 Y0.9458 
G01 X1.3039 Y0.9467 
G00 Z0.1000 
G00 X1.3039 Y0.9270 
G01 Z-0.0070 F10.00 
G01 X1.2625 Y0.9270 F20.00 
G01 X1.2520 Y0.9262 
G01 X1.3039 Y0.9262 
G01 X1.3039 Y0.9270 
G00 Z0.1000 
G00 X1.3028 Y0.9073 
G01 Z-0.0070 F10.00 
G01 X1.2755 Y0.9073 F20.00 
G01 X1.2736 Y0.9065 
G01 X1.2386 Y0.9065 
G01 X1.2312 Y0.8970 
G01 X1.2313 Y0.8968 
G01 X1.2325 Y0.8923 
G01 X1.2325 Y0.8877 
G01 X1.2313 Y0.8832 
G01 X1.2290 Y0.8793 
G01 X1.2257 Y0.8760 
G01 X1.2218 Y0.8737 
G01 X1.2173 Y0.8725 
G01 X1.2127 Y0.8725 
G01 X1.2082 Y0.8737 
G01 X1.2043 Y0.8760 
G01 X1.2010 Y0.8793 
G01 X1.1987 Y0.8832 
G01 X1.1975 Y0.8877 
G01 X1.1975 Y0.8923 
G01 X1.1987 Y0.8968 
G01 X1.2010 Y0.9007 
G01 X1.2043 Y0.9040 
G01 X1.2082 Y0.9063 
G01 X1.2127 Y0.9075 
G01 X1.2173 Y0.9075 
G01 X1.2177 Y0.9074 
G01 X1.2251 Y0.9168 
G01 X1.2253 Y0.9173 
G01 X1.2261 Y0.9181 
G01 X1.2268 Y0.9191 
G01 X1.2273 Y0.9193 
G01 X1.2278 Y0.9198 
G01 X1.2302 Y0.9222 
G01 X1.2333 Y0.9235 
G01 X1.2400 Y0.9235 
G01 X1.2403 Y0.9242 
G01 X1.2414 Y0.9253 
G01 X1.2247 Y0.9240 
G01 X1.2238 Y0.9207 
G01 X1.2215 Y0.9168 
G01 X1.2182 Y0.9135 
G01 X1.2143 Y0.9112 
G01 X1.2098 Y0.9100 
G01 X1.2052 Y0.9100 
G01 X1.2007 Y0.9112 
G01 X1.1968 Y0.9135 
G01 X1.1935 Y0.9168 
G01 X1.1925 Y0.9184 
G01 X1.1917 Y0.9164 
G01 X1.1893 Y0.9140 
G01 X1.1882 Y0.9135 
G01 X1.1888 Y0.9121 
G01 X1.1888 Y0.8774 
G01 X1.1908 Y0.8719 
G01 X1.2396 Y0.8720 
G01 X1.2396 Y0.8832 
G01 X1.2403 Y0.8848 
G01 X1.2415 Y0.8861 
G01 X1.2432 Y0.8868 
G01 X1.2603 Y0.8868 
G01 X1.2605 Y0.8869 
G01 X1.3056 Y0.8869 
G01 X1.3049 Y0.8875 
G01 X1.3048 Y0.8879 
G01 X1.3040 Y0.8876 
G01 X1.2432 Y0.8876 
G01 X1.2415 Y0.8883 
G01 X1.2403 Y0.8896 
G01 X1.2396 Y0.8912 
G01 X1.2396 Y0.9029 
G01 X1.2403 Y0.9045 
G01 X1.2415 Y0.9058 
G01 X1.2432 Y0.9065 
G01 X1.3028 Y0.9065 
G01 X1.3028 Y0.9073 
G00 Z0.1000 
G00 X1.3578 Y0.8374 
G01 Z-0.0070 F10.00 
G01 X1.3578 Y0.8365 F20.00 
G01 X1.3567 Y0.8338 
G01 X1.3565 Y0.8333 
G01 X1.3558 Y0.8326 
G01 X1.3582 Y0.8326 
G01 X1.3598 Y0.8320 
G01 X1.3611 Y0.8307 
G01 X1.3618 Y0.8290 
G01 X1.3618 Y0.8007 
G01 X1.3619 Y0.8005 
G01 X1.3619 Y0.7967 
G01 X1.3618 Y0.7965 
G01 X1.3618 Y0.7684 
G01 X1.3626 Y0.7684 
G01 X1.3626 Y0.7965 
G01 X1.3625 Y0.7967 
G01 X1.3625 Y0.8341 
G01 X1.3593 Y0.8360 
G01 X1.3578 Y0.8374 
G00 Z0.1000 
G00 X1.3822 Y0.8374 
G01 Z-0.0070 F10.00 
G01 X1.3815 Y0.8368 F20.00 
G01 X1.3815 Y0.7967 
G01 X1.3815 Y0.7965 
G01 X1.3815 Y0.7682 
G01 X1.3808 Y0.7665 
G01 X1.3795 Y0.7653 
G01 X1.3790 Y0.7650 
G01 X1.3801 Y0.7639 
G01 X1.3809 Y0.7620 
G01 X1.3814 Y0.7608 
G01 X1.3814 Y0.7598 
G01 X1.3824 Y0.7608 
G01 X1.3830 Y0.7618 
G01 X1.3829 Y0.7669 
G01 X1.3823 Y0.7682 
G01 X1.3823 Y0.7945 
G01 X1.3822 Y0.8003 
G01 X1.3823 Y0.8006 
G01 X1.3823 Y0.8290 
G01 X1.3830 Y0.8307 
G01 X1.3843 Y0.8320 
G01 X1.3847 Y0.8321 
G01 X1.3835 Y0.8333 
G01 X1.3832 Y0.8339 
G01 X1.3822 Y0.8365 
G01 X1.3822 Y0.8374 
G00 Z0.1000 
G00 X1.4012 Y0.8289 
G01 Z-0.0070 F10.00 
G01 X1.4012 Y0.8008 F20.00 
G01 X1.4019 Y0.7637 
G01 X1.4019 Y0.8005 
G01 X1.4020 Y0.8007 
G01 X1.4020 Y0.8289 
G01 X1.4012 Y0.8289 
G00 Z0.1000 
G00 X1.4208 Y0.8289 
G01 Z-0.0070 F10.00 
G01 X1.4208 Y0.8007 F20.00 
G01 X1.4209 Y0.8005 
G01 X1.4209 Y0.7011 
G01 X1.4216 Y0.6807 
G01 X1.4245 Y0.6807 
G01 X1.4252 Y0.6804 
G01 X1.4256 Y0.6815 
G01 X1.4261 Y0.6828 
G01 X1.4263 Y0.6831 
G01 X1.4264 Y0.6834 
G01 X1.4274 Y0.6843 
G01 X1.4283 Y0.6854 
G01 X1.4286 Y0.6855 
G01 X1.4288 Y0.6858 
G01 X1.4301 Y0.6863 
G01 X1.4313 Y0.6869 
G01 X1.4316 Y0.6869 
G01 X1.4319 Y0.6871 
G01 X1.4310 Y0.6880 
G01 X1.4299 Y0.6890 
G01 X1.4297 Y0.6894 
G01 X1.4258 Y0.6933 
G01 X1.4245 Y0.6945 
G01 X1.4244 Y0.6947 
G01 X1.4237 Y0.6963 
G01 X1.4230 Y0.6980 
G01 X1.4230 Y0.6981 
G01 X1.4230 Y0.7000 
G01 X1.4220 Y0.7673 
G01 X1.4217 Y0.7682 
G01 X1.4217 Y0.7930 
G01 X1.4216 Y0.8004 
G01 X1.4217 Y0.8006 
G01 X1.4217 Y0.8289 
G01 X1.4208 Y0.8289 
G00 Z0.1000 
G00 X1.4405 Y0.8289 
G01 Z-0.0070 F10.00 
G01 X1.4405 Y0.8008 F20.00 
G01 X1.4406 Y0.8006 
G01 X1.4413 Y0.7503 
G01 X1.4413 Y0.8005 
G01 X1.4414 Y0.8007 
G01 X1.4414 Y0.8289 
G01 X1.4405 Y0.8289 
G00 Z0.1000 
G00 X1.4602 Y0.8290 
G01 Z-0.0070 F10.00 
G01 X1.4602 Y0.8007 F20.00 
G01 X1.4603 Y0.8005 
G01 X1.4603 Y0.7210 
G01 X1.4740 Y0.7091 
G01 X1.4938 Y0.7071 
G01 X1.4939 Y0.7072 
G01 X1.4943 Y0.7071 
G01 X1.4943 Y0.7195 
G01 X1.4950 Y0.7212 
G01 X1.4963 Y0.7224 
G01 X1.4979 Y0.7231 
G01 X1.5096 Y0.7231 
G01 X1.5089 Y0.7238 
G01 X1.5077 Y0.7268 
G01 X1.5076 Y0.7292 
G01 X1.5068 Y0.7287 
G01 X1.5023 Y0.7275 
G01 X1.4977 Y0.7275 
G01 X1.4932 Y0.7287 
G01 X1.4893 Y0.7310 
G01 X1.4860 Y0.7343 
G01 X1.4837 Y0.7382 
G01 X1.4825 Y0.7427 
G01 X1.4825 Y0.7473 
G01 X1.4837 Y0.7518 
G01 X1.4860 Y0.7557 
G01 X1.4893 Y0.7590 
G01 X1.4932 Y0.7613 
G01 X1.4977 Y0.7625 
G01 X1.5005 Y0.7625 
G01 X1.5005 Y0.7680 
G01 X1.5004 Y0.7682 
G01 X1.5004 Y0.7965 
G01 X1.5003 Y0.7967 
G01 X1.5003 Y0.8005 
G01 X1.5004 Y0.8007 
G01 X1.5004 Y0.8290 
G01 X1.5011 Y0.8307 
G01 X1.5024 Y0.8320 
G01 X1.5040 Y0.8326 
G01 X1.5157 Y0.8326 
G01 X1.5173 Y0.8320 
G01 X1.5186 Y0.8307 
G01 X1.5193 Y0.8290 
G01 X1.5193 Y0.8009 
G01 X1.5195 Y0.8004 
G01 X1.5195 Y0.7651 
G01 X1.5202 Y0.7659 
G01 X1.5205 Y0.7661 
G01 X1.5207 Y0.7663 
G01 X1.5209 Y0.7664 
G01 X1.5208 Y0.7665 
G01 X1.5201 Y0.7682 
G01 X1.5201 Y0.7965 
G01 X1.5200 Y0.7967 
G01 X1.5200 Y0.8406 
G01 X1.5193 Y0.8410 
G01 X1.5160 Y0.8443 
G01 X1.5137 Y0.8482 
G01 X1.5125 Y0.8527 
G01 X1.5125 Y0.8573 
G01 X1.5137 Y0.8618 
G01 X1.5160 Y0.8657 
G01 X1.5193 Y0.8690 
G01 X1.5217 Y0.8704 
G01 X1.5207 Y0.8708 
G01 X1.5183 Y0.8732 
G01 X1.5179 Y0.8742 
G01 X1.5165 Y0.8718 
G01 X1.5132 Y0.8685 
G01 X1.5093 Y0.8662 
G01 X1.5061 Y0.8654 
G01 X1.4997 Y0.8484 
G01 X1.4997 Y0.7967 
G01 X1.4996 Y0.7965 
G01 X1.4996 Y0.7682 
G01 X1.4989 Y0.7665 
G01 X1.4976 Y0.7653 
G01 X1.4960 Y0.7646 
G01 X1.4843 Y0.7646 
G01 X1.4827 Y0.7653 
G01 X1.4814 Y0.7665 
G01 X1.4807 Y0.7682 
G01 X1.4807 Y0.7965 
G01 X1.4807 Y0.7967 
G01 X1.4807 Y0.8500 
G01 X1.4806 Y0.8518 
G01 X1.4807 Y0.8519 
G01 X1.4807 Y0.8520 
G01 X1.4813 Y0.8537 
G01 X1.4883 Y0.8720 
G01 X1.4862 Y0.8757 
G01 X1.4850 Y0.8802 
G01 X1.4850 Y0.8848 
G01 X1.4862 Y0.8893 
G01 X1.4863 Y0.8895 
G01 X1.4838 Y0.8895 
G01 X1.4807 Y0.8908 
G01 X1.4800 Y0.8915 
G01 X1.4800 Y0.7967 
G01 X1.4799 Y0.7965 
G01 X1.4799 Y0.7682 
G01 X1.4792 Y0.7665 
G01 X1.4779 Y0.7653 
G01 X1.4763 Y0.7646 
G01 X1.4647 Y0.7646 
G01 X1.4630 Y0.7653 
G01 X1.4617 Y0.7665 
G01 X1.4611 Y0.7682 
G01 X1.4611 Y0.7965 
G01 X1.4610 Y0.7967 
G01 X1.4610 Y0.8316 
G01 X1.4603 Y0.8309 
G01 X1.4595 Y0.8306 
G01 X1.4602 Y0.8290 
G00 Z0.1000 
G00 X1.5398 Y0.8290 
G01 Z-0.0070 F10.00 
G01 X1.5405 Y0.8307 F20.00 
G01 X1.5408 Y0.8310 
G01 X1.5390 Y0.8328 
G01 X1.5390 Y0.7967 
G01 X1.5389 Y0.7965 
G01 X1.5389 Y0.7682 
G01 X1.5383 Y0.7666 
G01 X1.5390 Y0.7663 
G01 X1.5403 Y0.7651 
G01 X1.5404 Y0.7649 
G01 X1.5404 Y0.7668 
G01 X1.5398 Y0.7682 
G01 X1.5398 Y0.7947 
G01 X1.5397 Y0.8003 
G01 X1.5398 Y0.8006 
G01 X1.5398 Y0.8290 
G00 Z0.1000 
G00 X1.5586 Y0.8278 
G01 Z-0.0070 F10.00 
G01 X1.5586 Y0.8008 F20.00 
G01 X1.5595 Y0.7623 
G01 X1.5595 Y0.7618 
G01 X1.5612 Y0.7575 
G01 X1.5623 Y0.7575 
G01 X1.5668 Y0.7563 
G01 X1.5707 Y0.7540 
G01 X1.5740 Y0.7507 
G01 X1.5763 Y0.7468 
G01 X1.5775 Y0.7423 
G01 X1.5775 Y0.7377 
G01 X1.5763 Y0.7332 
G01 X1.5740 Y0.7293 
G01 X1.5707 Y0.7260 
G01 X1.5668 Y0.7237 
G01 X1.5654 Y0.7233 
G01 X1.5667 Y0.7220 
G01 X1.5671 Y0.7224 
G01 X1.5688 Y0.7231 
G01 X1.6021 Y0.7231 
G01 X1.6022 Y0.7231 
G01 X1.6022 Y0.7232 
G01 X1.6022 Y0.7249 
G01 X1.6028 Y0.7263 
G01 X1.6034 Y0.7278 
G01 X1.6023 Y0.7275 
G01 X1.5977 Y0.7275 
G01 X1.5932 Y0.7287 
G01 X1.5893 Y0.7310 
G01 X1.5860 Y0.7343 
G01 X1.5837 Y0.7382 
G01 X1.5825 Y0.7427 
G01 X1.5825 Y0.7473 
G01 X1.5837 Y0.7518 
G01 X1.5860 Y0.7557 
G01 X1.5893 Y0.7590 
G01 X1.5932 Y0.7613 
G01 X1.5975 Y0.7624 
G01 X1.5988 Y0.7653 
G01 X1.5988 Y0.8005 
G01 X1.5988 Y0.8007 
G01 X1.5988 Y0.8290 
G01 X1.5995 Y0.8306 
G01 X1.5988 Y0.8309 
G01 X1.5981 Y0.8316 
G01 X1.5981 Y0.7967 
G01 X1.5980 Y0.7965 
G01 X1.5980 Y0.7682 
G01 X1.5973 Y0.7665 
G01 X1.5961 Y0.7653 
G01 X1.5944 Y0.7646 
G01 X1.5828 Y0.7646 
G01 X1.5811 Y0.7653 
G01 X1.5798 Y0.7665 
G01 X1.5792 Y0.7682 
G01 X1.5792 Y0.7965 
G01 X1.5791 Y0.7967 
G01 X1.5791 Y0.8306 
G01 X1.5784 Y0.8299 
G01 X1.5780 Y0.8298 
G01 X1.5783 Y0.8290 
G01 X1.5783 Y0.7682 
G01 X1.5776 Y0.7665 
G01 X1.5764 Y0.7653 
G01 X1.5747 Y0.7646 
G01 X1.5631 Y0.7646 
G01 X1.5614 Y0.7653 
G01 X1.5602 Y0.7665 
G01 X1.5595 Y0.7682 
G01 X1.5595 Y0.8278 
G01 X1.5586 Y0.8278 
G00 Z0.1000 
G00 X1.6177 Y0.8290 
G01 Z-0.0070 F10.00 
G01 X1.6177 Y0.8007 F20.00 
G01 X1.6178 Y0.8005 
G01 X1.6178 Y0.7656 
G01 X1.6185 Y0.7663 
G01 X1.6192 Y0.7666 
G01 X1.6185 Y0.7682 
G01 X1.6185 Y0.8290 
G01 X1.6192 Y0.8307 
G01 X1.6195 Y0.8309 
G01 X1.6195 Y0.8316 
G01 X1.6188 Y0.8309 
G01 X1.6172 Y0.8303 
G01 X1.6177 Y0.8290 
G00 Z0.1000 
G00 X1.6374 Y0.8290 
G01 Z-0.0070 F10.00 
G01 X1.6374 Y0.7684 F20.00 
G01 X1.6382 Y0.7684 
G01 X1.6382 Y0.7965 
G01 X1.6381 Y0.7967 
G01 X1.6381 Y0.8005 
G01 X1.6382 Y0.8007 
G01 X1.6382 Y0.8290 
G01 X1.6387 Y0.8303 
G01 X1.6371 Y0.8309 
G01 X1.6365 Y0.8316 
G01 X1.6365 Y0.8309 
G01 X1.6367 Y0.8307 
G01 X1.6374 Y0.8290 
G00 Z0.1000 
G00 X1.6571 Y0.7878 
G01 Z-0.0070 F10.00 
G01 X1.6571 Y0.7814 F20.00 
G01 X1.6577 Y0.7821 
G01 X1.6608 Y0.7834 
G01 X1.6642 Y0.7834 
G01 X1.6674 Y0.7821 
G01 X1.6675 Y0.7820 
G01 X1.6678 Y0.7817 
G01 X1.6675 Y0.7827 
G01 X1.6675 Y0.7828 
G01 X1.6571 Y0.7878 
G00 Z0.1000 
G00 X1.6972 Y0.8868 
G01 Z-0.0070 F10.00 
G01 X1.7243 Y0.8868 F20.00 
G01 X1.7245 Y0.8869 
G01 X1.7283 Y0.8869 
G01 X1.7285 Y0.8868 
G01 X1.7556 Y0.8868 
G01 X1.7556 Y0.8876 
G01 X1.6972 Y0.8876 
G01 X1.6972 Y0.8868 
G00 Z0.1000 
G00 X1.6960 Y0.9065 
G01 Z-0.0070 F10.00 
G01 X1.7568 Y0.9065 F20.00 
G01 X1.7575 Y0.9062 
G01 X1.7577 Y0.9065 
G01 X1.7584 Y0.9072 
G01 X1.7282 Y0.9072 
G01 X1.7263 Y0.9072 
G01 X1.7245 Y0.9072 
G01 X1.7149 Y0.9073 
G01 X1.6960 Y0.9073 
G01 X1.6956 Y0.9074 
G01 X1.6944 Y0.9075 
G01 X1.6951 Y0.9068 
G01 X1.6953 Y0.9062 
G01 X1.6960 Y0.9065 
G00 Z0.1000 
G00 X1.6960 Y0.9270 
G01 Z-0.0070 F10.00 
G01 X1.6946 Y0.9276 F20.00 
G01 X1.6733 Y0.9280 
G01 X1.6725 Y0.9278 
G01 X1.6714 Y0.9280 
G01 X1.6704 Y0.9280 
G01 X1.6696 Y0.9284 
G01 X1.6688 Y0.9286 
G01 X1.6679 Y0.9291 
G01 X1.6669 Y0.9296 
G01 X1.6663 Y0.9302 
G01 X1.6579 Y0.9358 
G01 X1.6548 Y0.9350 
G01 X1.6502 Y0.9350 
G01 X1.6480 Y0.9356 
G01 X1.6486 Y0.9340 
G01 X1.6486 Y0.9323 
G01 X1.6486 Y0.9306 
G01 X1.6480 Y0.9290 
G01 X1.6474 Y0.9275 
G01 X1.6466 Y0.9268 
G01 X1.7264 Y0.9262 
G01 X1.7877 Y0.9262 
G01 X1.7871 Y0.9269 
G01 X1.7858 Y0.9300 
G01 X1.7858 Y0.9334 
G01 X1.7823 Y0.9325 
G01 X1.7777 Y0.9325 
G01 X1.7732 Y0.9337 
G01 X1.7693 Y0.9360 
G01 X1.7660 Y0.9393 
G01 X1.7637 Y0.9432 
G01 X1.7628 Y0.9466 
G01 X1.7245 Y0.9466 
G01 X1.7243 Y0.9467 
G01 X1.6960 Y0.9467 
G01 X1.6943 Y0.9474 
G01 X1.6930 Y0.9486 
G01 X1.6924 Y0.9503 
G01 X1.6924 Y0.9619 
G01 X1.6930 Y0.9636 
G01 X1.6943 Y0.9648 
G01 X1.6960 Y0.9655 
G01 X1.7243 Y0.9655 
G01 X1.7245 Y0.9656 
G01 X1.7594 Y0.9656 
G01 X1.7587 Y0.9663 
G01 X1.7584 Y0.9670 
G01 X1.7568 Y0.9664 
G01 X1.7285 Y0.9664 
G01 X1.7283 Y0.9663 
G01 X1.6731 Y0.9663 
G01 X1.6727 Y0.9662 
G01 X1.6713 Y0.9663 
G01 X1.6698 Y0.9663 
G01 X1.6694 Y0.9665 
G01 X1.6689 Y0.9665 
G01 X1.6677 Y0.9672 
G01 X1.6663 Y0.9677 
G01 X1.6660 Y0.9681 
G01 X1.6656 Y0.9683 
G01 X1.6647 Y0.9694 
G01 X1.6637 Y0.9704 
G01 X1.6635 Y0.9708 
G01 X1.6610 Y0.9738 
G01 X1.6608 Y0.9734 
G01 X1.6608 Y0.9730 
G01 X1.6602 Y0.9719 
G01 X1.6597 Y0.9707 
G01 X1.6594 Y0.9704 
G01 X1.6592 Y0.9700 
G01 X1.6582 Y0.9692 
G01 X1.6593 Y0.9688 
G01 X1.6632 Y0.9665 
G01 X1.6665 Y0.9632 
G01 X1.6688 Y0.9593 
G01 X1.6700 Y0.9548 
G01 X1.6700 Y0.9506 
G01 X1.6754 Y0.9469 
G01 X1.7285 Y0.9459 
G01 X1.7568 Y0.9458 
G01 X1.7585 Y0.9452 
G01 X1.7597 Y0.9439 
G01 X1.7604 Y0.9422 
G01 X1.7604 Y0.9306 
G01 X1.7597 Y0.9289 
G01 X1.7585 Y0.9277 
G01 X1.7568 Y0.9270 
G01 X1.7284 Y0.9270 
G01 X1.7281 Y0.9269 
G01 X1.7224 Y0.9270 
G01 X1.6960 Y0.9270 
G00 Z0.1000 
G00 X1.6960 Y1.0254 
G01 Z-0.0070 F10.00 
G01 X1.6943 Y1.0261 F20.00 
G01 X1.6930 Y1.0274 
G01 X1.6924 Y1.0290 
G01 X1.6924 Y1.0407 
G01 X1.6930 Y1.0423 
G01 X1.6943 Y1.0436 
G01 X1.6960 Y1.0443 
G01 X1.7243 Y1.0443 
G01 X1.7245 Y1.0443 
G01 X1.7634 Y1.0443 
G01 X1.7657 Y1.0498 
G01 X1.7637 Y1.0532 
G01 X1.7625 Y1.0577 
G01 X1.7625 Y1.0623 
G01 X1.7637 Y1.0668 
G01 X1.7660 Y1.0707 
G01 X1.7693 Y1.0740 
G01 X1.7732 Y1.0763 
G01 X1.7777 Y1.0775 
G01 X1.7823 Y1.0775 
G01 X1.7868 Y1.0763 
G01 X1.7907 Y1.0740 
G01 X1.7940 Y1.0707 
G01 X1.7963 Y1.0668 
G01 X1.7975 Y1.0623 
G01 X1.7975 Y1.0577 
G01 X1.7963 Y1.0532 
G01 X1.7940 Y1.0493 
G01 X1.7907 Y1.0460 
G01 X1.7868 Y1.0437 
G01 X1.7833 Y1.0428 
G01 X1.7793 Y1.0330 
G01 X1.7786 Y1.0312 
G01 X1.7779 Y1.0295 
G01 X1.7766 Y1.0282 
G01 X1.7753 Y1.0268 
G01 X1.7735 Y1.0261 
G01 X1.7718 Y1.0254 
G01 X1.7699 Y1.0253 
G01 X1.7680 Y1.0253 
G01 X1.7245 Y1.0253 
G01 X1.7243 Y1.0254 
G01 X1.6960 Y1.0254 
G00 Z0.1000 
G00 X1.6960 Y1.0451 
G01 Z-0.0070 F10.00 
G01 X1.6943 Y1.0458 F20.00 
G01 X1.6930 Y1.0471 
G01 X1.6924 Y1.0487 
G01 X1.6924 Y1.0603 
G01 X1.6930 Y1.0620 
G01 X1.6943 Y1.0633 
G01 X1.6960 Y1.0639 
G01 X1.7568 Y1.0639 
G01 X1.7585 Y1.0633 
G01 X1.7597 Y1.0620 
G01 X1.7604 Y1.0603 
G01 X1.7604 Y1.0487 
G01 X1.7597 Y1.0471 
G01 X1.7585 Y1.0458 
G01 X1.7568 Y1.0451 
G01 X1.6960 Y1.0451 
G00 Z0.1000 
G00 X1.6764 Y1.0647 
G01 Z-0.0070 F10.00 
G01 X1.6729 Y1.0662 F20.00 
G01 X1.6587 Y1.0804 
G01 X1.6573 Y1.0800 
G01 X1.6527 Y1.0800 
G01 X1.6482 Y1.0812 
G01 X1.6443 Y1.0835 
G01 X1.6410 Y1.0868 
G01 X1.6387 Y1.0907 
G01 X1.6375 Y1.0952 
G01 X1.6375 Y1.0998 
G01 X1.6387 Y1.1043 
G01 X1.6410 Y1.1082 
G01 X1.6443 Y1.1115 
G01 X1.6482 Y1.1138 
G01 X1.6527 Y1.1150 
G01 X1.6573 Y1.1150 
G01 X1.6618 Y1.1138 
G01 X1.6657 Y1.1115 
G01 X1.6690 Y1.1082 
G01 X1.6713 Y1.1043 
G01 X1.6725 Y1.0998 
G01 X1.6725 Y1.0952 
G01 X1.6721 Y1.0938 
G01 X1.6822 Y1.0837 
G01 X1.7283 Y1.0837 
G01 X1.7285 Y1.0836 
G01 X1.7568 Y1.0836 
G01 X1.7585 Y1.0829 
G01 X1.7597 Y1.0817 
G01 X1.7604 Y1.0800 
G01 X1.7604 Y1.0684 
G01 X1.7597 Y1.0667 
G01 X1.7585 Y1.0655 
G01 X1.7568 Y1.0648 
G01 X1.7285 Y1.0648 
G01 X1.7283 Y1.0647 
G01 X1.6764 Y1.0647 
G00 Z0.1000 
G00 X1.6804 Y1.0861 
G01 Z-0.0070 F10.00 
G01 X1.6793 Y1.0873 F20.00 
G01 X1.6780 Y1.0885 
G01 X1.6780 Y1.0887 
G01 X1.6778 Y1.0888 
G01 X1.6773 Y1.0904 
G01 X1.6766 Y1.0920 
G01 X1.6766 Y1.0922 
G01 X1.6662 Y1.1204 
G01 X1.6632 Y1.1212 
G01 X1.6593 Y1.1235 
G01 X1.6560 Y1.1268 
G01 X1.6537 Y1.1307 
G01 X1.6525 Y1.1352 
G01 X1.6525 Y1.1398 
G01 X1.6537 Y1.1443 
G01 X1.6560 Y1.1482 
G01 X1.6593 Y1.1515 
G01 X1.6632 Y1.1538 
G01 X1.6677 Y1.1550 
G01 X1.6723 Y1.1550 
G01 X1.6768 Y1.1538 
G01 X1.6807 Y1.1515 
G01 X1.6840 Y1.1482 
G01 X1.6863 Y1.1443 
G01 X1.6875 Y1.1398 
G01 X1.6875 Y1.1352 
G01 X1.6863 Y1.1307 
G01 X1.6841 Y1.1269 
G01 X1.6927 Y1.1034 
G01 X1.7283 Y1.1034 
G01 X1.7285 Y1.1033 
G01 X1.7568 Y1.1033 
G01 X1.7585 Y1.1026 
G01 X1.7597 Y1.1014 
G01 X1.7604 Y1.0997 
G01 X1.7604 Y1.0881 
G01 X1.7597 Y1.0864 
G01 X1.7585 Y1.0852 
G01 X1.7568 Y1.0845 
G01 X1.7285 Y1.0845 
G01 X1.7283 Y1.0844 
G01 X1.6878 Y1.0844 
G01 X1.6876 Y1.0843 
G01 X1.6859 Y1.0844 
G01 X1.6842 Y1.0844 
G01 X1.6840 Y1.0845 
G01 X1.6838 Y1.0845 
G01 X1.6823 Y1.0852 
G01 X1.6807 Y1.0858 
G01 X1.6806 Y1.0860 
G01 X1.6804 Y1.0861 
G00 Z0.1000 
G00 X1.8480 Y1.0459 
G01 Z-0.0070 F10.00 
G01 X1.8516 Y1.0404 F20.00 
G01 X1.8572 Y1.0348 
G01 X1.8576 Y1.0346 
G01 X1.8584 Y1.0336 
G01 X1.8593 Y1.0327 
G01 X1.8595 Y1.0323 
G01 X1.8608 Y1.0307 
G01 X1.8995 Y1.0307 
G01 X1.9012 Y1.0300 
G01 X1.9024 Y1.0287 
G01 X1.9031 Y1.0271 
G01 X1.9031 Y1.0247 
G01 X1.9187 Y1.0371 
G01 X1.9196 Y1.0381 
G01 X1.9201 Y1.0383 
G01 X1.9206 Y1.0386 
G01 X1.9219 Y1.0390 
G01 X1.9231 Y1.0395 
G01 X1.9237 Y1.0395 
G01 X1.9242 Y1.0397 
G01 X1.9255 Y1.0395 
G01 X1.9991 Y1.0395 
G01 X2.0000 Y1.0397 
G01 X2.0009 Y1.0395 
G01 X2.0019 Y1.0395 
G01 X2.0028 Y1.0391 
G01 X2.0037 Y1.0390 
G01 X2.0045 Y1.0384 
G01 X2.0054 Y1.0381 
G01 X2.0061 Y1.0374 
G01 X2.0195 Y1.0284 
G01 X2.0204 Y1.0281 
G01 X2.0211 Y1.0274 
G01 X2.0218 Y1.0269 
G01 X2.0224 Y1.0261 
G01 X2.0231 Y1.0254 
G01 X2.0234 Y1.0245 
G01 X2.0239 Y1.0237 
G01 X2.0241 Y1.0228 
G01 X2.0245 Y1.0219 
G01 X2.0245 Y1.0209 
G01 X2.0247 Y1.0200 
G01 X2.0245 Y1.0191 
G01 X2.0245 Y0.9905 
G01 X2.0244 Y0.9902 
G01 X2.0245 Y0.9898 
G01 X2.0245 Y0.9472 
G01 X2.0257 Y0.9465 
G01 X2.0290 Y0.9432 
G01 X2.0313 Y0.9393 
G01 X2.0325 Y0.9348 
G01 X2.0325 Y0.9302 
G01 X2.0318 Y0.9276 
G01 X2.0328 Y0.9280 
G01 X2.0362 Y0.9280 
G01 X2.0393 Y0.9267 
G01 X2.0400 Y0.9260 
G01 X2.0400 Y0.9298 
G01 X2.0412 Y0.9343 
G01 X2.0435 Y0.9382 
G01 X2.0468 Y0.9415 
G01 X2.0480 Y0.9422 
G01 X2.0480 Y0.9629 
G01 X2.0478 Y0.9627 
G01 X2.0462 Y0.9620 
G01 X2.0306 Y0.9620 
G01 X2.0289 Y0.9627 
G01 X2.0277 Y0.9640 
G01 X2.0270 Y0.9656 
G01 X2.0270 Y1.0147 
G01 X2.0277 Y1.0163 
G01 X2.0289 Y1.0176 
G01 X2.0305 Y1.0182 
G01 X2.0305 Y1.0351 
G01 X2.0199 Y1.0426 
G01 X1.8958 Y1.0430 
G01 X1.8947 Y1.0428 
G01 X1.8939 Y1.0430 
G01 X1.8931 Y1.0430 
G01 X1.8921 Y1.0434 
G01 X1.8911 Y1.0437 
G01 X1.8904 Y1.0441 
G01 X1.8899 Y1.0443 
G01 X1.8505 Y1.0443 
G01 X1.8488 Y1.0450 
G01 X1.8480 Y1.0459 
G00 Z0.1000 
G00 X1.9512 Y1.0205 
G01 Z-0.0070 F10.00 
G01 X1.9519 Y1.0198 F20.00 
G01 X1.9528 Y1.0178 
G01 X1.9538 Y1.0183 
G01 X1.9694 Y1.0183 
G01 X1.9711 Y1.0176 
G01 X1.9723 Y1.0163 
G01 X1.9730 Y1.0147 
G01 X1.9730 Y0.9673 
G01 X1.9734 Y0.9675 
G01 X1.9750 Y0.9675 
G01 X1.9758 Y0.9675 
G01 X1.9758 Y1.0147 
G01 X1.9765 Y1.0163 
G01 X1.9778 Y1.0176 
G01 X1.9794 Y1.0183 
G01 X1.9950 Y1.0183 
G01 X1.9966 Y1.0176 
G01 X1.9979 Y1.0163 
G01 X1.9986 Y1.0147 
G01 X1.9986 Y0.9675 
G01 X1.9993 Y0.9675 
G01 X2.0010 Y0.9675 
G01 X2.0014 Y0.9673 
G01 X2.0014 Y1.0147 
G01 X2.0021 Y1.0163 
G01 X2.0026 Y1.0168 
G01 X1.9971 Y1.0205 
G01 X1.9512 Y1.0205 
G00 Z0.1000 
G00 X1.9502 Y0.9675 
G01 Z-0.0070 F10.00 
G01 X1.9455 Y0.9634 F20.00 
G01 X1.9455 Y0.9556 
G01 X1.9464 Y0.9554 
G01 X1.9475 Y0.9547 
G01 X1.9487 Y0.9542 
G01 X1.9485 Y0.9548 
G01 X1.9485 Y0.9550 
G01 X1.9484 Y0.9551 
G01 X1.9485 Y0.9566 
G01 X1.9485 Y0.9582 
G01 X1.9485 Y0.9583 
G01 X1.9485 Y0.9584 
G01 X1.9492 Y0.9599 
G01 X1.9498 Y0.9614 
G01 X1.9499 Y0.9615 
G01 X1.9510 Y0.9626 
G01 X1.9517 Y0.9632 
G01 X1.9509 Y0.9640 
G01 X1.9502 Y0.9656 
G01 X1.9502 Y0.9675 
G00 Z0.1000 
G00 X1.8500 Y0.9064 
G01 Z-0.0070 F10.00 
G01 X1.8481 Y0.9069 F20.00 
G01 X1.8476 Y0.9072 
G01 X1.7943 Y0.9072 
G01 X1.7950 Y0.9065 
G01 X1.7954 Y0.9056 
G01 X1.7963 Y0.9034 
G01 X1.7963 Y0.9000 
G01 X1.7961 Y0.8996 
G01 X1.8356 Y0.8996 
G01 X1.8372 Y0.8989 
G01 X1.8385 Y0.8977 
G01 X1.8392 Y0.8960 
G01 X1.8392 Y0.8900 
G01 X1.8500 Y0.8900 
G01 X1.8500 Y0.9064 
G00 Z0.1000 
G00 X1.8500 Y0.8570 
G01 Z-0.0070 F10.00 
G01 X1.8392 Y0.8570 F20.00 
G01 X1.8392 Y0.8542 
G01 X1.8397 Y0.8547 
G01 X1.8428 Y0.8560 
G01 X1.8462 Y0.8560 
G01 X1.8494 Y0.8547 
G01 X1.8500 Y0.8540 
G01 X1.8500 Y0.8570 
G00 Z0.1000 
G00 X1.9730 Y0.7818 
G01 Z-0.0070 F10.00 
G01 X1.9730 Y0.7683 F20.00 
G01 X1.9758 Y0.7683 
G01 X1.9758 Y0.7818 
G01 X1.9744 Y0.7818 
G01 X1.9730 Y0.7818 
G00 Z0.1000 
G00 X1.9986 Y0.7818 
G01 Z-0.0070 F10.00 
G01 X1.9986 Y0.7683 F20.00 
G01 X2.0014 Y0.7683 
G01 X2.0014 Y0.7818 
G01 X1.9986 Y0.7818 
G00 Z0.1000 
G00 X2.0242 Y0.7818 
G01 Z-0.0070 F10.00 
G01 X2.0242 Y0.7683 F20.00 
G01 X2.0270 Y0.7683 
G01 X2.0270 Y0.7818 
G01 X2.0242 Y0.7818 
G00 Z0.1000 
G00 X2.0242 Y0.7513 
G01 Z-0.0070 F10.00 
G01 X2.0242 Y0.7379 F20.00 
G01 X2.0270 Y0.7379 
G01 X2.0270 Y0.7513 
G01 X2.0242 Y0.7513 
G00 Z0.1000 
G00 X2.0014 Y0.7513 
G01 Z-0.0070 F10.00 
G01 X1.9986 Y0.7513 F20.00 
G01 X1.9986 Y0.7379 
G01 X2.0000 Y0.7379 
G01 X2.0014 Y0.7379 
G01 X2.0014 Y0.7513 
G00 Z0.1000 
G00 X1.9758 Y0.7513 
G01 Z-0.0070 F10.00 
G01 X1.9730 Y0.7513 F20.00 
G01 X1.9730 Y0.7379 
G01 X1.9744 Y0.7379 
G01 X1.9758 Y0.7379 
G01 X1.9758 Y0.7513 
G00 Z0.1000 
G00 X2.1488 Y0.7845 
G01 Z-0.0070 F10.00 
G01 X2.1488 Y0.7855 F20.00 
G01 X2.1494 Y0.7869 
G01 X2.1480 Y0.7863 
G01 X2.1470 Y0.7863 
G01 X2.1488 Y0.7845 
G00 Z0.1000 
G00 X2.2403 Y0.7807 
G01 Z-0.0070 F10.00 
G01 X2.2403 Y0.7799 F20.00 
G01 X2.2654 Y0.7799 
G01 X2.2654 Y0.7807 
G01 X2.2403 Y0.7807 
G00 Z0.1000 
G00 X2.2403 Y0.7996 
G01 Z-0.0070 F10.00 
G01 X2.2654 Y0.7996 F20.00 
G01 X2.2654 Y0.8004 
G01 X2.2403 Y0.8004 
G01 X2.2403 Y0.7996 
G00 Z0.1000 
G00 X2.2403 Y0.8193 
G01 Z-0.0070 F10.00 
G01 X2.2655 Y0.8193 F20.00 
G01 X2.2670 Y0.8187 
G01 X2.2674 Y0.8198 
G01 X2.2681 Y0.8205 
G01 X2.2665 Y0.8205 
G01 X2.2655 Y0.8201 
G01 X2.2549 Y0.8201 
G01 X2.2547 Y0.8200 
G01 X2.2509 Y0.8200 
G01 X2.2508 Y0.8201 
G01 X2.2403 Y0.8201 
G01 X2.2403 Y0.8193 
G00 Z0.1000 
G00 X2.2365 Y0.8335 
G01 Z-0.0070 F10.00 
G01 X2.2365 Y0.8353 F20.00 
G01 X2.2372 Y0.8370 
G01 X2.2385 Y0.8383 
G01 X2.2401 Y0.8389 
G01 X2.2501 Y0.8389 
G01 X2.2514 Y0.8395 
G01 X2.2803 Y0.8395 
G01 X2.2810 Y0.8407 
G01 X2.2843 Y0.8440 
G01 X2.2882 Y0.8463 
G01 X2.2927 Y0.8475 
G01 X2.2973 Y0.8475 
G01 X2.3018 Y0.8463 
G01 X2.3057 Y0.8440 
G01 X2.3090 Y0.8407 
G01 X2.3113 Y0.8368 
G01 X2.3125 Y0.8323 
G01 X2.3125 Y0.8277 
G01 X2.3113 Y0.8232 
G01 X2.3100 Y0.8210 
G01 X2.3117 Y0.8210 
G01 X2.3145 Y0.8198 
G01 X2.3145 Y0.8702 
G01 X2.3118 Y0.8691 
G01 X2.3083 Y0.8690 
G01 X2.3069 Y0.8696 
G01 X2.3075 Y0.8673 
G01 X2.3075 Y0.8627 
G01 X2.3063 Y0.8582 
G01 X2.3040 Y0.8543 
G01 X2.3007 Y0.8510 
G01 X2.2968 Y0.8487 
G01 X2.2923 Y0.8475 
G01 X2.2877 Y0.8475 
G01 X2.2832 Y0.8487 
G01 X2.2793 Y0.8510 
G01 X2.2760 Y0.8543 
G01 X2.2737 Y0.8582 
G01 X2.2731 Y0.8605 
G01 X2.2675 Y0.8605 
G01 X2.2672 Y0.8602 
G01 X2.2655 Y0.8595 
G01 X2.2549 Y0.8595 
G01 X2.2547 Y0.8594 
G01 X2.2509 Y0.8594 
G01 X2.2508 Y0.8595 
G01 X2.2401 Y0.8595 
G01 X2.2396 Y0.8597 
G01 X2.2402 Y0.8587 
G01 X2.2547 Y0.8587 
G01 X2.2549 Y0.8586 
G01 X2.2655 Y0.8586 
G01 X2.2672 Y0.8579 
G01 X2.2685 Y0.8567 
G01 X2.2691 Y0.8550 
G01 X2.2691 Y0.8434 
G01 X2.2685 Y0.8417 
G01 X2.2672 Y0.8405 
G01 X2.2655 Y0.8398 
G01 X2.2549 Y0.8398 
G01 X2.2547 Y0.8397 
G01 X2.2393 Y0.8397 
G01 X2.2390 Y0.8393 
G01 X2.2357 Y0.8360 
G01 X2.2340 Y0.8350 
G01 X2.2358 Y0.8342 
G01 X2.2365 Y0.8335 
G00 Z0.1000 
G00 X2.2365 Y0.8632 
G01 Z-0.0070 F10.00 
G01 X2.2365 Y0.8665 F20.00 
G01 X2.2358 Y0.8658 
G01 X2.2340 Y0.8650 
G01 X2.2357 Y0.8640 
G01 X2.2365 Y0.8632 
G00 Z0.1000 
G00 X2.2403 Y0.8783 
G01 Z-0.0070 F10.00 
G01 X2.2492 Y0.8783 F20.00 
G01 X2.2512 Y0.8792 
G01 X2.2403 Y0.8792 
G01 X2.2403 Y0.8783 
G00 Z0.1000 
G00 X2.2414 Y0.8980 
G01 Z-0.0070 F10.00 
G01 X2.2643 Y0.8980 F20.00 
G01 X2.2643 Y0.8988 
G01 X2.2414 Y0.8988 
G01 X2.2414 Y0.8980 
G00 Z0.1000 
G00 X2.2401 Y0.9177 
G01 Z-0.0070 F10.00 
G01 X2.2643 Y0.9177 F20.00 
G01 X2.2643 Y0.9185 
G01 X2.2550 Y0.9185 
G01 X2.2549 Y0.9185 
G01 X2.2385 Y0.9182 
G01 X2.2392 Y0.9176 
G01 X2.2392 Y0.9175 
G01 X2.2393 Y0.9173 
G01 X2.2401 Y0.9177 
G00 Z0.1000 
G00 X2.2401 Y0.9374 
G01 Z-0.0070 F10.00 
G01 X2.2472 Y0.9374 F20.00 
G01 X2.2546 Y0.9375 
G01 X2.2549 Y0.9374 
G01 X2.2643 Y0.9374 
G01 X2.2643 Y0.9382 
G01 X2.2401 Y0.9382 
G01 X2.2395 Y0.9385 
G01 X2.2393 Y0.9379 
G01 X2.2392 Y0.9378 
G01 X2.2386 Y0.9373 
G01 X2.2399 Y0.9373 
G01 X2.2401 Y0.9374 
G00 Z0.1000 
G00 X2.2918 Y0.9646 
G01 Z-0.0070 F10.00 
G01 X2.2926 Y0.9646 F20.00 
G01 X2.2926 Y0.9897 
G01 X2.2918 Y0.9897 
G01 X2.2918 Y0.9646 
G00 Z0.1000 
G00 X2.3115 Y0.9646 
G01 Z-0.0070 F10.00 
G01 X2.3123 Y0.9646 F20.00 
G01 X2.3123 Y0.9897 
G01 X2.3115 Y0.9897 
G01 X2.3115 Y0.9646 
G00 Z0.1000 
G00 X2.3312 Y0.9646 
G01 Z-0.0070 F10.00 
G01 X2.3320 Y0.9646 F20.00 
G01 X2.3320 Y0.9897 
G01 X2.3312 Y0.9897 
G01 X2.3312 Y0.9646 
G00 Z0.1000 
G00 X2.3508 Y0.9645 
G01 Z-0.0070 F10.00 
G01 X2.3502 Y0.9628 F20.00 
G01 X2.3489 Y0.9615 
G01 X2.3487 Y0.9615 
G01 X2.3500 Y0.9602 
G01 X2.3508 Y0.9583 
G01 X2.3513 Y0.9570 
G01 X2.3513 Y0.9561 
G01 X2.3518 Y0.9565 
G01 X2.3519 Y0.9566 
G01 X2.3508 Y0.9712 
G01 X2.3508 Y0.9645 
G00 Z0.1000 
G00 X2.3508 Y0.9788 
G01 Z-0.0070 F10.00 
G01 X2.3511 Y0.9794 F20.00 
G01 X2.3516 Y0.9808 
G01 X2.3517 Y0.9810 
G01 X2.3517 Y0.9897 
G01 X2.3508 Y0.9897 
G01 X2.3508 Y0.9788 
G00 Z0.1000 
G00 X2.3706 Y0.9791 
G01 Z-0.0070 F10.00 
G01 X2.3706 Y0.9753 F20.00 
G01 X2.3705 Y0.9751 
G01 X2.3705 Y0.9645 
G01 X2.3704 Y0.9642 
G01 X2.3709 Y0.9579 
G01 X2.3732 Y0.9565 
G01 X2.3737 Y0.9561 
G01 X2.3737 Y0.9570 
G01 X2.3742 Y0.9584 
G01 X2.3750 Y0.9602 
G01 X2.3757 Y0.9609 
G01 X2.3750 Y0.9609 
G01 X2.3733 Y0.9615 
G01 X2.3721 Y0.9628 
G01 X2.3714 Y0.9645 
G01 X2.3714 Y0.9751 
G01 X2.3713 Y0.9753 
G01 X2.3713 Y0.9956 
G01 X2.3707 Y0.9942 
G01 X2.3695 Y0.9929 
G01 X2.3690 Y0.9924 
G01 X2.3698 Y0.9915 
G01 X2.3705 Y0.9899 
G01 X2.3705 Y0.9792 
G01 X2.3706 Y0.9791 
G00 Z0.1000 
G00 X2.3903 Y0.9753 
G01 Z-0.0070 F10.00 
G01 X2.3902 Y0.9751 F20.00 
G01 X2.3902 Y0.9646 
G01 X2.3911 Y0.9646 
G01 X2.3911 Y0.9899 
G01 X2.3917 Y0.9915 
G01 X2.3930 Y0.9928 
G01 X2.3947 Y0.9935 
G01 X2.4000 Y0.9935 
G01 X2.3993 Y0.9942 
G01 X2.3983 Y0.9966 
G01 X2.3980 Y0.9973 
G01 X2.3980 Y0.9983 
G01 X2.3957 Y0.9960 
G01 X2.3918 Y0.9937 
G01 X2.3903 Y0.9933 
G01 X2.3903 Y0.9753 
G00 Z0.1000 
G00 X2.4099 Y0.9646 
G01 Z-0.0070 F10.00 
G01 X2.4107 Y0.9646 F20.00 
G01 X2.4107 Y0.9897 
G01 X2.4099 Y0.9897 
G01 X2.4099 Y0.9646 
G00 Z0.1000 
G00 X2.4296 Y0.9657 
G01 Z-0.0070 F10.00 
G01 X2.4304 Y0.9657 F20.00 
G01 X2.4304 Y0.9886 
G01 X2.4296 Y0.9886 
G01 X2.4296 Y0.9657 
G00 Z0.1000 
G00 X2.4493 Y0.9657 
G01 Z-0.0070 F10.00 
G01 X2.4501 Y0.9657 F20.00 
G01 X2.4501 Y0.9725 
G01 X2.4497 Y0.9731 
G01 X2.4493 Y0.9749 
G01 X2.4493 Y0.9657 
G00 Z0.1000 
G00 X2.4689 Y0.9646 
G01 Z-0.0070 F10.00 
G01 X2.4698 Y0.9646 F20.00 
G01 X2.4698 Y0.9749 
G01 X2.4693 Y0.9731 
G01 X2.4689 Y0.9725 
G01 X2.4689 Y0.9646 
G00 Z0.1000 
G00 X2.4886 Y0.9646 
G01 Z-0.0070 F10.00 
G01 X2.4895 Y0.9646 F20.00 
G01 X2.4895 Y0.9677 
G01 X2.4886 Y0.9677 
G01 X2.4886 Y0.9646 
G00 Z0.1000 
G00 X2.5083 Y0.9657 
G01 Z-0.0070 F10.00 
G01 X2.5092 Y0.9657 F20.00 
G01 X2.5092 Y0.9899 
G01 X2.5095 Y0.9906 
G01 X2.5091 Y0.9908 
G01 X2.5084 Y0.9915 
G01 X2.5084 Y0.9753 
G01 X2.5083 Y0.9751 
G01 X2.5083 Y0.9657 
G00 Z0.1000 
G00 X2.5280 Y0.9657 
G01 Z-0.0070 F10.00 
G01 X2.5288 Y0.9657 F20.00 
G01 X2.5288 Y0.9886 
G01 X2.5280 Y0.9886 
G01 X2.5280 Y0.9657 
G00 Z0.1000 
G00 X2.5477 Y0.9646 
G01 Z-0.0070 F10.00 
G01 X2.5485 Y0.9646 F20.00 
G01 X2.5485 Y0.9897 
G01 X2.5477 Y0.9897 
G01 X2.5477 Y0.9646 
G00 Z0.1000 
G00 X2.5674 Y0.9646 
G01 Z-0.0070 F10.00 
G01 X2.5682 Y0.9646 F20.00 
G01 X2.5682 Y0.9897 
G01 X2.5674 Y0.9897 
G01 X2.5674 Y0.9646 
G00 Z0.1000 
G00 X2.5946 Y0.9382 
G01 Z-0.0070 F10.00 
G01 X2.5946 Y0.9374 F20.00 
G01 X2.6197 Y0.9374 
G01 X2.6197 Y0.9382 
G01 X2.5946 Y0.9382 
G00 Z0.1000 
G00 X2.5946 Y0.9185 
G01 Z-0.0070 F10.00 
G01 X2.5946 Y0.9177 F20.00 
G01 X2.6197 Y0.9177 
G01 X2.6197 Y0.9185 
G01 X2.5946 Y0.9185 
G00 Z0.1000 
G00 X2.5946 Y0.8988 
G01 Z-0.0070 F10.00 
G01 X2.5946 Y0.8980 F20.00 
G01 X2.6197 Y0.8980 
G01 X2.6197 Y0.8988 
G01 X2.5946 Y0.8988 
G00 Z0.1000 
G00 X2.5909 Y0.8828 
G01 Z-0.0070 F10.00 
G01 X2.5902 Y0.8821 F20.00 
G01 X2.5897 Y0.8819 
G01 X2.5893 Y0.8816 
G01 X2.5881 Y0.8812 
G01 X2.5870 Y0.8808 
G01 X2.5865 Y0.8808 
G01 X2.5860 Y0.8806 
G01 X2.5852 Y0.8807 
G01 X2.5856 Y0.8804 
G01 X2.5858 Y0.8798 
G01 X2.5860 Y0.8795 
G01 X2.5936 Y0.8795 
G01 X2.5928 Y0.8798 
G01 X2.5915 Y0.8811 
G01 X2.5909 Y0.8828 
G00 Z0.1000 
G00 X2.6110 Y0.8792 
G01 Z-0.0070 F10.00 
G01 X2.6130 Y0.8783 F20.00 
G01 X2.6197 Y0.8783 
G01 X2.6197 Y0.8792 
G01 X2.6110 Y0.8792 
G00 Z0.1000 
G00 X2.6092 Y0.8595 
G01 Z-0.0070 F10.00 
G01 X2.6091 Y0.8594 F20.00 
G01 X2.6053 Y0.8594 
G01 X2.6051 Y0.8595 
G01 X2.5945 Y0.8595 
G01 X2.5935 Y0.8599 
G01 X2.5941 Y0.8585 
G01 X2.5945 Y0.8586 
G01 X2.6186 Y0.8586 
G01 X2.6186 Y0.8595 
G01 X2.6092 Y0.8595 
G00 Z0.1000 
G00 X2.6157 Y0.8398 
G01 Z-0.0070 F10.00 
G01 X2.6157 Y0.8389 F20.00 
G01 X2.6182 Y0.8389 
G01 X2.6182 Y0.8398 
G01 X2.6157 Y0.8398 
G00 Z0.1000 
G00 X2.5987 Y0.8398 
G01 Z-0.0070 F10.00 
G01 X2.5962 Y0.8398 F20.00 
G01 X2.5962 Y0.8389 
G01 X2.5987 Y0.8389 
G01 X2.5987 Y0.8398 
G00 Z0.1000 
G00 X2.5957 Y0.8201 
G01 Z-0.0070 F10.00 
G01 X2.5957 Y0.8193 F20.00 
G01 X2.6051 Y0.8193 
G01 X2.6053 Y0.8193 
G01 X2.6215 Y0.8193 
G01 X2.6208 Y0.8200 
G01 X2.6206 Y0.8204 
G01 X2.6199 Y0.8201 
G01 X2.5957 Y0.8201 
G00 Z0.1000 
G00 X2.5946 Y0.8004 
G01 Z-0.0070 F10.00 
G01 X2.5946 Y0.7996 F20.00 
G01 X2.6051 Y0.7996 
G01 X2.6053 Y0.7997 
G01 X2.6091 Y0.7997 
G01 X2.6092 Y0.7996 
G01 X2.6199 Y0.7996 
G01 X2.6201 Y0.7995 
G01 X2.6419 Y0.7995 
G01 X2.6454 Y0.7981 
G01 X2.6481 Y0.7954 
G01 X2.6582 Y0.7852 
G01 X2.6716 Y0.7852 
G01 X2.6716 Y0.7891 
G01 X2.6722 Y0.7908 
G01 X2.6718 Y0.7910 
G01 X2.6694 Y0.7934 
G01 X2.6686 Y0.7953 
G01 X2.6681 Y0.7966 
G01 X2.6681 Y0.7999 
G01 X2.6683 Y0.8003 
G01 X2.6053 Y0.8003 
G01 X2.6051 Y0.8004 
G01 X2.5946 Y0.8004 
G00 Z0.1000 
G00 X2.5957 Y0.7807 
G01 Z-0.0070 F10.00 
G01 X2.5957 Y0.7799 F20.00 
G01 X2.6199 Y0.7799 
G01 X2.6207 Y0.7796 
G01 X2.6208 Y0.7798 
G01 X2.6215 Y0.7805 
G01 X2.6054 Y0.7805 
G01 X2.6049 Y0.7807 
G01 X2.5957 Y0.7807 
G00 Z0.1000 
G00 X2.5957 Y0.7611 
G01 Z-0.0070 F10.00 
G01 X2.5957 Y0.7602 F20.00 
G01 X2.6186 Y0.7602 
G01 X2.6186 Y0.7611 
G01 X2.5957 Y0.7611 
G00 Z0.1000 
G00 X2.5957 Y0.7414 
G01 Z-0.0070 F10.00 
G01 X2.5957 Y0.7405 F20.00 
G01 X2.6186 Y0.7405 
G01 X2.6186 Y0.7414 
G01 X2.5957 Y0.7414 
G00 Z0.1000 
G00 X2.5957 Y0.7217 
G01 Z-0.0070 F10.00 
G01 X2.5957 Y0.7208 F20.00 
G01 X2.6186 Y0.7208 
G01 X2.6186 Y0.7217 
G01 X2.5957 Y0.7217 
G00 Z0.1000 
G00 X2.5946 Y0.7020 
G01 Z-0.0070 F10.00 
G01 X2.5946 Y0.7012 F20.00 
G01 X2.6197 Y0.7012 
G01 X2.6197 Y0.7020 
G01 X2.5946 Y0.7020 
G00 Z0.1000 
G00 X2.5946 Y0.6823 
G01 Z-0.0070 F10.00 
G01 X2.5946 Y0.6815 F20.00 
G01 X2.6197 Y0.6815 
G01 X2.6197 Y0.6823 
G01 X2.5946 Y0.6823 
G00 Z0.1000 
G00 X2.5946 Y0.6626 
G01 Z-0.0070 F10.00 
G01 X2.5946 Y0.6618 F20.00 
G01 X2.6197 Y0.6618 
G01 X2.6197 Y0.6626 
G01 X2.5946 Y0.6626 
G00 Z0.1000 
G00 X2.5682 Y0.6354 
G01 Z-0.0070 F10.00 
G01 X2.5674 Y0.6354 F20.00 
G01 X2.5674 Y0.6103 
G01 X2.5682 Y0.6103 
G01 X2.5682 Y0.6354 
G00 Z0.1000 
G00 X2.5485 Y0.6354 
G01 Z-0.0070 F10.00 
G01 X2.5477 Y0.6354 F20.00 
G01 X2.5477 Y0.6103 
G01 X2.5485 Y0.6103 
G01 X2.5485 Y0.6354 
G00 Z0.1000 
G00 X2.5288 Y0.6343 
G01 Z-0.0070 F10.00 
G01 X2.5280 Y0.6343 F20.00 
G01 X2.5280 Y0.6114 
G01 X2.5288 Y0.6114 
G01 X2.5288 Y0.6343 
G00 Z0.1000 
G00 X2.5092 Y0.6343 
G01 Z-0.0070 F10.00 
G01 X2.5083 Y0.6343 F20.00 
G01 X2.5083 Y0.6101 
G01 X2.5076 Y0.6085 
G01 X2.5074 Y0.6082 
G01 X2.5074 Y0.6057 
G01 X2.5076 Y0.6052 
G01 X2.5079 Y0.6062 
G01 X2.5082 Y0.6065 
G01 X2.5083 Y0.6068 
G01 X2.5093 Y0.6078 
G01 X2.5099 Y0.6085 
G01 X2.5092 Y0.6101 
G01 X2.5092 Y0.6343 
G00 Z0.1000 
G00 X2.4895 Y0.6354 
G01 Z-0.0070 F10.00 
G01 X2.4886 Y0.6354 F20.00 
G01 X2.4886 Y0.6260 
G01 X2.4887 Y0.6259 
G01 X2.4894 Y0.6244 
G01 X2.4894 Y0.6242 
G01 X2.4895 Y0.6240 
G01 X2.4895 Y0.6354 
G00 Z0.1000 
G00 X2.4698 Y0.6343 
G01 Z-0.0070 F10.00 
G01 X2.4689 Y0.6343 F20.00 
G01 X2.4689 Y0.6101 
G01 X2.4688 Y0.6097 
G01 X2.4700 Y0.6092 
G01 X2.4703 Y0.6090 
G01 X2.4698 Y0.6101 
G01 X2.4698 Y0.6208 
G01 X2.4697 Y0.6209 
G01 X2.4697 Y0.6247 
G01 X2.4698 Y0.6249 
G01 X2.4698 Y0.6343 
G00 Z0.1000 
G00 X2.4501 Y0.6343 
G01 Z-0.0070 F10.00 
G01 X2.4493 Y0.6343 F20.00 
G01 X2.4493 Y0.6249 
G01 X2.4493 Y0.6247 
G01 X2.4493 Y0.6085 
G01 X2.4500 Y0.6092 
G01 X2.4504 Y0.6094 
G01 X2.4501 Y0.6101 
G01 X2.4501 Y0.6343 
G00 Z0.1000 
G00 X2.4304 Y0.6354 
G01 Z-0.0070 F10.00 
G01 X2.4296 Y0.6354 F20.00 
G01 X2.4296 Y0.6249 
G01 X2.4297 Y0.6247 
G01 X2.4297 Y0.6209 
G01 X2.4296 Y0.6208 
G01 X2.4296 Y0.6101 
G01 X2.4295 Y0.6099 
G01 X2.4295 Y0.5887 
G01 X2.4297 Y0.5880 
G01 X2.4295 Y0.5868 
G01 X2.4295 Y0.5856 
G01 X2.4292 Y0.5849 
G01 X2.4291 Y0.5842 
G01 X2.4285 Y0.5832 
G01 X2.4281 Y0.5821 
G01 X2.4275 Y0.5816 
G01 X2.4210 Y0.5707 
G01 X2.4206 Y0.5696 
G01 X2.4200 Y0.5691 
G01 X2.4197 Y0.5685 
G01 X2.4187 Y0.5678 
G01 X2.4179 Y0.5669 
G01 X2.4172 Y0.5667 
G01 X2.4166 Y0.5662 
G01 X2.4155 Y0.5660 
G01 X2.4144 Y0.5655 
G01 X2.4137 Y0.5655 
G01 X2.4130 Y0.5653 
G01 X2.4118 Y0.5655 
G01 X2.4069 Y0.5655 
G01 X2.3970 Y0.5540 
G01 X2.3970 Y0.5193 
G01 X2.3970 Y0.5191 
G01 X2.3970 Y0.5174 
G01 X2.3970 Y0.5156 
G01 X2.3969 Y0.5155 
G01 X2.3969 Y0.5154 
G01 X2.3962 Y0.5137 
G01 X2.3956 Y0.5121 
G01 X2.3954 Y0.5119 
G01 X2.3950 Y0.5115 
G01 X2.3959 Y0.5115 
G01 X2.3973 Y0.5109 
G01 X2.3990 Y0.5102 
G01 X2.3997 Y0.5095 
G01 X2.3997 Y0.5507 
G01 X2.4004 Y0.5524 
G01 X2.4017 Y0.5536 
G01 X2.4033 Y0.5543 
G01 X2.4303 Y0.5543 
G01 X2.4303 Y0.6247 
G01 X2.4304 Y0.6249 
G01 X2.4304 Y0.6354 
G00 Z0.1000 
G00 X2.4107 Y0.6343 
G01 Z-0.0070 F10.00 
G01 X2.4099 Y0.6343 F20.00 
G01 X2.4099 Y0.6101 
G01 X2.4096 Y0.6093 
G01 X2.4098 Y0.6092 
G01 X2.4105 Y0.6085 
G01 X2.4105 Y0.6246 
G01 X2.4107 Y0.6251 
G01 X2.4107 Y0.6343 
G00 Z0.1000 
G00 X2.3911 Y0.6343 
G01 Z-0.0070 F10.00 
G01 X2.3902 Y0.6343 F20.00 
G01 X2.3902 Y0.6249 
G01 X2.3903 Y0.6247 
G01 X2.3903 Y0.6085 
G01 X2.3910 Y0.6092 
G01 X2.3914 Y0.6094 
G01 X2.3911 Y0.6101 
G01 X2.3911 Y0.6343 
G00 Z0.1000 
G00 X2.3714 Y0.6354 
G01 Z-0.0070 F10.00 
G01 X2.3705 Y0.6354 F20.00 
G01 X2.3705 Y0.6101 
G01 X2.3702 Y0.6093 
G01 X2.3713 Y0.6102 
G01 X2.3713 Y0.6247 
G01 X2.3714 Y0.6249 
G01 X2.3714 Y0.6354 
G00 Z0.1000 
G00 X2.3517 Y0.6354 
G01 Z-0.0070 F10.00 
G01 X2.3508 Y0.6354 F20.00 
G01 X2.3508 Y0.6101 
G01 X2.3502 Y0.6085 
G01 X2.3489 Y0.6072 
G01 X2.3472 Y0.6065 
G01 X2.3356 Y0.6065 
G01 X2.3339 Y0.6072 
G01 X2.3327 Y0.6085 
G01 X2.3320 Y0.6101 
G01 X2.3320 Y0.6354 
G01 X2.3312 Y0.6354 
G01 X2.3312 Y0.6101 
G01 X2.3305 Y0.6085 
G01 X2.3292 Y0.6072 
G01 X2.3275 Y0.6065 
G01 X2.3159 Y0.6065 
G01 X2.3143 Y0.6072 
G01 X2.3130 Y0.6085 
G01 X2.3123 Y0.6101 
G01 X2.3123 Y0.6355 
G01 X2.3130 Y0.6372 
G01 X2.3143 Y0.6385 
G01 X2.3159 Y0.6391 
G01 X2.3232 Y0.6391 
G01 X2.3225 Y0.6398 
G01 X2.3217 Y0.6417 
G01 X2.3212 Y0.6430 
G01 X2.3212 Y0.6439 
G01 X2.3207 Y0.6435 
G01 X2.3168 Y0.6412 
G01 X2.3123 Y0.6400 
G01 X2.3077 Y0.6400 
G01 X2.3032 Y0.6412 
G01 X2.2993 Y0.6435 
G01 X2.2960 Y0.6468 
G01 X2.2937 Y0.6507 
G01 X2.2925 Y0.6552 
G01 X2.2925 Y0.6566 
G01 X2.2785 Y0.6635 
G01 X2.2674 Y0.6635 
G01 X2.2672 Y0.6633 
G01 X2.2655 Y0.6626 
G01 X2.2401 Y0.6626 
G01 X2.2385 Y0.6633 
G01 X2.2372 Y0.6646 
G01 X2.2365 Y0.6662 
G01 X2.2365 Y0.6779 
G01 X2.2372 Y0.6795 
G01 X2.2385 Y0.6808 
G01 X2.2401 Y0.6815 
G01 X2.2655 Y0.6815 
G01 X2.2672 Y0.6808 
G01 X2.2674 Y0.6805 
G01 X2.2790 Y0.6805 
G01 X2.2793 Y0.6806 
G01 X2.2807 Y0.6805 
G01 X2.2821 Y0.6805 
G01 X2.2824 Y0.6804 
G01 X2.2827 Y0.6804 
G01 X2.2840 Y0.6798 
G01 X2.2853 Y0.6793 
G01 X2.2855 Y0.6791 
G01 X2.3000 Y0.6719 
G01 X2.3032 Y0.6738 
G01 X2.3077 Y0.6750 
G01 X2.3123 Y0.6750 
G01 X2.3168 Y0.6738 
G01 X2.3207 Y0.6715 
G01 X2.3240 Y0.6682 
G01 X2.3263 Y0.6643 
G01 X2.3267 Y0.6627 
G01 X2.3282 Y0.6642 
G01 X2.3313 Y0.6655 
G01 X2.3326 Y0.6655 
G01 X2.3318 Y0.6660 
G01 X2.3285 Y0.6693 
G01 X2.3262 Y0.6732 
G01 X2.3254 Y0.6762 
G01 X2.3020 Y0.6832 
G01 X2.2674 Y0.6832 
G01 X2.2672 Y0.6830 
G01 X2.2655 Y0.6823 
G01 X2.2401 Y0.6823 
G01 X2.2385 Y0.6830 
G01 X2.2372 Y0.6843 
G01 X2.2365 Y0.6859 
G01 X2.2365 Y0.6975 
G01 X2.2372 Y0.6992 
G01 X2.2385 Y0.7005 
G01 X2.2401 Y0.7012 
G01 X2.2655 Y0.7012 
G01 X2.2667 Y0.7007 
G01 X2.2664 Y0.7009 
G01 X2.2659 Y0.7022 
G01 X2.2655 Y0.7020 
G01 X2.2401 Y0.7020 
G01 X2.2385 Y0.7027 
G01 X2.2372 Y0.7039 
G01 X2.2365 Y0.7056 
G01 X2.2365 Y0.7172 
G01 X2.2372 Y0.7189 
G01 X2.2385 Y0.7202 
G01 X2.2396 Y0.7206 
G01 X2.2295 Y0.7206 
G01 X2.2295 Y0.6195 
G01 X2.2509 Y0.6020 
G01 X2.3615 Y0.6020 
G01 X2.3669 Y0.6065 
G01 X2.3553 Y0.6065 
G01 X2.3536 Y0.6072 
G01 X2.3524 Y0.6085 
G01 X2.3517 Y0.6101 
G01 X2.3517 Y0.6354 
G00 Z0.1000 
G00 X2.3115 Y0.6355 
G01 Z-0.0070 F10.00 
G01 X2.3115 Y0.6101 F20.00 
G01 X2.3108 Y0.6085 
G01 X2.3095 Y0.6072 
G01 X2.3079 Y0.6065 
G01 X2.2962 Y0.6065 
G01 X2.2946 Y0.6072 
G01 X2.2933 Y0.6085 
G01 X2.2926 Y0.6101 
G01 X2.2926 Y0.6355 
G01 X2.2933 Y0.6372 
G01 X2.2946 Y0.6385 
G01 X2.2962 Y0.6391 
G01 X2.3079 Y0.6391 
G01 X2.3095 Y0.6385 
G01 X2.3108 Y0.6372 
G01 X2.3115 Y0.6355 
G00 Z0.1000 
G00 X2.2918 Y0.6355 
G01 Z-0.0070 F10.00 
G01 X2.2918 Y0.6101 F20.00 
G01 X2.2911 Y0.6085 
G01 X2.2898 Y0.6072 
G01 X2.2882 Y0.6065 
G01 X2.2765 Y0.6065 
G01 X2.2749 Y0.6072 
G01 X2.2736 Y0.6085 
G01 X2.2729 Y0.6101 
G01 X2.2729 Y0.6355 
G01 X2.2736 Y0.6372 
G01 X2.2749 Y0.6385 
G01 X2.2765 Y0.6391 
G01 X2.2882 Y0.6391 
G01 X2.2898 Y0.6385 
G01 X2.2911 Y0.6372 
G01 X2.2918 Y0.6355 
G00 Z0.1000 
G00 X2.2672 Y0.6436 
G01 Z-0.0070 F10.00 
G01 X2.2655 Y0.6429 F20.00 
G01 X2.2401 Y0.6429 
G01 X2.2385 Y0.6436 
G01 X2.2372 Y0.6449 
G01 X2.2365 Y0.6465 
G01 X2.2365 Y0.6582 
G01 X2.2372 Y0.6598 
G01 X2.2385 Y0.6611 
G01 X2.2401 Y0.6618 
G01 X2.2655 Y0.6618 
G01 X2.2672 Y0.6611 
G01 X2.2685 Y0.6598 
G01 X2.2691 Y0.6582 
G01 X2.2691 Y0.6465 
G01 X2.2685 Y0.6449 
G01 X2.2672 Y0.6436 
G00 Z0.1000 
G00 X2.2643 Y0.7208 
G01 Z-0.0070 F10.00 
G01 X2.2643 Y0.7217 F20.00 
G01 X2.2575 Y0.7217 
G01 X2.2569 Y0.7213 
G01 X2.2551 Y0.7208 
G01 X2.2643 Y0.7208 
G00 Z0.1000 
G00 X2.2654 Y0.7405 
G01 Z-0.0070 F10.00 
G01 X2.2654 Y0.7414 F20.00 
G01 X2.2551 Y0.7414 
G01 X2.2569 Y0.7409 
G01 X2.2575 Y0.7405 
G01 X2.2654 Y0.7405 
G00 Z0.1000 
G00 X2.2654 Y0.7602 
G01 Z-0.0070 F10.00 
G01 X2.2654 Y0.7611 F20.00 
G01 X2.2403 Y0.7611 
G01 X2.2403 Y0.7602 
G01 X2.2654 Y0.7602 
G00 Z0.1000 
G00 X2.2396 Y0.7416 
G01 Z-0.0070 F10.00 
G01 X2.2385 Y0.7421 F20.00 
G01 X2.2382 Y0.7423 
G01 X2.2375 Y0.7416 
G01 X2.2396 Y0.7416 
G00 Z0.1000 
G00 X2.3181 Y0.7020 
G01 Z-0.0070 F10.00 
G01 X2.3175 Y0.7007 F20.00 
G01 X2.3172 Y0.7000 
G01 X2.3156 Y0.6984 
G01 X2.3148 Y0.6976 
G01 X2.3142 Y0.6973 
G01 X2.3303 Y0.6925 
G01 X2.3318 Y0.6940 
G01 X2.3357 Y0.6963 
G01 X2.3402 Y0.6975 
G01 X2.3448 Y0.6975 
G01 X2.3490 Y0.6964 
G01 X2.3490 Y0.6992 
G01 X2.3502 Y0.7020 
G01 X2.3181 Y0.7020 
G00 Z0.1000 
G00 X2.3180 Y0.8979 
G01 Z-0.0070 F10.00 
G01 X2.3181 Y0.8980 F20.00 
G01 X2.3287 Y0.8980 
G01 X2.3281 Y0.8980 
G01 X2.3269 Y0.8985 
G01 X2.3255 Y0.8989 
G01 X2.3251 Y0.8992 
G01 X2.3246 Y0.8994 
G01 X2.3237 Y0.9004 
G01 X2.3223 Y0.9000 
G01 X2.3177 Y0.9000 
G01 X2.3167 Y0.9003 
G01 X2.3172 Y0.8998 
G01 X2.3180 Y0.8979 
G00 Z0.1000 
G00 X2.3305 Y0.8980 
G01 Z-0.0070 F10.00 
G01 X2.5419 Y0.8980 F20.00 
G01 X2.5435 Y0.8973 
G01 X2.5448 Y0.8960 
G01 X2.5455 Y0.8944 
G01 X2.5455 Y0.8931 
G01 X2.5457 Y0.8931 
G01 X2.5461 Y0.8934 
G01 X2.5472 Y0.8938 
G01 X2.5483 Y0.8942 
G01 X2.5488 Y0.8942 
G01 X2.5493 Y0.8944 
G01 X2.5503 Y0.8942 
G01 X2.5454 Y0.9005 
G01 X2.3530 Y0.9005 
G01 X2.3324 Y0.8982 
G01 X2.3319 Y0.8980 
G01 X2.3305 Y0.8980 
G00 Z0.1000 
G00 X2.3540 Y0.9195 
G01 Z-0.0070 F10.00 
G01 X2.3710 Y0.9195 F20.00 
G01 X2.3703 Y0.9202 
G01 X2.3691 Y0.9232 
G01 X2.3690 Y0.9261 
G01 X2.3648 Y0.9250 
G01 X2.3602 Y0.9250 
G01 X2.3560 Y0.9261 
G01 X2.3560 Y0.9233 
G01 X2.3547 Y0.9202 
G01 X2.3540 Y0.9195 
G00 Z0.1000 
G00 X2.2675 Y0.8801 
G01 Z-0.0070 F10.00 
G01 X2.2672 Y0.8798 F20.00 
G01 X2.2664 Y0.8795 
G01 X2.2681 Y0.8795 
G01 X2.2675 Y0.8801 
G00 Z0.1000 
G00 X2.1608 Y0.9255 
G01 Z-0.0070 F10.00 
G01 X2.1608 Y0.9289 F20.00 
G01 X2.1587 Y0.9280 
G01 X2.1553 Y0.9280 
G01 X2.1540 Y0.9286 
G01 X2.1522 Y0.9293 
G01 X2.1515 Y0.9300 
G01 X2.1515 Y0.9255 
G01 X2.1608 Y0.9255 
G00 Z0.1000 
G00 X2.1608 Y0.9585 
G01 Z-0.0070 F10.00 
G01 X2.1608 Y0.9934 F20.00 
G01 X2.1598 Y0.9930 
G01 X2.1587 Y0.9926 
G01 X2.1570 Y0.9926 
G01 X2.1553 Y0.9926 
G01 X2.1545 Y0.9929 
G01 X2.1522 Y0.9939 
G01 X2.1515 Y0.9945 
G01 X2.1515 Y0.9574 
G01 X2.1522 Y0.9581 
G01 X2.1546 Y0.9591 
G01 X2.1553 Y0.9594 
G01 X2.1570 Y0.9594 
G01 X2.1587 Y0.9594 
G01 X2.1598 Y0.9589 
G01 X2.1608 Y0.9585 
G00 Z0.1000 
G00 X2.1497 Y1.0782 
G01 Z-0.0070 F10.00 
G01 X2.1538 Y1.0827 F20.00 
G01 X2.1478 Y1.0826 
G01 X2.1482 Y1.0822 
G01 X2.1483 Y1.0821 
G01 X2.1484 Y1.0820 
G01 X2.1490 Y1.0806 
G01 X2.1497 Y1.0792 
G01 X2.1497 Y1.0790 
G01 X2.1497 Y1.0789 
G01 X2.1497 Y1.0782 
G00 Z0.1000 
G00 X2.1462 Y1.2394 
G01 Z-0.0070 F10.00 
G01 X2.1459 Y1.2403 F20.00 
G01 X2.1452 Y1.2418 
G01 X2.1452 Y1.2419 
G01 X2.1452 Y1.2435 
G01 X2.1452 Y1.2451 
G01 X2.1452 Y1.2453 
G01 X2.1458 Y1.2468 
G01 X2.1464 Y1.2483 
G01 X2.1465 Y1.2484 
G01 X2.1471 Y1.2490 
G01 X2.1269 Y1.2486 
G01 X2.1276 Y1.2479 
G01 X2.1277 Y1.2478 
G01 X2.1283 Y1.2463 
G01 X2.1290 Y1.2448 
G01 X2.1290 Y1.2447 
G01 X2.1290 Y1.2431 
G01 X2.1290 Y1.2415 
G01 X2.1290 Y1.2413 
G01 X2.1284 Y1.2398 
G01 X2.1282 Y1.2394 
G01 X2.1462 Y1.2394 
G00 Z0.1000 
G00 X2.0722 Y1.2394 
G01 Z-0.0070 F10.00 
G01 X2.0718 Y1.2404 F20.00 
G01 X2.0718 Y1.2406 
G01 X2.0718 Y1.2422 
G01 X2.0717 Y1.2438 
G01 X2.0718 Y1.2439 
G01 X2.0724 Y1.2454 
G01 X2.0730 Y1.2469 
G01 X2.0731 Y1.2471 
G01 X2.0736 Y1.2476 
G01 X2.0507 Y1.2472 
G01 X2.0514 Y1.2465 
G01 X2.0515 Y1.2464 
G01 X2.0521 Y1.2449 
G01 X2.0527 Y1.2434 
G01 X2.0528 Y1.2433 
G01 X2.0528 Y1.2417 
G01 X2.0528 Y1.2400 
G01 X2.0528 Y1.2399 
G01 X2.0526 Y1.2394 
G01 X2.0722 Y1.2394 
G00 Z0.1000 
G00 X2.0779 Y1.2920 
G01 Z-0.0070 F10.00 
G01 X2.0803 Y1.2930 F20.00 
G01 X2.0837 Y1.2930 
G01 X2.0847 Y1.2926 
G01 X2.0847 Y1.3367 
G01 X2.0829 Y1.3367 
G01 X2.0821 Y1.3370 
G01 X2.0798 Y1.3379 
G01 X2.0791 Y1.3386 
G01 X2.0791 Y1.3115 
G01 X2.0780 Y1.3073 
G01 X2.0779 Y1.2920 
G00 Z0.1000 
G00 X2.1153 Y1.2926 
G01 Z-0.0070 F10.00 
G01 X2.1163 Y1.2930 F20.00 
G01 X2.1197 Y1.2930 
G01 X2.1221 Y1.2920 
G01 X2.1221 Y1.3072 
G01 X2.1209 Y1.3115 
G01 X2.1209 Y1.3386 
G01 X2.1202 Y1.3379 
G01 X2.1178 Y1.3370 
G01 X2.1171 Y1.3367 
G01 X2.1154 Y1.3367 
G01 X2.1153 Y1.2926 
G00 Z0.1000 
G00 X2.2167 Y1.3166 
G01 Z-0.0070 F10.00 
G01 X2.2215 Y1.3213 F20.00 
G01 X2.2147 Y1.3213 
G01 X2.2154 Y1.3207 
G01 X2.2167 Y1.3175 
G01 X2.2167 Y1.3166 
G00 Z0.1000 
G00 X1.9721 Y1.2330 
G01 Z-0.0070 F10.00 
G01 X1.9697 Y1.2320 F20.00 
G01 X1.9663 Y1.2320 
G01 X1.9653 Y1.2324 
G01 X1.9653 Y1.1883 
G01 X1.9671 Y1.1883 
G01 X1.9679 Y1.1880 
G01 X1.9702 Y1.1871 
G01 X1.9709 Y1.1864 
G01 X1.9709 Y1.2135 
G01 X1.9720 Y1.2177 
G01 X1.9721 Y1.2330 
G00 Z0.1000 
G00 X1.9347 Y1.2324 
G01 Z-0.0070 F10.00 
G01 X1.9337 Y1.2320 F20.00 
G01 X1.9303 Y1.2320 
G01 X1.9279 Y1.2330 
G01 X1.9279 Y1.1868 
G01 X1.9290 Y1.1857 
G01 X1.9306 Y1.1830 
G01 X1.9308 Y1.1835 
G01 X1.9332 Y1.1859 
G01 X1.9348 Y1.1866 
G01 X1.9347 Y1.1868 
G01 X1.9347 Y1.2324 
G00 Z0.1000 
G00 X1.9059 Y1.1601 
G01 Z-0.0070 F10.00 
G01 X1.9048 Y1.1607 F20.00 
G01 X1.9048 Y1.1596 
G01 X1.9059 Y1.1601 
G00 Z0.1000 
G00 X1.9032 Y1.1259 
G01 Z-0.0070 F10.00 
G01 X1.9031 Y1.1259 F20.00 
G01 X1.9031 Y1.1215 
G01 X1.9038 Y1.1218 
G01 X1.9053 Y1.1224 
G01 X1.9054 Y1.1224 
G01 X1.9055 Y1.1224 
G01 X1.9065 Y1.1224 
G01 X1.9032 Y1.1259 
G00 Z0.1000 
G00 X2.3790 Y1.0308 
G01 Z-0.0070 F10.00 
G01 X2.3790 Y1.0298 F20.00 
G01 X2.3790 Y1.0265 
G01 X2.3827 Y1.0275 
G01 X2.3873 Y1.0275 
G01 X2.3888 Y1.0271 
G01 X2.3878 Y1.0296 
G01 X2.3878 Y1.0308 
G01 X2.3790 Y1.0308 
G00 Z0.1000 
G00 X2.4700 Y1.0303 
G01 Z-0.0070 F10.00 
G01 X2.4700 Y0.9904 F20.00 
G01 X2.4705 Y0.9915 
G01 X2.4717 Y0.9928 
G01 X2.4734 Y0.9935 
G01 X2.4850 Y0.9935 
G01 X2.4867 Y0.9928 
G01 X2.4879 Y0.9915 
G01 X2.4886 Y0.9899 
G01 X2.4886 Y0.9867 
G01 X2.4894 Y0.9867 
G01 X2.4894 Y1.0207 
G01 X2.4893 Y1.0209 
G01 X2.4894 Y1.0226 
G01 X2.4894 Y1.0243 
G01 X2.4895 Y1.0245 
G01 X2.4895 Y1.0247 
G01 X2.4902 Y1.0262 
G01 X2.4908 Y1.0277 
G01 X2.4910 Y1.0279 
G01 X2.4911 Y1.0281 
G01 X2.4923 Y1.0292 
G01 X2.4935 Y1.0304 
G01 X2.4937 Y1.0305 
G01 X2.4939 Y1.0307 
G01 X2.4955 Y1.0312 
G01 X2.4970 Y1.0319 
G01 X2.4972 Y1.0319 
G01 X2.5079 Y1.0357 
G01 X2.5079 Y1.0556 
G01 X2.5086 Y1.0572 
G01 X2.5082 Y1.0575 
G01 X2.5058 Y1.0599 
G01 X2.5040 Y1.0568 
G01 X2.5007 Y1.0535 
G01 X2.4968 Y1.0512 
G01 X2.4923 Y1.0500 
G01 X2.4877 Y1.0500 
G01 X2.4840 Y1.0510 
G01 X2.4596 Y1.0510 
G01 X2.4596 Y1.0437 
G01 X2.4660 Y1.0373 
G01 X2.4679 Y1.0354 
G01 X2.4693 Y1.0330 
G01 X2.4700 Y1.0303 
G00 Z0.1000 
G00 X2.5084 Y1.0132 
G01 Z-0.0070 F10.00 
G01 X2.5084 Y1.0118 F20.00 
G01 X2.5089 Y1.0124 
G01 X2.5086 Y1.0128 
G01 X2.5084 Y1.0132 
G00 Z0.1000 
G00 X2.4490 Y0.9915 
G01 Z-0.0070 F10.00 
G01 X2.4487 Y0.9912 F20.00 
G01 X2.4490 Y0.9904 
G01 X2.4490 Y0.9915 
G00 Z0.1000 
G00 X2.6912 Y0.8371 
G01 Z-0.0070 F10.00 
G01 X2.6912 Y0.8131 F20.00 
G01 X2.6925 Y0.8136 
G01 X2.6959 Y0.8136 
G01 X2.6968 Y0.8132 
G01 X2.6972 Y0.8131 
G01 X2.6972 Y0.8376 
G01 X2.6975 Y0.8384 
G01 X2.6975 Y0.8391 
G01 X2.6968 Y0.8384 
G01 X2.6949 Y0.8376 
G01 X2.6937 Y0.8371 
G01 X2.6919 Y0.8371 
G01 X2.6912 Y0.8371 
G00 Z0.1000 
G00 X2.7168 Y0.8376 
G01 Z-0.0070 F10.00 
G01 X2.7168 Y0.8131 F20.00 
G01 X2.7181 Y0.8136 
G01 X2.7215 Y0.8136 
G01 X2.7227 Y0.8131 
G01 X2.7227 Y0.8371 
G01 X2.7220 Y0.8371 
G01 X2.7203 Y0.8371 
G01 X2.7189 Y0.8377 
G01 X2.7172 Y0.8384 
G01 X2.7165 Y0.8391 
G01 X2.7165 Y0.8384 
G01 X2.7168 Y0.8376 
G00 Z0.1000 
G00 X2.7168 Y0.7859 
G01 Z-0.0070 F10.00 
G01 X2.7168 Y0.7656 F20.00 
G01 X2.7174 Y0.7658 
G01 X2.7191 Y0.7658 
G01 X2.7207 Y0.7658 
G01 X2.7221 Y0.7652 
G01 X2.7227 Y0.7650 
G01 X2.7227 Y0.7865 
G01 X2.7220 Y0.7862 
G01 X2.7207 Y0.7857 
G01 X2.7190 Y0.7857 
G01 X2.7174 Y0.7857 
G01 X2.7168 Y0.7859 
G00 Z0.1000 
G00 X2.6972 Y0.7859 
G01 Z-0.0070 F10.00 
G01 X2.6966 Y0.7857 F20.00 
G01 X2.6949 Y0.7857 
G01 X2.6932 Y0.7857 
G01 X2.6918 Y0.7863 
G01 X2.6912 Y0.7865 
G01 X2.6912 Y0.7650 
G01 X2.6920 Y0.7653 
G01 X2.6932 Y0.7658 
G01 X2.6949 Y0.7658 
G01 X2.6966 Y0.7658 
G01 X2.6972 Y0.7656 
G01 X2.6972 Y0.7859 
G00 Z0.1000 
G00 X2.6414 Y0.5740 
G01 Z-0.0070 F10.00 
G01 X2.6110 Y0.5740 F20.00 
G01 X2.6119 Y0.5735 
G01 X2.6129 Y0.5731 
G01 X2.6135 Y0.5725 
G01 X2.6142 Y0.5720 
G01 X2.6148 Y0.5711 
G01 X2.6156 Y0.5704 
G01 X2.6159 Y0.5696 
G01 X2.6335 Y0.5447 
G01 X2.6368 Y0.5438 
G01 X2.6404 Y0.5417 
G01 X2.6404 Y0.5506 
G01 X2.6411 Y0.5522 
G01 X2.6423 Y0.5535 
G01 X2.6434 Y0.5540 
G01 X2.6433 Y0.5540 
G01 X2.6421 Y0.5553 
G01 X2.6414 Y0.5569 
G01 X2.6414 Y0.5740 
G00 Z0.1000 
G00 X2.6404 Y0.5133 
G01 Z-0.0070 F10.00 
G01 X2.6392 Y0.5126 F20.00 
G01 X2.6404 Y0.5121 
G01 X2.6404 Y0.5133 
G00 Z0.1000 
G00 X2.5468 Y0.5531 
G01 Z-0.0070 F10.00 
G01 X2.5475 Y0.5548 F20.00 
G01 X2.5482 Y0.5555 
G01 X2.4990 Y0.5555 
G01 X2.4987 Y0.5554 
G01 X2.4972 Y0.5555 
G01 X2.4956 Y0.5555 
G01 X2.4953 Y0.5556 
G01 X2.4949 Y0.5557 
G01 X2.4936 Y0.5564 
G01 X2.4921 Y0.5569 
G01 X2.4919 Y0.5572 
G01 X2.4877 Y0.5593 
G01 X2.4868 Y0.5587 
G01 X2.4823 Y0.5575 
G01 X2.4777 Y0.5575 
G01 X2.4732 Y0.5587 
G01 X2.4712 Y0.5599 
G01 X2.4712 Y0.5581 
G01 X2.4699 Y0.5550 
G01 X2.4692 Y0.5543 
G01 X2.4799 Y0.5543 
G01 X2.4816 Y0.5536 
G01 X2.4828 Y0.5524 
G01 X2.4835 Y0.5507 
G01 X2.4835 Y0.5317 
G01 X2.5008 Y0.5317 
G01 X2.5008 Y0.5500 
G01 X2.5015 Y0.5517 
G01 X2.5028 Y0.5529 
G01 X2.5044 Y0.5536 
G01 X2.5456 Y0.5536 
G01 X2.5468 Y0.5531 
G00 Z0.1000 
G00 X2.5071 Y0.5745 
G01 Z-0.0070 F10.00 
G01 X2.5059 Y0.5749 F20.00 
G01 X2.5056 Y0.5751 
G01 X2.5052 Y0.5753 
G01 X2.5043 Y0.5762 
G01 X2.5033 Y0.5770 
G01 X2.5031 Y0.5774 
G01 X2.5028 Y0.5777 
G01 X2.5023 Y0.5789 
G01 X2.4920 Y0.5985 
G01 X2.4917 Y0.5988 
G01 X2.4912 Y0.6000 
G01 X2.4906 Y0.6011 
G01 X2.4906 Y0.6015 
G01 X2.4912 Y0.5885 
G01 X2.4940 Y0.5857 
G01 X2.4963 Y0.5818 
G01 X2.4975 Y0.5773 
G01 X2.4975 Y0.5756 
G01 X2.4997 Y0.5745 
G01 X2.5071 Y0.5745 
G00 Z0.1000 
G00 X2.4904 Y0.6048 
G01 Z-0.0070 F10.00 
G01 X2.4904 Y0.6049 F20.00 
G01 X2.4904 Y0.6082 
G01 X2.4902 Y0.6084 
G01 X2.4904 Y0.6048 
G00 Z0.1000 
G00 X2.2265 Y0.5276 
G01 Z-0.0070 F10.00 
G01 X2.2258 Y0.5269 F20.00 
G01 X2.2241 Y0.5262 
G01 X2.2242 Y0.5260 
G01 X2.2242 Y0.4920 
G01 X2.2268 Y0.4931 
G01 X2.2265 Y0.4938 
G01 X2.2265 Y0.5276 
G00 Z0.1000 
G00 X2.2267 Y0.4567 
G01 Z-0.0070 F10.00 
G01 X2.2251 Y0.4567 F20.00 
G01 X2.2242 Y0.4571 
G01 X2.2242 Y0.4460 
G01 X2.2265 Y0.4460 
G01 X2.2265 Y0.4562 
G01 X2.2267 Y0.4567 
G00 Z0.1000 
G00 X2.2265 Y0.4270 
G01 Z-0.0070 F10.00 
G01 X2.2242 Y0.4270 F20.00 
G01 X2.2242 Y0.4140 
G01 X2.2235 Y0.4123 
G01 X2.2222 Y0.4111 
G01 X2.2206 Y0.4104 
G01 X2.1794 Y0.4104 
G01 X2.1778 Y0.4111 
G01 X2.1765 Y0.4123 
G01 X2.1764 Y0.4125 
G01 X2.1751 Y0.4112 
G01 X2.1720 Y0.4099 
G01 X2.1710 Y0.4099 
G01 X2.1864 Y0.3945 
G01 X2.3093 Y0.3945 
G01 X2.3086 Y0.3952 
G01 X2.3081 Y0.3963 
G01 X2.3067 Y0.3957 
G01 X2.2301 Y0.3957 
G01 X2.2284 Y0.3964 
G01 X2.2272 Y0.3976 
G01 X2.2265 Y0.3993 
G01 X2.2265 Y0.4270 
G00 Z0.1000 
G00 X2.3820 Y0.3579 
G01 Z-0.0070 F10.00 
G01 X2.3818 Y0.3570 F20.00 
G01 X2.3815 Y0.3565 
G01 X2.3813 Y0.3560 
G01 X2.3804 Y0.3552 
G01 X2.3799 Y0.3545 
G01 X2.3840 Y0.3545 
G01 X2.3820 Y0.3579 
G00 Z0.1000 
G00 X1.9535 Y0.4335 
G01 Z-0.0070 F10.00 
G01 X1.9528 Y0.4342 F20.00 
G01 X1.9522 Y0.4357 
G01 X1.9515 Y0.4373 
G01 X1.9515 Y0.4390 
G01 X1.9515 Y0.4407 
G01 X1.9519 Y0.4416 
G01 X1.9488 Y0.4403 
G01 X1.9425 Y0.4390 
G01 X1.9362 Y0.4390 
G01 X1.9300 Y0.4403 
G01 X1.9268 Y0.4416 
G01 X1.9272 Y0.4407 
G01 X1.9272 Y0.4390 
G01 X1.9272 Y0.4373 
G01 X1.9265 Y0.4357 
G01 X1.9259 Y0.4342 
G01 X1.9252 Y0.4335 
G01 X1.9535 Y0.4335 
G00 Z0.1000 
G00 X1.8756 Y0.4398 
G01 Z-0.0070 F10.00 
G01 X1.8756 Y0.4402 F20.00 
G01 X1.8755 Y0.4406 
G01 X1.8756 Y0.4419 
G01 X1.8756 Y0.4426 
G01 X1.8727 Y0.4414 
G01 X1.8756 Y0.4398 
G00 Z0.1000 
G00 X1.4913 Y0.6613 
G01 Z-0.0070 F10.00 
G01 X1.4913 Y0.6631 F20.00 
G01 X1.4926 Y0.6662 
G01 X1.4950 Y0.6686 
G01 X1.4952 Y0.6687 
G01 X1.4950 Y0.6688 
G01 X1.4943 Y0.6705 
G01 X1.4943 Y0.6880 
G01 X1.4935 Y0.6881 
G01 X1.4698 Y0.6905 
G01 X1.4688 Y0.6904 
G01 X1.4680 Y0.6907 
G01 X1.4672 Y0.6907 
G01 X1.4662 Y0.6913 
G01 X1.4652 Y0.6916 
G01 X1.4646 Y0.6921 
G01 X1.4638 Y0.6925 
G01 X1.4632 Y0.6934 
G01 X1.4457 Y0.7085 
G01 X1.4454 Y0.7087 
G01 X1.4443 Y0.7098 
G01 X1.4431 Y0.7108 
G01 X1.4430 Y0.7111 
G01 X1.4427 Y0.7113 
G01 X1.4421 Y0.7128 
G01 X1.4418 Y0.7134 
G01 X1.4419 Y0.7040 
G01 X1.4440 Y0.7020 
G01 X1.4913 Y0.6613 
G00 Z0.1000 
G00 X1.3724 Y0.6784 
G01 Z-0.0070 F10.00 
G01 X1.3726 Y0.6787 F20.00 
G01 X1.3730 Y0.6791 
G01 X1.3724 Y0.6797 
G01 X1.3724 Y0.6784 
G00 Z0.1000 
G00 X1.3724 Y0.6425 
G01 Z-0.0070 F10.00 
G01 X1.3724 Y0.6412 F20.00 
G01 X1.3730 Y0.6417 
G01 X1.3726 Y0.6421 
G01 X1.3724 Y0.6425 
G00 Z0.1000 
G00 X1.3973 Y0.7487 
G01 Z-0.0070 F10.00 
G01 X1.3981 Y0.7487 F20.00 
G01 X1.4012 Y0.7474 
G01 X1.4019 Y0.7467 
G01 X1.4019 Y0.7574 
G01 X1.4018 Y0.7570 
G01 X1.4017 Y0.7563 
G01 X1.4011 Y0.7553 
G01 X1.4007 Y0.7542 
G01 X1.4002 Y0.7537 
G01 X1.3985 Y0.7508 
G01 X1.3981 Y0.7496 
G01 X1.3976 Y0.7492 
G01 X1.3973 Y0.7487 
G00 Z0.1000 
G00 X1.1525 Y0.8008 
G01 Z-0.0070 F10.00 
G01 X1.1467 Y0.8008 F20.00 
G01 X1.1469 Y0.8006 
G01 X1.1482 Y0.7975 
G01 X1.1482 Y0.7965 
G01 X1.1525 Y0.8008 
G00 Z0.1000 
G00 X1.1591 Y0.8492 
G01 Z-0.0070 F10.00 
G01 X1.1593 Y0.8492 F20.00 
G01 X1.1593 Y0.8494 
G01 X1.1591 Y0.8492 
G00 Z0.1000 
G00 X1.1923 Y0.8527 
G01 Z-0.0070 F10.00 
G01 X1.1924 Y0.8528 F20.00 
G01 X1.1924 Y0.8529 
G01 X1.1922 Y0.8529 
G01 X1.1923 Y0.8527 
G00 Z0.1000 
G00 X1.2333 Y1.1629 
G01 Z-0.0070 F10.00 
G01 X1.2458 Y1.1627 F20.00 
G01 X1.2441 Y1.1630 
G01 X1.2436 Y1.1632 
G01 X1.2432 Y1.1632 
G01 X1.2415 Y1.1639 
G01 X1.2412 Y1.1642 
G01 X1.2411 Y1.1643 
G01 X1.2354 Y1.1688 
G01 X1.2355 Y1.1678 
G01 X1.2353 Y1.1672 
G01 X1.2353 Y1.1667 
G01 X1.2349 Y1.1656 
G01 X1.2346 Y1.1645 
G01 X1.2342 Y1.1641 
G01 X1.2340 Y1.1636 
G01 X1.2333 Y1.1629 
G00 Z0.1000 
G00 X1.3956 Y1.4072 
G01 Z-0.0070 F10.00 
G01 X1.3972 Y1.4078 F20.00 
G01 X1.3984 Y1.4084 
G01 X1.4018 Y1.4084 
G01 X1.4031 Y1.4078 
G01 X1.4049 Y1.4071 
G01 X1.4053 Y1.4067 
G01 X1.4050 Y1.4077 
G01 X1.4050 Y1.4123 
G01 X1.4053 Y1.4133 
G01 X1.4049 Y1.4129 
G01 X1.4018 Y1.4116 
G01 X1.3984 Y1.4116 
G01 X1.3956 Y1.4128 
G01 X1.3956 Y1.4072 
G00 Z0.1000 
G00 X1.3134 Y1.6759 
G01 Z-0.0070 F10.00 
G01 X1.3125 Y1.6781 F20.00 
G01 X1.3116 Y1.6828 
G01 X1.3116 Y1.7272 
G01 X1.3125 Y1.7319 
G01 X1.3134 Y1.7341 
G01 X1.3131 Y1.7340 
G01 X1.3096 Y1.7339 
G01 X1.3092 Y1.7341 
G01 X1.3101 Y1.7319 
G01 X1.3111 Y1.7272 
G01 X1.3111 Y1.6828 
G01 X1.3101 Y1.6781 
G01 X1.3092 Y1.6759 
G01 X1.3096 Y1.6761 
G01 X1.3130 Y1.6761 
G01 X1.3134 Y1.6759 
G00 Z0.1000 
G00 X1.2638 Y1.6769 
G01 Z-0.0070 F10.00 
G01 X1.2633 Y1.6781 F20.00 
G01 X1.2624 Y1.6828 
G01 X1.2624 Y1.7272 
G01 X1.2633 Y1.7319 
G01 X1.2638 Y1.7331 
G01 X1.2629 Y1.7328 
G01 X1.2621 Y1.7328 
