(.../Tools/pcb/gcode/pcb-gcode.ulp)
(Copyright 2005 - 2012 by John Johnson)
(See readme.txt for licensing terms.)
(This file generated from the board:)
(.../LagoVista.EaglePCB.Tests/picopter_tx.brd)
(Current profile is .../pcb/gcode/profiles/generic.pp  )
(This file generated 4/7/2017 14:08)
(Settings from pcb-machine.h)
(spindle on time = 3.0000)
(spindle speed = 20000.0000)
(tool change at 0.0000 0.0000 1.0000 )
(feed rate xy = F0.00  )
(feed rate z  = F20.00 )
(Z Axis Settings)
(  High     Up        Down     Drill)
(0.5000 	0.1000 	-0.0070 	-0.0320 )
(Settings from pcb-defaults.h)
(isolate min = 0.0010)
(isolate max = 0.0200)
(isolate step = 0.0050)
(Generated top outlines, top drill, bottom outlines, bottom drill, )
(Unit of measure: inch)
( Tool|       Size       |  Min Sub |  Max Sub |   Count )
( T01  0.254mm 0.0100in 0.0000in 0.0000in )
( T02  0.500mm 0.0197in 0.0000in 0.0000in )
( T03  0.889mm 0.0350in 0.0000in 0.0000in )
( T04  0.900mm 0.0354in 0.0000in 0.0000in )
( T05  1.000mm 0.0394in 0.0000in 0.0000in )
( T06  1.016mm 0.0400in 0.0000in 0.0000in )
( T07  1.397mm 0.0550in 0.0000in 0.0000in )
( T08  1.499mm 0.0590in 0.0000in 0.0000in )
( T09  2.794mm 0.1100in 0.0000in 0.0000in )
(Inch Mode)
G20
(Absolute Coordinates)
G90
S20000
G00 Z0.5000 
G00 X0.0000 Y0.0000 
M03
G04 P3.000000
M05
G00 Z1.0000 
M06 T01  ; 0.0100 
G01 Z0.0000 F20.00 
M06 
G00 Z0.1000 
M03
G04 P3.000000
G00 Z0.100000
G00 X0.0825 Y1.2425 
G01 Z-0.0320 F20.00 
G01 Z0.100000
(R0.1000  P1.000000)
G00 X0.2900 Y1.3200 
G01 Z-0.032000
G01 Z0.100000
G00 X0.3075 Y1.4100 
G01 Z-0.032000
G01 Z0.100000
G00 X0.4650 Y1.4025 
G01 Z-0.032000
G01 Z0.100000
G00 X0.4675 Y1.4975 
G01 Z-0.032000
G01 Z0.100000
G00 X0.4350 Y1.6325 
G01 Z-0.032000
G01 Z0.100000
G00 X0.3225 Y1.6400 
G01 Z-0.032000
G01 Z0.100000
G00 X0.3250 Y1.7500 
G01 Z-0.032000
G01 Z0.100000
G00 X0.1975 Y1.6625 
G01 Z-0.032000
G01 Z0.100000
G00 X0.1275 Y1.9025 
G01 Z-0.032000
G01 Z0.100000
G00 X0.4875 Y1.8075 
G01 Z-0.032000
G01 Z0.100000
G00 X0.5900 Y1.8125 
G01 Z-0.032000
G01 Z0.100000
G00 X0.7775 Y1.7625 
G01 Z-0.032000
G01 Z0.100000
G00 X0.8350 Y1.7275 
G01 Z-0.032000
G01 Z0.100000
G00 X0.9400 Y1.7375 
G01 Z-0.032000
G01 Z0.100000
G00 X0.9050 Y1.6075 
G01 Z-0.032000
G01 Z0.100000
G00 X0.9400 Y1.4350 
G01 Z-0.032000
G01 Z0.100000
G00 X1.1225 Y1.4200 
G01 Z-0.032000
G01 Z0.100000
G00 X1.2250 Y1.4225 
G01 Z-0.032000
G01 Z0.100000
G00 X1.2725 Y1.4700 
G01 Z-0.032000
G01 Z0.100000
G00 X1.3575 Y1.4600 
G01 Z-0.032000
G01 Z0.100000
G00 X1.4225 Y1.4100 
G01 Z-0.032000
G01 Z0.100000
G00 X1.4675 Y1.4050 
G01 Z-0.032000
G01 Z0.100000
G00 X1.4200 Y1.3575 
G01 Z-0.032000
G01 Z0.100000
G00 X1.4300 Y1.1775 
G01 Z-0.032000
G01 Z0.100000
G00 X1.3875 Y1.1525 
G01 Z-0.032000
G01 Z0.100000
G00 X1.4575 Y1.1175 
G01 Z-0.032000
G01 Z0.100000
G00 X1.4375 Y1.0725 
G01 Z-0.032000
G01 Z0.100000
G00 X1.3350 Y1.0700 
G01 Z-0.032000
G01 Z0.100000
G00 X1.3250 Y1.0050 
G01 Z-0.032000
G01 Z0.100000
G00 X1.3250 Y0.9700 
G01 Z-0.032000
G01 Z0.100000
G00 X1.3300 Y0.9275 
G01 Z-0.032000
G01 Z0.100000
G00 X1.3700 Y0.8500 
G01 Z-0.032000
G01 Z0.100000
G00 X1.5025 Y0.8825 
G01 Z-0.032000
G01 Z0.100000
G00 X1.5300 Y0.8550 
G01 Z-0.032000
G01 Z0.100000
G00 X1.5300 Y0.9275 
G01 Z-0.032000
G01 Z0.100000
G00 X1.6125 Y0.9525 
G01 Z-0.032000
G01 Z0.100000
G00 X1.6525 Y0.9525 
G01 Z-0.032000
G01 Z0.100000
G00 X1.6300 Y0.8600 
G01 Z-0.032000
G01 Z0.100000
G00 X1.6825 Y0.8425 
G01 Z-0.032000
G01 Z0.100000
G00 X1.7250 Y0.8200 
G01 Z-0.032000
G01 Z0.100000
G00 X1.6850 Y0.7850 
G01 Z-0.032000
G01 Z0.100000
G00 X1.6000 Y0.7450 
G01 Z-0.032000
G01 Z0.100000
G00 X1.5600 Y0.7400 
G01 Z-0.032000
G01 Z0.100000
G00 X1.5000 Y0.7450 
G01 Z-0.032000
G01 Z0.100000
G00 X1.2925 Y0.5725 
G01 Z-0.032000
G01 Z0.100000
G00 X1.3000 Y0.4825 
G01 Z-0.032000
G01 Z0.100000
G00 X1.2025 Y0.7000 
G01 Z-0.032000
G01 Z0.100000
G00 X1.2350 Y0.8075 
G01 Z-0.032000
G01 Z0.100000
G00 X1.2150 Y0.8900 
G01 Z-0.032000
G01 Z0.100000
G00 X1.2075 Y0.9275 
G01 Z-0.032000
G01 Z0.100000
G00 X1.2175 Y0.9875 
G01 Z-0.032000
G01 Z0.100000
G00 X1.1900 Y1.0150 
G01 Z-0.032000
G01 Z0.100000
G00 X1.1425 Y1.0725 
G01 Z-0.032000
G01 Z0.100000
G00 X1.1575 Y1.1250 
G01 Z-0.032000
G01 Z0.100000
G00 X1.1025 Y1.1125 
G01 Z-0.032000
G01 Z0.100000
G00 X1.0925 Y1.0450 
G01 Z-0.032000
G01 Z0.100000
G00 X1.2175 Y1.1025 
G01 Z-0.032000
G01 Z0.100000
G00 X1.2675 Y1.2325 
G01 Z-0.032000
G01 Z0.100000
G00 X1.5900 Y1.1825 
G01 Z-0.032000
G01 Z0.100000
G00 X1.6750 Y1.2050 
G01 Z-0.032000
G01 Z0.100000
G00 X1.6700 Y1.1375 
G01 Z-0.032000
G01 Z0.100000
G00 X1.6550 Y1.0975 
G01 Z-0.032000
G01 Z0.100000
G00 X1.6525 Y1.0500 
G01 Z-0.032000
G01 Z0.100000
G00 X1.6125 Y1.0475 
G01 Z-0.032000
G01 Z0.100000
G00 X1.5475 Y1.0350 
G01 Z-0.032000
G01 Z0.100000
G00 X1.7800 Y1.0600 
G01 Z-0.032000
G01 Z0.100000
G00 X1.8100 Y1.0375 
G01 Z-0.032000
G01 Z0.100000
G00 X1.7800 Y0.9500 
G01 Z-0.032000
G01 Z0.100000
G00 X1.8250 Y0.9450 
G01 Z-0.032000
G01 Z0.100000
G00 X1.9200 Y0.8600 
G01 Z-0.032000
G01 Z0.100000
G00 X1.9200 Y0.7900 
G01 Z-0.032000
G01 Z0.100000
G00 X2.0300 Y0.8275 
G01 Z-0.032000
G01 Z0.100000
G00 X2.0575 Y0.9275 
G01 Z-0.032000
G01 Z0.100000
G00 X2.0925 Y0.9500 
G01 Z-0.032000
G01 Z0.100000
G00 X2.0150 Y0.9325 
G01 Z-0.032000
G01 Z0.100000
G00 X2.2250 Y0.8500 
G01 Z-0.032000
G01 Z0.100000
G00 X2.2900 Y0.8650 
G01 Z-0.032000
G01 Z0.100000
G00 X2.2950 Y0.8300 
G01 Z-0.032000
G01 Z0.100000
G00 X2.2925 Y0.7425 
G01 Z-0.032000
G01 Z0.100000
G00 X2.3425 Y0.6800 
G01 Z-0.032000
G01 Z0.100000
G00 X2.3100 Y0.6575 
G01 Z-0.032000
G01 Z0.100000
G00 X2.4550 Y0.6625 
G01 Z-0.032000
G01 Z0.100000
G00 X2.4800 Y0.5750 
G01 Z-0.032000
G01 Z0.100000
G00 X2.6300 Y0.5275 
G01 Z-0.032000
G01 Z0.100000
G00 X2.5700 Y0.7550 
G01 Z-0.032000
G01 Z0.100000
G00 X2.5525 Y0.9425 
G01 Z-0.032000
G01 Z0.100000
G00 X2.6650 Y0.9250 
G01 Z-0.032000
G01 Z0.100000
G00 X2.7850 Y0.9150 
G01 Z-0.032000
G01 Z0.100000
G00 X2.9075 Y0.9225 
G01 Z-0.032000
G01 Z0.100000
G00 X2.9175 Y1.0150 
G01 Z-0.032000
G01 Z0.100000
G00 X2.7450 Y1.0825 
G01 Z-0.032000
G01 Z0.100000
G00 X2.6675 Y1.1050 
G01 Z-0.032000
G01 Z0.100000
G00 X2.7275 Y1.2650 
G01 Z-0.032000
G01 Z0.100000
G00 X2.5350 Y1.2350 
G01 Z-0.032000
G01 Z0.100000
G00 X2.4975 Y1.3500 
G01 Z-0.032000
G01 Z0.100000
G00 X2.5500 Y1.4350 
G01 Z-0.032000
G01 Z0.100000
G00 X2.6450 Y1.4550 
G01 Z-0.032000
G01 Z0.100000
G00 X2.8875 Y1.4300 
G01 Z-0.032000
G01 Z0.100000
G00 X2.9000 Y1.7900 
G01 Z-0.032000
G01 Z0.100000
G00 X2.9550 Y1.9875 
G01 Z-0.032000
G01 Z0.100000
G00 X2.6900 Y1.7575 
G01 Z-0.032000
G01 Z0.100000
G00 X2.4225 Y1.5725 
G01 Z-0.032000
G01 Z0.100000
G00 X2.2925 Y1.5600 
G01 Z-0.032000
G01 Z0.100000
G00 X2.1600 Y1.4475 
G01 Z-0.032000
G01 Z0.100000
G00 X2.1000 Y1.3575 
G01 Z-0.032000
G01 Z0.100000
G00 X1.9925 Y1.1775 
G01 Z-0.032000
G01 Z0.100000
G00 X1.9150 Y1.1750 
G01 Z-0.032000
G01 Z0.100000
G00 X1.7950 Y1.3925 
G01 Z-0.032000
G01 Z0.100000
G00 X1.7000 Y1.3650 
G01 Z-0.032000
G01 Z0.100000
G00 X1.6700 Y1.3925 
G01 Z-0.032000
G01 Z0.100000
G00 X1.6125 Y1.4275 
G01 Z-0.032000
G01 Z0.100000
G00 X1.6000 Y1.3875 
G01 Z-0.032000
G01 Z0.100000
G00 X1.6775 Y1.4800 
G01 Z-0.032000
G01 Z0.100000
G00 X1.4375 Y1.6275 
G01 Z-0.032000
G01 Z0.100000
G00 X1.2250 Y1.6075 
G01 Z-0.032000
G01 Z0.100000
G00 X1.1250 Y1.6125 
G01 Z-0.032000
G01 Z0.100000
G00 X1.1125 Y1.9225 
G01 Z-0.032000
G01 Z0.100000
G00 X1.2550 Y1.9125 
G01 Z-0.032000
G01 Z0.100000
G00 X1.1400 Y2.2025 
G01 Z-0.032000
G01 Z0.100000
G00 X0.7875 Y2.1400 
G01 Z-0.032000
G01 Z0.100000
G00 X0.6410 Y2.6260 
G01 Z-0.032000
G01 Z0.100000
G00 X0.8675 Y2.6425 
G01 Z-0.032000
G01 Z0.100000
G00 X0.1200 Y2.3600 
G01 Z-0.032000
G01 Z0.100000
G00 X0.2975 Y1.0250 
G01 Z-0.032000
G01 Z0.100000
G00 X0.3275 Y0.9625 
G01 Z-0.032000
G01 Z0.100000
G00 X0.2850 Y0.8950 
G01 Z-0.032000
G01 Z0.100000
G00 X0.3050 Y0.8425 
G01 Z-0.032000
G01 Z0.100000
G00 X0.3700 Y0.5700 
G01 Z-0.032000
G01 Z0.100000
G00 X0.4250 Y0.4050 
G01 Z-0.032000
G01 Z0.100000
G00 X0.5475 Y0.3900 
G01 Z-0.032000
G01 Z0.100000
G00 X0.6225 Y0.4825 
G01 Z-0.032000
G01 Z0.100000
G00 X0.7850 Y0.5350 
G01 Z-0.032000
G01 Z0.100000
G00 X0.9400 Y0.4925 
G01 Z-0.032000
G01 Z0.100000
G00 X1.0000 Y0.5975 
G01 Z-0.032000
G01 Z0.100000
G00 X0.8700 Y0.6800 
G01 Z-0.032000
G01 Z0.100000
G00 X0.9950 Y0.7900 
G01 Z-0.032000
G01 Z0.100000
G00 X0.9900 Y0.9350 
G01 Z-0.032000
G01 Z0.100000
G00 X0.8950 Y1.0900 
G01 Z-0.032000
G01 Z0.100000
G00 X0.7650 Y1.0900 
G01 Z-0.032000
G01 Z0.100000
G00 X0.7575 Y0.8675 
G01 Z-0.032000
G01 Z0.100000
G00 X0.7100 Y0.3025 
G01 Z-0.032000
G01 Z0.100000
G00 X0.6825 Y0.2150 
G01 Z-0.032000
G01 Z0.100000
G00 X0.9100 Y0.2225 
G01 Z-0.032000
G01 Z0.100000
G00 X1.0175 Y0.2300 
G01 Z-0.032000
G01 Z0.100000
G00 X1.1125 Y0.2200 
G01 Z-0.032000
G01 Z0.100000
G00 X1.2050 Y0.2150 
G01 Z-0.032000
G01 Z0.100000
G00 X1.3100 Y0.1900 
G01 Z-0.032000
G01 Z0.100000
G00 X1.4050 Y0.1800 
G01 Z-0.032000
G01 Z0.100000
G00 X1.5100 Y0.1725 
G01 Z-0.032000
G01 Z0.100000
G00 X1.6075 Y0.1600 
G01 Z-0.032000
G01 Z0.100000
G00 X1.6075 Y0.2900 
G01 Z-0.032000
G01 Z0.100000
G00 X1.8050 Y0.1800 
G01 Z-0.032000
G01 Z0.100000
G00 X1.9200 Y0.2525 
G01 Z-0.032000
G01 Z0.100000
G00 X1.8525 Y0.3325 
G01 Z-0.032000
G01 Z0.100000
G00 X2.0450 Y0.4100 
G01 Z-0.032000
G01 Z0.100000
G00 X2.0300 Y0.4725 
G01 Z-0.032000
G01 Z0.100000
G00 X2.0600 Y0.4950 
G01 Z-0.032000
G01 Z0.100000
G00 X2.1700 Y0.5925 
G01 Z-0.032000
G01 Z0.100000
G00 X2.0075 Y0.6875 
G01 Z-0.032000
G01 Z0.100000
G00 X2.3200 Y0.9175 
G01 Z-0.032000
G01 Z0.100000
G00 X2.3625 Y0.9425 
G01 Z-0.032000
G01 Z0.100000
G00 X2.4175 Y0.9425 
G01 Z-0.032000
G01 Z0.100000
G00 X2.4250 Y1.0125 
G01 Z-0.032000
G01 Z0.100000
G00 X2.3850 Y1.0100 
G01 Z-0.032000
G01 Z0.100000
G00 X2.4900 Y1.0675 
G01 Z-0.032000
G01 Z0.100000
G00 X2.4750 Y1.1250 
G01 Z-0.032000
G01 Z0.100000
G00 X2.2375 Y1.0525 
G01 Z-0.032000
G01 Z0.100000
G00 X2.1950 Y1.1600 
G01 Z-0.032000
G01 Z0.100000
G00 X2.1350 Y1.7225 
G01 Z-0.032000
G01 Z0.100000
G00 X2.1100 Y1.8050 
G01 Z-0.032000
G01 Z0.100000
G00 X2.0950 Y1.9450 
G01 Z-0.032000
G01 Z0.100000
G00 X1.8900 Y1.8050 
G01 Z-0.032000
G01 Z0.100000
G00 X1.8475 Y1.8100 
G01 Z-0.032000
G01 Z0.100000
G00 X1.8600 Y2.0300 
G01 Z-0.032000
G01 Z0.100000
G00 X2.7875 Y0.7500 
G01 Z-0.032000
G01 Z0.100000
G00 X2.9050 Y0.7225 
G01 Z-0.032000
G01 Z0.100000
M05
G00 Z1.0000 
G00 X0.0000 Y0.0000 
M06 T02  ; 0.0197 
G01 Z0.0000 F20.00 
M06 
G00 Z0.1000 
M03
G04 P3.000000
G00 Z0.100000
G00 X0.0616 Y0.4600 
G01 Z-0.0320 F20.00 
G01 Z0.100000
(R0.1000  P1.000000)
G00 X0.1108 Y0.4600 
G01 Z-0.032000
G01 Z0.100000
G00 X0.1600 Y0.4600 
G01 Z-0.032000
G01 Z0.100000
G00 X0.2092 Y0.4600 
G01 Z-0.032000
G01 Z0.100000
G00 X0.2584 Y0.4600 
G01 Z-0.032000
G01 Z0.100000
G00 X1.1391 Y1.7050 
G01 Z-0.032000
G01 Z0.100000
G00 X1.1883 Y1.7050 
G01 Z-0.032000
G01 Z0.100000
G00 X1.2375 Y1.7050 
G01 Z-0.032000
G01 Z0.100000
G00 X1.2867 Y1.7050 
G01 Z-0.032000
G01 Z0.100000
G00 X1.3359 Y1.7050 
G01 Z-0.032000
G01 Z0.100000
G00 X2.9075 Y1.3159 
G01 Z-0.032000
G01 Z0.100000
G00 X2.9075 Y1.2667 
G01 Z-0.032000
G01 Z0.100000
G00 X2.9075 Y1.2175 
G01 Z-0.032000
G01 Z0.100000
G00 X2.9075 Y1.1683 
G01 Z-0.032000
G01 Z0.100000
G00 X2.9075 Y1.1191 
G01 Z-0.032000
G01 Z0.100000
M05
G00 Z1.0000 
G00 X0.0000 Y0.0000 
M06 T03  ; 0.0350 
G01 Z0.0000 F20.00 
M06 
G00 Z0.1000 
M03
G04 P3.000000
G00 Z0.100000
G00 X0.4400 Y1.7500 
G01 Z-0.0320 F20.00 
G01 Z0.100000
(R0.1000  P1.000000)
G00 X0.5400 Y1.7500 
G01 Z-0.032000
G01 Z0.100000
G00 X0.6400 Y1.7500 
G01 Z-0.032000
G01 Z0.100000
G00 X0.9400 Y2.0500 
G01 Z-0.032000
G01 Z0.100000
G00 X0.9400 Y2.1500 
G01 Z-0.032000
G01 Z0.100000
G00 X0.9400 Y2.2500 
G01 Z-0.032000
G01 Z0.100000
G00 X2.3500 Y1.7500 
G01 Z-0.032000
G01 Z0.100000
G00 X2.4500 Y1.7500 
G01 Z-0.032000
G01 Z0.100000
G00 X2.5500 Y1.7500 
G01 Z-0.032000
G01 Z0.100000
G00 X2.8500 Y2.0500 
G01 Z-0.032000
G01 Z0.100000
G00 X2.8500 Y2.1500 
G01 Z-0.032000
G01 Z0.100000
G00 X2.8500 Y2.2500 
G01 Z-0.032000
G01 Z0.100000
M05
G00 Z1.0000 
G00 X0.0000 Y0.0000 
M06 T04  ; 0.0354 
G01 Z0.0000 F20.00 
M06 
G00 Z0.1000 
M03
G04 P3.000000
G00 Z0.100000
G00 X0.4150 Y2.4500 
G01 Z-0.0320 F20.00 
G01 Z0.100000
(R0.1000  P1.000000)
G00 X0.4150 Y2.6500 
G01 Z-0.032000
G01 Z0.100000
G00 X0.6650 Y2.6500 
G01 Z-0.032000
G01 Z0.100000
G00 X0.6650 Y2.4500 
G01 Z-0.032000
G01 Z0.100000
G00 X0.7325 Y1.2400 
G01 Z-0.032000
G01 Z0.100000
G00 X1.8606 Y0.6287 
G01 Z-0.032000
G01 Z0.100000
G00 X1.8606 Y0.5500 
G01 Z-0.032000
G01 Z0.100000
G00 X1.8606 Y0.4713 
G01 Z-0.032000
G01 Z0.100000
G00 X1.9394 Y0.4713 
G01 Z-0.032000
G01 Z0.100000
G00 X1.9394 Y0.5500 
G01 Z-0.032000
G01 Z0.100000
G00 X1.9394 Y0.6287 
G01 Z-0.032000
G01 Z0.100000
G00 X2.7875 Y1.5481 
G01 Z-0.032000
G01 Z0.100000
G00 X2.7875 Y1.6269 
G01 Z-0.032000
G01 Z0.100000
G00 X2.5750 Y2.4500 
G01 Z-0.032000
G01 Z0.100000
G00 X2.5750 Y2.6500 
G01 Z-0.032000
G01 Z0.100000
G00 X2.3250 Y2.6500 
G01 Z-0.032000
G01 Z0.100000
G00 X2.3250 Y2.4500 
G01 Z-0.032000
G01 Z0.100000
G00 X2.0465 Y2.6525 
G01 Z-0.032000
G01 Z0.100000
G00 X1.9675 Y2.6525 
G01 Z-0.032000
G01 Z0.100000
G00 X1.8885 Y2.6525 
G01 Z-0.032000
G01 Z0.100000
M05
G00 Z1.0000 
G00 X0.0000 Y0.0000 
M06 T05  ; 0.0394 
G01 Z0.0000 F20.00 
M06 
G00 Z0.1000 
M03
G04 P3.000000
G00 Z0.100000
G00 X0.7225 Y1.8175 
G01 Z-0.0320 F20.00 
G01 Z0.100000
(R0.1000  P1.000000)
G00 X1.6600 Y1.7900 
G01 Z-0.032000
G01 Z0.100000
G00 X1.6600 Y1.6900 
G01 Z-0.032000
G01 Z0.100000
G00 X1.6600 Y1.5900 
G01 Z-0.032000
G01 Z0.100000
M05
G00 Z1.0000 
G00 X0.0000 Y0.0000 
M06 T06  ; 0.0400 
G01 Z0.0000 F20.00 
M06 
G00 Z0.1000 
M03
G04 P3.000000
G00 Z0.100000
G00 X0.3550 Y0.0950 
G01 Z-0.0320 F20.00 
G01 Z0.100000
(R0.1000  P1.000000)
G00 X0.4550 Y0.0950 
G01 Z-0.032000
G01 Z0.100000
G00 X0.5550 Y0.0950 
G01 Z-0.032000
G01 Z0.100000
G00 X0.6550 Y0.0950 
G01 Z-0.032000
G01 Z0.100000
G00 X0.7550 Y0.0950 
G01 Z-0.032000
G01 Z0.100000
G00 X0.8550 Y0.0950 
G01 Z-0.032000
G01 Z0.100000
G00 X0.9550 Y0.0950 
G01 Z-0.032000
G01 Z0.100000
G00 X1.0550 Y0.0950 
G01 Z-0.032000
G01 Z0.100000
G00 X1.1550 Y0.0950 
G01 Z-0.032000
G01 Z0.100000
G00 X1.2550 Y0.0950 
G01 Z-0.032000
G01 Z0.100000
G00 X1.3550 Y0.0950 
G01 Z-0.032000
G01 Z0.100000
G00 X1.4550 Y0.0950 
G01 Z-0.032000
G01 Z0.100000
G00 X1.5550 Y0.0950 
G01 Z-0.032000
G01 Z0.100000
G00 X1.6550 Y0.0950 
G01 Z-0.032000
G01 Z0.100000
G00 X1.7550 Y0.0950 
G01 Z-0.032000
G01 Z0.100000
G00 X1.8550 Y0.0950 
G01 Z-0.032000
G01 Z0.100000
G00 X0.5500 Y0.2500 
G01 Z-0.032000
G01 Z0.100000
G00 X0.4500 Y0.2500 
G01 Z-0.032000
G01 Z0.100000
G00 X1.3970 Y1.8935 
G01 Z-0.032000
G01 Z0.100000
G00 X1.3970 Y2.0715 
G01 Z-0.032000
G01 Z0.100000
G00 X1.2540 Y2.0920 
G01 Z-0.032000
G01 Z0.100000
G00 X1.0760 Y2.0920 
G01 Z-0.032000
G01 Z0.100000
G00 X1.0760 Y2.3480 
G01 Z-0.032000
G01 Z0.100000
G00 X1.2540 Y2.3480 
G01 Z-0.032000
G01 Z0.100000
G00 X1.3995 Y2.3965 
G01 Z-0.032000
G01 Z0.100000
G00 X1.4045 Y2.5035 
G01 Z-0.032000
G01 Z0.100000
G00 X1.4045 Y2.6815 
G01 Z-0.032000
G01 Z0.100000
G00 X1.6605 Y2.6815 
G01 Z-0.032000
G01 Z0.100000
G00 X1.6605 Y2.5035 
G01 Z-0.032000
G01 Z0.100000
G00 X1.6555 Y2.3965 
G01 Z-0.032000
G01 Z0.100000
G00 X1.7860 Y2.3405 
G01 Z-0.032000
G01 Z0.100000
G00 X1.9640 Y2.3405 
G01 Z-0.032000
G01 Z0.100000
G00 X1.9640 Y2.0845 
G01 Z-0.032000
G01 Z0.100000
G00 X1.7860 Y2.0845 
G01 Z-0.032000
G01 Z0.100000
G00 X1.6530 Y2.0715 
G01 Z-0.032000
G01 Z0.100000
G00 X1.6555 Y2.2185 
G01 Z-0.032000
G01 Z0.100000
G00 X1.3995 Y2.2185 
G01 Z-0.032000
G01 Z0.100000
G00 X1.6530 Y1.8935 
G01 Z-0.032000
G01 Z0.100000
M05
G00 Z1.0000 
G00 X0.0000 Y0.0000 
M06 T07  ; 0.0550 
G01 Z0.0000 F20.00 
M06 
G00 Z0.1000 
M03
G04 P3.000000
G00 Z0.100000
G00 X0.2400 Y1.8875 
G01 Z-0.0320 F20.00 
G01 Z0.100000
(R0.1000  P1.000000)
G00 X0.2400 Y2.4125 
G01 Z-0.032000
G01 Z0.100000
G00 X0.8400 Y2.4125 
G01 Z-0.032000
G01 Z0.100000
G00 X0.8400 Y1.8875 
G01 Z-0.032000
G01 Z0.100000
G00 X2.1500 Y1.8875 
G01 Z-0.032000
G01 Z0.100000
G00 X2.1500 Y2.4125 
G01 Z-0.032000
G01 Z0.100000
G00 X2.7500 Y2.4125 
G01 Z-0.032000
G01 Z0.100000
G00 X2.7500 Y1.8875 
G01 Z-0.032000
G01 Z0.100000
M05
G00 Z1.0000 
G00 X0.0000 Y0.0000 
M06 T08  ; 0.0590 
G01 Z0.0000 F20.00 
M06 
G00 Z0.1000 
M03
G04 P3.000000
G00 Z0.100000
G00 X1.8060 Y2.6525 
G01 Z-0.0320 F20.00 
G01 Z0.100000
(R0.1000  P1.000000)
G00 X2.1290 Y2.6525 
G01 Z-0.032000
G01 Z0.100000
M05
G00 Z1.0000 
G00 X0.0000 Y0.0000 
M06 T09  ; 0.1100 
G01 Z0.0000 F20.00 
M06 
G00 Z0.1000 
M03
G04 P3.000000
G00 Z0.100000
G00 X0.1500 Y0.1500 
G01 Z-0.0320 F20.00 
G01 Z0.100000
(R0.1000  P1.000000)
G00 X0.1500 Y2.6000 
G01 Z-0.032000
G01 Z0.100000
G00 X2.8500 Y2.6000 
G01 Z-0.032000
G01 Z0.100000
G00 X2.8500 Y0.1500 
G01 Z-0.032000
G01 Z0.100000
T01 
G00 Z0.5000 
M05
M02
