(.../Tools/pcb/gcode/pcb-gcode.ulp)
(Copyright 2005 - 2012 by John Johnson)
(See readme.txt for licensing terms.)
(This file generated from the board:)
(.../LagoVista.EaglePCB.Tests/picopter_tx.brd)
(Current profile is .../pcb/gcode/profiles/generic.pp  )
(This file generated 4/7/2017 14:08)
(Settings from pcb-machine.h)
(spindle on time = 3.0000)
(  Tool Size)
(0.0070 )
(spindle speed = 30000.0000)
(tool change at 0.0000 0.0000 1.0000 )
(feed rate xy = F20.00 )
(feed rate z  = F10.00 )
(Z Axis Settings)
(  High     Up        Down     Drill)
(0.5000 	0.1000 	-0.0070 	-0.0320 )
(Settings from pcb-defaults.h)
(isolate min = 0.0010)
(isolate max = 0.0200)
(isolate step = 0.0050)
(Generated top outlines, top drill, bottom outlines, bottom drill, )
(Unit of measure: inch)
(Inch Mode)
G20
(Absolute Coordinates)
G90
S30000
G00 Z0.5000 
G00 X0.0000 Y0.0000 
M03
G04 P3.000000
G00 Z0.1000 
G00 X-0.0033 Y0.2073 
G01 Z-0.0070 F10.00 
G01 X-0.0038 Y0.2070 F20.00 
G01 X-0.0042 Y0.2066 
G01 X-0.0052 Y0.2061 
G01 X-0.0062 Y0.2056 
G01 X-0.0068 Y0.2055 
G01 X-0.0073 Y0.2053 
G01 X-0.0084 Y0.2053 
G01 X-0.0096 Y0.2051 
G01 X-0.0101 Y0.2053 
G01 X-0.0107 Y0.2053 
G01 X-0.0117 Y0.2057 
G01 X-0.0128 Y0.2060 
G01 X-0.0133 Y0.2064 
G01 X-0.0138 Y0.2066 
G01 X-0.0146 Y0.2074 
G01 X-0.0155 Y0.2081 
G01 X-0.0158 Y0.2086 
G01 X-0.0162 Y0.2090 
G01 X-0.0166 Y0.2100 
G01 X-0.0336 Y0.2393 
G01 X-0.0607 Y0.2664 
G01 X-0.0938 Y0.2856 
G01 X-0.1308 Y0.2955 
G01 X-0.1692 Y0.2955 
G01 X-0.2062 Y0.2856 
G01 X-0.2393 Y0.2664 
G01 X-0.2664 Y0.2393 
G01 X-0.2856 Y0.2062 
G01 X-0.2955 Y0.1692 
G01 X-0.2955 Y0.1308 
G01 X-0.2856 Y0.0938 
G01 X-0.2664 Y0.0607 
G01 X-0.2393 Y0.0336 
G01 X-0.2100 Y0.0166 
G01 X-0.2090 Y0.0162 
G01 X-0.2086 Y0.0158 
G01 X-0.2081 Y0.0155 
G01 X-0.2074 Y0.0146 
G01 X-0.2066 Y0.0138 
G01 X-0.2064 Y0.0133 
G01 X-0.2060 Y0.0128 
G01 X-0.2057 Y0.0117 
G01 X-0.2053 Y0.0107 
G01 X-0.2053 Y0.0101 
G01 X-0.2051 Y0.0096 
G01 X-0.2053 Y0.0084 
G01 X-0.2053 Y0.0073 
G01 X-0.2055 Y0.0068 
G01 X-0.2056 Y0.0062 
G01 X-0.2061 Y0.0052 
G01 X-0.2066 Y0.0042 
G01 X-0.2070 Y0.0038 
G01 X-0.2073 Y0.0033 
G01 X-0.2082 Y0.0026 
G01 X-0.2090 Y0.0018 
G01 X-0.2095 Y0.0016 
G01 X-0.2099 Y0.0012 
G01 X-0.2110 Y0.0009 
G01 X-0.2121 Y0.0005 
G01 X-0.2127 Y0.0005 
G01 X-0.2132 Y0.0004 
G01 X-0.2143 Y0.0005 
G01 X-2.0577 Y0.0005 
G01 X-2.0608 Y0.0018 
G01 X-2.0632 Y0.0042 
G01 X-2.0645 Y0.0073 
G01 X-2.0645 Y0.1427 
G01 X-2.0632 Y0.1458 
G01 X-2.0608 Y0.1482 
G01 X-2.0577 Y0.1495 
G01 X-2.0217 Y0.1495 
G01 X-2.0206 Y0.1496 
G01 X-2.0201 Y0.1495 
G01 X-2.0199 Y0.1495 
G01 X-2.0197 Y0.1496 
G01 X-2.0196 Y0.1497 
G01 X-2.0195 Y0.1499 
G01 X-2.0195 Y0.1501 
G01 X-2.0196 Y0.1503 
G01 X-2.0200 Y0.1507 
G01 X-2.0204 Y0.1518 
G01 X-2.0628 Y0.2272 
G01 X-2.0632 Y0.2275 
G01 X-2.0637 Y0.2286 
G01 X-2.0642 Y0.2297 
G01 X-2.0643 Y0.2302 
G01 X-2.0645 Y0.2307 
G01 X-2.0645 Y0.2318 
G01 X-2.0646 Y0.2330 
G01 X-2.0645 Y0.2335 
G01 X-2.0645 Y0.3502 
G01 X-2.0659 Y0.3517 
G01 X-2.0671 Y0.3528 
G01 X-2.0678 Y0.3544 
G01 X-2.0684 Y0.3559 
G01 X-2.0684 Y0.3577 
G01 X-2.0685 Y0.3608 
G01 X-2.0685 Y0.3625 
G01 X-2.0685 Y0.3641 
G01 X-2.0678 Y0.3657 
G01 X-2.0672 Y0.3673 
G01 X-2.0665 Y0.3680 
G01 X-2.1870 Y0.3680 
G01 X-2.1924 Y0.3585 
G01 X-2.1923 Y0.3585 
G01 X-2.1892 Y0.3572 
G01 X-2.1868 Y0.3548 
G01 X-2.1855 Y0.3517 
G01 X-2.1855 Y0.1283 
G01 X-2.1868 Y0.1252 
G01 X-2.1892 Y0.1228 
G01 X-2.1923 Y0.1215 
G01 X-2.2567 Y0.1215 
G01 X-2.2598 Y0.1228 
G01 X-2.2622 Y0.1252 
G01 X-2.2635 Y0.1283 
G01 X-2.2635 Y0.3517 
G01 X-2.2622 Y0.3548 
G01 X-2.2598 Y0.3572 
G01 X-2.2567 Y0.3585 
G01 X-2.2139 Y0.3585 
G01 X-2.2117 Y0.3628 
G01 X-2.2117 Y0.3631 
G01 X-2.2109 Y0.3645 
G01 X-2.2102 Y0.3659 
G01 X-2.2099 Y0.3661 
G01 X-2.2010 Y0.3817 
G01 X-2.2006 Y0.3829 
G01 X-2.2001 Y0.3833 
G01 X-2.1998 Y0.3839 
G01 X-2.1988 Y0.3846 
G01 X-2.1979 Y0.3856 
G01 X-2.1973 Y0.3858 
G01 X-2.1968 Y0.3862 
G01 X-2.1956 Y0.3865 
G01 X-2.1944 Y0.3870 
G01 X-2.1938 Y0.3870 
G01 X-2.1932 Y0.3872 
G01 X-2.1919 Y0.3870 
G01 X-2.0916 Y0.3870 
G01 X-2.0920 Y0.3874 
G01 X-2.0921 Y0.3876 
G01 X-2.0922 Y0.3877 
G01 X-2.0928 Y0.3891 
G01 X-2.0934 Y0.3905 
G01 X-2.0934 Y0.3907 
G01 X-2.0935 Y0.3908 
G01 X-2.0935 Y0.3923 
G01 X-2.0936 Y0.3939 
G01 X-2.0935 Y0.3940 
G01 X-2.0935 Y0.3942 
G01 X-2.0929 Y0.3956 
G01 X-2.0926 Y0.3965 
G01 X-2.0939 Y0.3964 
G01 X-2.0940 Y0.3965 
G01 X-2.3890 Y0.3965 
G01 X-2.3890 Y0.3544 
G01 X-2.3648 Y0.3535 
G01 X-2.3633 Y0.3535 
G01 X-2.3632 Y0.3534 
G01 X-2.3630 Y0.3534 
G01 X-2.3616 Y0.3528 
G01 X-2.3602 Y0.3522 
G01 X-2.3601 Y0.3521 
G01 X-2.3599 Y0.3520 
G01 X-2.3589 Y0.3509 
G01 X-2.3578 Y0.3498 
G01 X-2.3577 Y0.3497 
G01 X-2.3576 Y0.3495 
G01 X-2.3571 Y0.3481 
G01 X-2.3565 Y0.3467 
G01 X-2.3565 Y0.3465 
G01 X-2.3564 Y0.3464 
G01 X-2.3565 Y0.3448 
G01 X-2.3565 Y0.0823 
G01 X-2.3578 Y0.0792 
G01 X-2.3602 Y0.0768 
G01 X-2.3633 Y0.0755 
G01 X-2.4277 Y0.0755 
G01 X-2.4308 Y0.0768 
G01 X-2.4332 Y0.0792 
G01 X-2.4345 Y0.0823 
G01 X-2.4345 Y0.3458 
G01 X-2.4346 Y0.3460 
G01 X-2.4345 Y0.3475 
G01 X-2.4345 Y0.3490 
G01 X-2.4344 Y0.3492 
G01 X-2.4344 Y0.3494 
G01 X-2.4338 Y0.3508 
G01 X-2.4332 Y0.3522 
G01 X-2.4331 Y0.3523 
G01 X-2.4330 Y0.3524 
G01 X-2.4319 Y0.3535 
G01 X-2.4308 Y0.3546 
G01 X-2.4307 Y0.3546 
G01 X-2.4305 Y0.3547 
G01 X-2.4291 Y0.3553 
G01 X-2.4285 Y0.3555 
G01 X-2.9893 Y0.3540 
G01 X-2.9910 Y0.3540 
G01 X-2.9927 Y0.3540 
G01 X-2.9942 Y0.3547 
G01 X-2.9958 Y0.3553 
G01 X-2.9970 Y0.3565 
G01 X-2.9982 Y0.3577 
G01 X-2.9989 Y0.3593 
G01 X-2.9995 Y0.3608 
G01 X-2.9995 Y0.3625 
G01 X-2.9995 Y0.3642 
G01 X-2.9995 Y0.6866 
G01 X-2.9995 Y0.6883 
G01 X-2.9995 Y0.6900 
G01 X-2.9989 Y0.6913 
G01 X-2.9982 Y0.6931 
G01 X-2.9970 Y0.6943 
G01 X-2.9958 Y0.6955 
G01 X-2.9937 Y0.6963 
G01 X-2.9927 Y0.6968 
G01 X-2.9910 Y0.6968 
G01 X-2.9895 Y0.6968 
G01 X-2.9895 Y0.7125 
G01 X-2.9927 Y0.7125 
G01 X-2.9958 Y0.7138 
G01 X-2.9982 Y0.7162 
G01 X-2.9995 Y0.7193 
G01 X-2.9995 Y0.7307 
G01 X-2.9982 Y0.7338 
G01 X-2.9958 Y0.7362 
G01 X-2.9927 Y0.7375 
G01 X-2.9895 Y0.7375 
G01 X-2.9895 Y0.7532 
G01 X-2.9910 Y0.7532 
G01 X-2.9927 Y0.7532 
G01 X-2.9937 Y0.7536 
G01 X-2.9958 Y0.7545 
G01 X-2.9970 Y0.7557 
G01 X-2.9982 Y0.7569 
G01 X-2.9989 Y0.7586 
G01 X-2.9995 Y0.7600 
G01 X-2.9995 Y0.7617 
G01 X-2.9995 Y0.7634 
G01 X-2.9995 Y0.8866 
G01 X-2.9995 Y0.8883 
G01 X-2.9995 Y0.8900 
G01 X-2.9989 Y0.8913 
G01 X-2.9982 Y0.8931 
G01 X-2.9970 Y0.8943 
G01 X-2.9958 Y0.8955 
G01 X-2.9937 Y0.8963 
G01 X-2.9927 Y0.8968 
G01 X-2.9910 Y0.8968 
G01 X-2.9895 Y0.8968 
G01 X-2.9895 Y0.9125 
G01 X-2.9927 Y0.9125 
G01 X-2.9958 Y0.9138 
G01 X-2.9982 Y0.9162 
G01 X-2.9995 Y0.9193 
G01 X-2.9995 Y0.9307 
G01 X-2.9982 Y0.9338 
G01 X-2.9958 Y0.9362 
G01 X-2.9927 Y0.9375 
G01 X-2.9895 Y0.9375 
G01 X-2.9895 Y0.9532 
G01 X-2.9910 Y0.9532 
G01 X-2.9927 Y0.9532 
G01 X-2.9937 Y0.9536 
G01 X-2.9958 Y0.9545 
G01 X-2.9970 Y0.9557 
G01 X-2.9982 Y0.9569 
G01 X-2.9989 Y0.9586 
G01 X-2.9995 Y0.9600 
G01 X-2.9995 Y0.9617 
G01 X-2.9995 Y0.9634 
G01 X-2.9995 Y2.5357 
G01 X-2.9996 Y2.5368 
G01 X-2.9995 Y2.5373 
G01 X-2.9995 Y2.5379 
G01 X-2.9991 Y2.5390 
G01 X-2.9988 Y2.5401 
G01 X-2.9984 Y2.5405 
G01 X-2.9982 Y2.5410 
G01 X-2.9974 Y2.5418 
G01 X-2.9967 Y2.5427 
G01 X-2.9962 Y2.5430 
G01 X-2.9958 Y2.5434 
G01 X-2.9948 Y2.5439 
G01 X-2.9938 Y2.5444 
G01 X-2.9932 Y2.5445 
G01 X-2.9927 Y2.5447 
G01 X-2.9916 Y2.5447 
G01 X-2.9904 Y2.5449 
G01 X-2.9899 Y2.5447 
G01 X-2.9893 Y2.5447 
G01 X-2.9883 Y2.5443 
G01 X-2.9872 Y2.5440 
G01 X-2.9867 Y2.5436 
G01 X-2.9862 Y2.5434 
G01 X-2.9854 Y2.5426 
G01 X-2.9845 Y2.5419 
G01 X-2.9842 Y2.5414 
G01 X-2.9838 Y2.5410 
G01 X-2.9834 Y2.5400 
G01 X-2.9664 Y2.5107 
G01 X-2.9393 Y2.4836 
G01 X-2.9062 Y2.4644 
G01 X-2.8692 Y2.4545 
G01 X-2.8308 Y2.4545 
G01 X-2.7938 Y2.4644 
G01 X-2.7607 Y2.4836 
G01 X-2.7336 Y2.5107 
G01 X-2.7144 Y2.5438 
G01 X-2.7045 Y2.5808 
G01 X-2.7045 Y2.6192 
G01 X-2.7144 Y2.6562 
G01 X-2.7336 Y2.6893 
G01 X-2.7607 Y2.7164 
G01 X-2.7900 Y2.7334 
G01 X-2.7910 Y2.7338 
G01 X-2.7914 Y2.7342 
G01 X-2.7919 Y2.7345 
G01 X-2.7926 Y2.7354 
G01 X-2.7934 Y2.7362 
G01 X-2.7936 Y2.7367 
G01 X-2.7940 Y2.7372 
G01 X-2.7943 Y2.7383 
G01 X-2.7947 Y2.7393 
G01 X-2.7947 Y2.7399 
G01 X-2.7949 Y2.7404 
G01 X-2.7947 Y2.7416 
G01 X-2.7947 Y2.7427 
G01 X-2.7945 Y2.7432 
G01 X-2.7944 Y2.7438 
G01 X-2.7939 Y2.7448 
G01 X-2.7934 Y2.7458 
G01 X-2.7930 Y2.7462 
G01 X-2.7927 Y2.7467 
G01 X-2.7918 Y2.7474 
G01 X-2.7910 Y2.7482 
G01 X-2.7905 Y2.7484 
G01 X-2.7901 Y2.7488 
G01 X-2.7890 Y2.7491 
G01 X-2.7879 Y2.7495 
G01 X-2.7873 Y2.7495 
G01 X-2.7868 Y2.7496 
G01 X-2.7857 Y2.7495 
G01 X-0.2143 Y2.7495 
G01 X-0.2132 Y2.7496 
G01 X-0.2127 Y2.7495 
G01 X-0.2121 Y2.7495 
G01 X-0.2110 Y2.7491 
G01 X-0.2099 Y2.7488 
G01 X-0.2095 Y2.7484 
G01 X-0.2090 Y2.7482 
G01 X-0.2082 Y2.7474 
G01 X-0.2073 Y2.7467 
G01 X-0.2070 Y2.7462 
G01 X-0.2066 Y2.7458 
G01 X-0.2061 Y2.7448 
G01 X-0.2056 Y2.7438 
G01 X-0.2055 Y2.7432 
G01 X-0.2053 Y2.7427 
G01 X-0.2053 Y2.7416 
G01 X-0.2051 Y2.7404 
G01 X-0.2053 Y2.7399 
G01 X-0.2053 Y2.7393 
G01 X-0.2057 Y2.7383 
G01 X-0.2060 Y2.7372 
G01 X-0.2064 Y2.7367 
G01 X-0.2066 Y2.7362 
G01 X-0.2074 Y2.7354 
G01 X-0.2081 Y2.7345 
G01 X-0.2086 Y2.7342 
G01 X-0.2090 Y2.7338 
G01 X-0.2100 Y2.7334 
G01 X-0.2393 Y2.7164 
G01 X-0.2664 Y2.6893 
G01 X-0.2856 Y2.6562 
G01 X-0.2955 Y2.6192 
G01 X-0.2955 Y2.5808 
G01 X-0.2856 Y2.5438 
G01 X-0.2664 Y2.5107 
G01 X-0.2393 Y2.4836 
G01 X-0.2233 Y2.4743 
G01 X-0.2223 Y2.4739 
G01 X-0.2219 Y2.4735 
G01 X-0.2214 Y2.4732 
G01 X-0.2207 Y2.4723 
G01 X-0.2199 Y2.4715 
G01 X-0.2197 Y2.4710 
G01 X-0.2193 Y2.4705 
G01 X-0.2190 Y2.4694 
G01 X-0.2186 Y2.4684 
G01 X-0.2186 Y2.4678 
G01 X-0.2184 Y2.4673 
G01 X-0.2186 Y2.4661 
G01 X-0.2186 Y2.4650 
G01 X-0.2188 Y2.4645 
G01 X-0.2189 Y2.4639 
G01 X-0.2194 Y2.4629 
G01 X-0.2199 Y2.4619 
G01 X-0.2203 Y2.4615 
G01 X-0.2206 Y2.4610 
G01 X-0.2215 Y2.4603 
G01 X-0.2223 Y2.4595 
G01 X-0.2228 Y2.4593 
G01 X-0.2231 Y2.4590 
G01 X-0.2210 Y2.4584 
G01 X-0.2141 Y2.4548 
G01 X-0.2135 Y2.4545 
G01 X-0.2135 Y2.4548 
G01 X-0.2137 Y2.4559 
G01 X-0.2135 Y2.4564 
G01 X-0.2135 Y2.4570 
G01 X-0.2131 Y2.4581 
G01 X-0.2128 Y2.4591 
G01 X-0.2125 Y2.4596 
G01 X-0.2122 Y2.4601 
G01 X-0.2114 Y2.4609 
G01 X-0.2107 Y2.4618 
G01 X-0.2103 Y2.4621 
G01 X-0.2098 Y2.4625 
G01 X-0.2088 Y2.4630 
G01 X-0.2078 Y2.4635 
G01 X-0.2073 Y2.4636 
G01 X-0.2067 Y2.4638 
G01 X-0.2056 Y2.4638 
G01 X-0.2045 Y2.4640 
G01 X-0.2039 Y2.4638 
G01 X-0.2033 Y2.4638 
G01 X-0.2023 Y2.4634 
G01 X-0.1692 Y2.4545 
G01 X-0.1308 Y2.4545 
G01 X-0.0938 Y2.4644 
G01 X-0.0607 Y2.4836 
G01 X-0.0336 Y2.5107 
G01 X-0.0166 Y2.5400 
G01 X-0.0162 Y2.5410 
G01 X-0.0158 Y2.5414 
G01 X-0.0155 Y2.5419 
G01 X-0.0146 Y2.5426 
G01 X-0.0138 Y2.5434 
G01 X-0.0133 Y2.5436 
G01 X-0.0128 Y2.5440 
G01 X-0.0117 Y2.5443 
G01 X-0.0107 Y2.5447 
G01 X-0.0101 Y2.5447 
G01 X-0.0096 Y2.5449 
G01 X-0.0084 Y2.5447 
G01 X-0.0073 Y2.5447 
G01 X-0.0068 Y2.5445 
G01 X-0.0062 Y2.5444 
G01 X-0.0052 Y2.5439 
G01 X-0.0042 Y2.5434 
G01 X-0.0038 Y2.5430 
G01 X-0.0033 Y2.5427 
G01 X-0.0026 Y2.5418 
G01 X-0.0018 Y2.5410 
G01 X-0.0016 Y2.5405 
G01 X-0.0012 Y2.5401 
G01 X-0.0009 Y2.5390 
G01 X-0.0005 Y2.5379 
G01 X-0.0005 Y2.5373 
G01 X-0.0004 Y2.5368 
G01 X-0.0005 Y2.5357 
G01 X-0.0005 Y0.2143 
G01 X-0.0004 Y0.2132 
G01 X-0.0005 Y0.2127 
G01 X-0.0005 Y0.2121 
G01 X-0.0009 Y0.2110 
G01 X-0.0012 Y0.2099 
G01 X-0.0016 Y0.2095 
G01 X-0.0018 Y0.2090 
G01 X-0.0026 Y0.2082 
G01 X-0.0033 Y0.2073 
G00 Z0.1000 
G00 X-0.0847 Y0.4323 
G01 Z-0.0070 F10.00 
G01 X-0.0850 Y0.4331 F20.00 
G01 X-0.0859 Y0.4378 
G01 X-0.0859 Y0.4822 
G01 X-0.0850 Y0.4869 
G01 X-0.0847 Y0.4877 
G01 X-0.0853 Y0.4876 
G01 X-0.0861 Y0.4878 
G01 X-0.0870 Y0.4878 
G01 X-0.0878 Y0.4881 
G01 X-0.0874 Y0.4869 
G01 X-0.0864 Y0.4822 
G01 X-0.0864 Y0.4378 
G01 X-0.0874 Y0.4331 
G01 X-0.0879 Y0.4319 
G01 X-0.0870 Y0.4322 
G01 X-0.0861 Y0.4322 
G01 X-0.0853 Y0.4324 
G01 X-0.0847 Y0.4323 
G00 Z0.1000 
G00 X-0.1333 Y0.4309 
G01 Z-0.0070 F10.00 
G01 X-0.1342 Y0.4331 F20.00 
G01 X-0.1351 Y0.4378 
G01 X-0.1351 Y0.4822 
G01 X-0.1342 Y0.4869 
G01 X-0.1333 Y0.4891 
G01 X-0.1337 Y0.4889 
G01 X-0.1371 Y0.4889 
G01 X-0.1375 Y0.4891 
G01 X-0.1366 Y0.4869 
G01 X-0.1357 Y0.4822 
G01 X-0.1357 Y0.4378 
G01 X-0.1366 Y0.4331 
G01 X-0.1375 Y0.4309 
G01 X-0.1371 Y0.4311 
G01 X-0.1337 Y0.4311 
G01 X-0.1333 Y0.4309 
G00 Z0.1000 
G00 X-0.1825 Y0.4309 
G01 Z-0.0070 F10.00 
G01 X-0.1834 Y0.4331 F20.00 
G01 X-0.1843 Y0.4378 
G01 X-0.1843 Y0.4822 
G01 X-0.1834 Y0.4869 
G01 X-0.1825 Y0.4891 
G01 X-0.1829 Y0.4889 
G01 X-0.1863 Y0.4889 
G01 X-0.1867 Y0.4891 
G01 X-0.1858 Y0.4869 
G01 X-0.1849 Y0.4822 
G01 X-0.1849 Y0.4378 
G01 X-0.1858 Y0.4331 
G01 X-0.1867 Y0.4309 
G01 X-0.1863 Y0.4311 
G01 X-0.1829 Y0.4311 
G01 X-0.1825 Y0.4309 
G00 Z0.1000 
G00 X-0.2308 Y0.4286 
G01 Z-0.0070 F10.00 
G01 X-0.2326 Y0.4331 F20.00 
G01 X-0.2336 Y0.4378 
G01 X-0.2336 Y0.4822 
G01 X-0.2326 Y0.4869 
G01 X-0.2317 Y0.4891 
G01 X-0.2321 Y0.4889 
G01 X-0.2355 Y0.4889 
G01 X-0.2359 Y0.4891 
G01 X-0.2350 Y0.4869 
G01 X-0.2341 Y0.4822 
G01 X-0.2341 Y0.4378 
G01 X-0.2350 Y0.4331 
G01 X-0.2369 Y0.4286 
G01 X-0.2395 Y0.4246 
G01 X-0.2429 Y0.4212 
G01 X-0.2469 Y0.4186 
G01 X-0.2513 Y0.4168 
G01 X-0.2560 Y0.4158 
G01 X-0.2608 Y0.4158 
G01 X-0.2655 Y0.4168 
G01 X-0.2700 Y0.4186 
G01 X-0.2730 Y0.4206 
G01 X-0.2730 Y0.4193 
G01 X-0.2740 Y0.4168 
G01 X-0.2743 Y0.4162 
G01 X-0.2750 Y0.4155 
G01 X-0.2368 Y0.4155 
G01 X-0.2279 Y0.4244 
G01 X-0.2281 Y0.4246 
G01 X-0.2308 Y0.4286 
G00 Z0.1000 
G00 X-0.4811 Y0.2950 
G01 Z-0.0070 F10.00 
G01 X-0.4815 Y0.2948 F20.00 
G01 X-0.4833 Y0.2948 
G01 X-0.4849 Y0.2948 
G01 X-0.4865 Y0.2955 
G01 X-0.4880 Y0.2961 
G01 X-0.4888 Y0.2969 
G01 X-0.4893 Y0.2039 
G01 X-0.4887 Y0.2045 
G01 X-0.4871 Y0.2052 
G01 X-0.4856 Y0.2058 
G01 X-0.4839 Y0.2058 
G01 X-0.4822 Y0.2058 
G01 X-0.4813 Y0.2055 
G01 X-0.4832 Y0.2099 
G01 X-0.4845 Y0.2166 
G01 X-0.4845 Y0.2834 
G01 X-0.4832 Y0.2901 
G01 X-0.4811 Y0.2950 
G00 Z0.1000 
G00 X-0.5098 Y0.2940 
G01 Z-0.0070 F10.00 
G01 X-0.5104 Y0.2934 F20.00 
G01 X-0.5120 Y0.2927 
G01 X-0.5135 Y0.2921 
G01 X-0.5153 Y0.2921 
G01 X-0.5169 Y0.2921 
G01 X-0.5178 Y0.2925 
G01 X-0.5168 Y0.2901 
G01 X-0.5155 Y0.2834 
G01 X-0.5155 Y0.2166 
G01 X-0.5168 Y0.2099 
G01 X-0.5185 Y0.2060 
G01 X-0.5176 Y0.2063 
G01 X-0.5159 Y0.2063 
G01 X-0.5142 Y0.2063 
G01 X-0.5126 Y0.2057 
G01 X-0.5111 Y0.2050 
G01 X-0.5103 Y0.2043 
G01 X-0.5098 Y0.2940 
G00 Z0.1000 
G00 X-0.8155 Y0.3444 
G01 Z-0.0070 F10.00 
G01 X-0.8155 Y0.1764 F20.00 
G01 X-0.8086 Y0.1695 
G01 X-0.7692 Y0.1695 
G01 X-0.7698 Y0.1708 
G01 X-0.7698 Y0.1742 
G01 X-0.7685 Y0.1773 
G01 X-0.7678 Y0.1780 
G01 X-0.7888 Y0.1780 
G01 X-0.7895 Y0.1778 
G01 X-0.7907 Y0.1780 
G01 X-0.7919 Y0.1780 
G01 X-0.7925 Y0.1783 
G01 X-0.7932 Y0.1784 
G01 X-0.7943 Y0.1790 
G01 X-0.7954 Y0.1794 
G01 X-0.7959 Y0.1799 
G01 X-0.7965 Y0.1803 
G01 X-0.7972 Y0.1813 
G01 X-0.7981 Y0.1821 
G01 X-0.7983 Y0.1828 
G01 X-0.8122 Y0.2013 
G01 X-0.8131 Y0.2021 
G01 X-0.8133 Y0.2028 
G01 X-0.8137 Y0.2033 
G01 X-0.8140 Y0.2045 
G01 X-0.8145 Y0.2056 
G01 X-0.8145 Y0.2063 
G01 X-0.8147 Y0.2070 
G01 X-0.8145 Y0.2082 
G01 X-0.8145 Y0.3609 
G01 X-0.8513 Y0.3955 
G01 X-1.4191 Y0.3955 
G01 X-1.4200 Y0.3953 
G01 X-1.4209 Y0.3955 
G01 X-1.4219 Y0.3955 
G01 X-1.4228 Y0.3959 
G01 X-1.4237 Y0.3960 
G01 X-1.4245 Y0.3966 
G01 X-1.4254 Y0.3969 
G01 X-1.4261 Y0.3976 
G01 X-1.4545 Y0.4166 
G01 X-1.4554 Y0.4169 
G01 X-1.4561 Y0.4176 
G01 X-1.4568 Y0.4181 
G01 X-1.4574 Y0.4189 
G01 X-1.4581 Y0.4196 
G01 X-1.4584 Y0.4205 
G01 X-1.4589 Y0.4213 
G01 X-1.4591 Y0.4222 
G01 X-1.4595 Y0.4231 
G01 X-1.4595 Y0.4241 
G01 X-1.4597 Y0.4250 
G01 X-1.4595 Y0.4259 
G01 X-1.4595 Y0.8149 
G01 X-1.4595 Y0.8167 
G01 X-1.4595 Y0.8169 
G01 X-1.4588 Y0.8185 
G01 X-1.4582 Y0.8202 
G01 X-1.4581 Y0.8204 
G01 X-1.4569 Y0.8216 
G01 X-1.4598 Y0.8228 
G01 X-1.4605 Y0.8235 
G01 X-1.4605 Y0.4094 
G01 X-1.4366 Y0.3895 
G01 X-0.8606 Y0.3895 
G01 X-0.8571 Y0.3881 
G01 X-0.8196 Y0.3506 
G01 X-0.8169 Y0.3479 
G01 X-0.8155 Y0.3444 
G00 Z0.1000 
G00 X-0.8345 Y0.3386 
G01 Z-0.0070 F10.00 
G01 X-0.8664 Y0.3705 F20.00 
G01 X-1.4396 Y0.3705 
G01 X-1.4410 Y0.3704 
G01 X-1.4414 Y0.3705 
G01 X-1.4419 Y0.3705 
G01 X-1.4432 Y0.3711 
G01 X-1.4446 Y0.3715 
G01 X-1.4450 Y0.3718 
G01 X-1.4454 Y0.3719 
G01 X-1.4464 Y0.3730 
G01 X-1.4750 Y0.3968 
G01 X-1.4754 Y0.3969 
G01 X-1.4764 Y0.3980 
G01 X-1.4775 Y0.3989 
G01 X-1.4777 Y0.3993 
G01 X-1.4781 Y0.3996 
G01 X-1.4786 Y0.4010 
G01 X-1.4793 Y0.4023 
G01 X-1.4793 Y0.4027 
G01 X-1.4795 Y0.4031 
G01 X-1.4795 Y0.4046 
G01 X-1.4796 Y0.4060 
G01 X-1.4795 Y0.4064 
G01 X-1.4795 Y0.8297 
G01 X-1.5025 Y0.8650 
G01 X-1.5048 Y0.8650 
G01 X-1.5093 Y0.8662 
G01 X-1.5132 Y0.8685 
G01 X-1.5165 Y0.8718 
G01 X-1.5179 Y0.8742 
G01 X-1.5183 Y0.8732 
G01 X-1.5207 Y0.8708 
G01 X-1.5217 Y0.8704 
G01 X-1.5193 Y0.8690 
G01 X-1.5160 Y0.8657 
G01 X-1.5137 Y0.8618 
G01 X-1.5125 Y0.8573 
G01 X-1.5125 Y0.8527 
G01 X-1.5137 Y0.8482 
G01 X-1.5160 Y0.8443 
G01 X-1.5193 Y0.8410 
G01 X-1.5205 Y0.8403 
G01 X-1.5205 Y0.3641 
G01 X-1.4918 Y0.3420 
G01 X-0.9842 Y0.3420 
G01 X-0.9840 Y0.3421 
G01 X-0.9823 Y0.3420 
G01 X-0.9816 Y0.3420 
G01 X-0.9821 Y0.3433 
G01 X-0.9821 Y0.3435 
G01 X-0.9822 Y0.3437 
G01 X-0.9821 Y0.3452 
G01 X-0.9821 Y0.3467 
G01 X-0.9820 Y0.3469 
G01 X-0.9820 Y0.3471 
G01 X-0.9814 Y0.3484 
G01 X-0.9808 Y0.3498 
G01 X-0.9807 Y0.3500 
G01 X-0.9806 Y0.3501 
G01 X-0.9802 Y0.3505 
G01 X-1.4742 Y0.3505 
G01 X-1.4752 Y0.3503 
G01 X-1.4760 Y0.3505 
G01 X-1.4769 Y0.3505 
G01 X-1.4779 Y0.3509 
G01 X-1.4789 Y0.3511 
G01 X-1.4796 Y0.3516 
G01 X-1.4804 Y0.3519 
G01 X-1.4811 Y0.3527 
G01 X-1.5046 Y0.3691 
G01 X-1.5054 Y0.3694 
G01 X-1.5061 Y0.3702 
G01 X-1.5070 Y0.3708 
G01 X-1.5075 Y0.3715 
G01 X-1.5081 Y0.3721 
G01 X-1.5085 Y0.3731 
G01 X-1.5090 Y0.3740 
G01 X-1.5092 Y0.3748 
G01 X-1.5095 Y0.3756 
G01 X-1.5095 Y0.3767 
G01 X-1.5097 Y0.3777 
G01 X-1.5095 Y0.3785 
G01 X-1.5095 Y0.7303 
G01 X-1.5107 Y0.7310 
G01 X-1.5140 Y0.7343 
G01 X-1.5163 Y0.7382 
G01 X-1.5175 Y0.7427 
G01 X-1.5175 Y0.7473 
G01 X-1.5163 Y0.7518 
G01 X-1.5140 Y0.7557 
G01 X-1.5107 Y0.7590 
G01 X-1.5068 Y0.7613 
G01 X-1.5023 Y0.7625 
G01 X-1.4977 Y0.7625 
G01 X-1.4932 Y0.7613 
G01 X-1.4893 Y0.7590 
G01 X-1.4860 Y0.7557 
G01 X-1.4837 Y0.7518 
G01 X-1.4825 Y0.7473 
G01 X-1.4825 Y0.7427 
G01 X-1.4837 Y0.7382 
G01 X-1.4860 Y0.7343 
G01 X-1.4893 Y0.7310 
G01 X-1.4905 Y0.7303 
G01 X-1.4905 Y0.3824 
G01 X-1.4720 Y0.3695 
G01 X-0.8856 Y0.3695 
G01 X-0.8821 Y0.3681 
G01 X-0.8794 Y0.3654 
G01 X-0.8469 Y0.3329 
G01 X-0.8455 Y0.3294 
G01 X-0.8455 Y0.1583 
G01 X-0.8449 Y0.1582 
G01 X-0.8387 Y0.1556 
G01 X-0.8330 Y0.1518 
G01 X-0.8294 Y0.1482 
G01 X-0.8294 Y0.1489 
G01 X-0.8281 Y0.1520 
G01 X-0.8257 Y0.1544 
G01 X-0.8226 Y0.1557 
G01 X-0.8216 Y0.1557 
G01 X-0.8331 Y0.1671 
G01 X-0.8345 Y0.1706 
G01 X-0.8345 Y0.3386 
G00 Z0.1000 
G00 X-0.7835 Y0.1505 
G01 Z-0.0070 F10.00 
G01 X-0.7828 Y0.1498 F20.00 
G01 X-0.7817 Y0.1471 
G01 X-0.7783 Y0.1505 
G01 X-0.7835 Y0.1505 
G00 Z0.1000 
G00 X-1.0698 Y0.3181 
G01 Z-0.0070 F10.00 
G01 X-1.0698 Y0.3192 F20.00 
G01 X-1.0695 Y0.3199 
G01 X-1.0685 Y0.3223 
G01 X-1.0678 Y0.3230 
G01 X-1.4944 Y0.3230 
G01 X-1.4956 Y0.3228 
G01 X-1.4963 Y0.3230 
G01 X-1.4969 Y0.3230 
G01 X-1.4981 Y0.3235 
G01 X-1.4993 Y0.3238 
G01 X-1.4998 Y0.3242 
G01 X-1.5004 Y0.3244 
G01 X-1.5013 Y0.3253 
G01 X-1.5323 Y0.3492 
G01 X-1.5329 Y0.3494 
G01 X-1.5338 Y0.3503 
G01 X-1.5348 Y0.3511 
G01 X-1.5351 Y0.3517 
G01 X-1.5381 Y0.3546 
G01 X-1.5395 Y0.3581 
G01 X-1.5395 Y0.7510 
G01 X-1.5402 Y0.7503 
G01 X-1.5420 Y0.7496 
G01 X-1.5433 Y0.7490 
G01 X-1.5450 Y0.7490 
G01 X-1.5437 Y0.7468 
G01 X-1.5425 Y0.7423 
G01 X-1.5425 Y0.7377 
G01 X-1.5437 Y0.7332 
G01 X-1.5460 Y0.7293 
G01 X-1.5493 Y0.7260 
G01 X-1.5505 Y0.7253 
G01 X-1.5505 Y0.3346 
G01 X-1.5317 Y0.3195 
G01 X-1.0763 Y0.3195 
G01 X-1.0758 Y0.3197 
G01 X-1.0745 Y0.3195 
G01 X-1.0731 Y0.3195 
G01 X-1.0726 Y0.3193 
G01 X-1.0721 Y0.3192 
G01 X-1.0709 Y0.3186 
G01 X-1.0698 Y0.3181 
G00 Z0.1000 
G00 X-1.1628 Y0.3005 
G01 Z-0.0070 F10.00 
G01 X-1.5345 Y0.3005 F20.00 
G01 X-1.5358 Y0.3003 
G01 X-1.5363 Y0.3005 
G01 X-1.5369 Y0.3005 
G01 X-1.5381 Y0.3010 
G01 X-1.5395 Y0.3014 
G01 X-1.5399 Y0.3017 
G01 X-1.5404 Y0.3019 
G01 X-1.5413 Y0.3029 
G01 X-1.5649 Y0.3217 
G01 X-1.5654 Y0.3219 
G01 X-1.5663 Y0.3229 
G01 X-1.5674 Y0.3238 
G01 X-1.5677 Y0.3242 
G01 X-1.5681 Y0.3246 
G01 X-1.5686 Y0.3259 
G01 X-1.5692 Y0.3271 
G01 X-1.5693 Y0.3276 
G01 X-1.5695 Y0.3281 
G01 X-1.5695 Y0.3295 
G01 X-1.5697 Y0.3308 
G01 X-1.5695 Y0.3313 
G01 X-1.5695 Y0.7253 
G01 X-1.5707 Y0.7260 
G01 X-1.5740 Y0.7293 
G01 X-1.5763 Y0.7332 
G01 X-1.5775 Y0.7377 
G01 X-1.5775 Y0.7423 
G01 X-1.5764 Y0.7465 
G01 X-1.5792 Y0.7465 
G01 X-1.5823 Y0.7478 
G01 X-1.5828 Y0.7483 
G01 X-1.5825 Y0.7473 
G01 X-1.5825 Y0.7427 
G01 X-1.5837 Y0.7382 
G01 X-1.5860 Y0.7343 
G01 X-1.5893 Y0.7310 
G01 X-1.5905 Y0.7303 
G01 X-1.5905 Y0.3294 
G01 X-1.5516 Y0.2970 
G01 X-1.1715 Y0.2970 
G01 X-1.1712 Y0.2971 
G01 X-1.1696 Y0.2970 
G01 X-1.1681 Y0.2970 
G01 X-1.1678 Y0.2969 
G01 X-1.1674 Y0.2968 
G01 X-1.1660 Y0.2961 
G01 X-1.1648 Y0.2956 
G01 X-1.1648 Y0.2967 
G01 X-1.1645 Y0.2974 
G01 X-1.1635 Y0.2998 
G01 X-1.1628 Y0.3005 
G00 Z0.1000 
G00 X-1.3684 Y0.2480 
G01 Z-0.0070 F10.00 
G01 X-1.6221 Y0.2480 F20.00 
G01 X-1.6237 Y0.2479 
G01 X-1.6240 Y0.2480 
G01 X-1.6244 Y0.2480 
G01 X-1.6258 Y0.2486 
G01 X-1.6272 Y0.2491 
G01 X-1.6275 Y0.2493 
G01 X-1.6279 Y0.2494 
G01 X-1.6290 Y0.2505 
G01 X-1.6450 Y0.2643 
G01 X-1.6453 Y0.2644 
G01 X-1.6464 Y0.2655 
G01 X-1.6473 Y0.2663 
G01 X-1.6477 Y0.2653 
G01 X-1.6478 Y0.2652 
G01 X-1.6479 Y0.2650 
G01 X-1.6490 Y0.2640 
G01 X-1.6501 Y0.2629 
G01 X-1.6503 Y0.2628 
G01 X-1.6504 Y0.2627 
G01 X-1.6518 Y0.2622 
G01 X-1.6532 Y0.2616 
G01 X-1.6534 Y0.2616 
G01 X-1.6535 Y0.2615 
G01 X-1.6545 Y0.2615 
G01 X-1.6384 Y0.2445 
G01 X-1.3792 Y0.2470 
G01 X-1.3789 Y0.2471 
G01 X-1.3773 Y0.2470 
G01 X-1.3757 Y0.2470 
G01 X-1.3754 Y0.2469 
G01 X-1.3751 Y0.2469 
G01 X-1.3737 Y0.2462 
G01 X-1.3722 Y0.2456 
G01 X-1.3720 Y0.2454 
G01 X-1.3717 Y0.2453 
G01 X-1.3706 Y0.2441 
G01 X-1.3703 Y0.2438 
G01 X-1.3703 Y0.2442 
G01 X-1.3702 Y0.2444 
G01 X-1.3702 Y0.2446 
G01 X-1.3696 Y0.2460 
G01 X-1.3690 Y0.2473 
G01 X-1.3689 Y0.2475 
G01 X-1.3688 Y0.2477 
G01 X-1.3684 Y0.2480 
G00 Z0.1000 
G00 X-1.4639 Y0.2272 
G01 Z-0.0070 F10.00 
G01 X-1.6407 Y0.2255 F20.00 
G01 X-1.6409 Y0.2254 
G01 X-1.6426 Y0.2255 
G01 X-1.6443 Y0.2255 
G01 X-1.6445 Y0.2256 
G01 X-1.6447 Y0.2256 
G01 X-1.6462 Y0.2263 
G01 X-1.6478 Y0.2269 
G01 X-1.6479 Y0.2270 
G01 X-1.6481 Y0.2271 
G01 X-1.6493 Y0.2283 
G01 X-1.6499 Y0.2290 
G01 X-1.6499 Y0.2283 
G01 X-1.6500 Y0.2282 
G01 X-1.6500 Y0.2281 
G01 X-1.6506 Y0.2266 
G01 X-1.6512 Y0.2252 
G01 X-1.6513 Y0.2250 
G01 X-1.6519 Y0.2245 
G01 X-1.4729 Y0.2245 
G01 X-1.4713 Y0.2246 
G01 X-1.4710 Y0.2245 
G01 X-1.4706 Y0.2245 
G01 X-1.4692 Y0.2239 
G01 X-1.4678 Y0.2234 
G01 X-1.4675 Y0.2232 
G01 X-1.4671 Y0.2231 
G01 X-1.4660 Y0.2220 
G01 X-1.4659 Y0.2218 
G01 X-1.4659 Y0.2228 
G01 X-1.4658 Y0.2231 
G01 X-1.4658 Y0.2234 
G01 X-1.4653 Y0.2247 
G01 X-1.4649 Y0.2260 
G01 X-1.4647 Y0.2262 
G01 X-1.4646 Y0.2265 
G01 X-1.4639 Y0.2272 
G00 Z0.1000 
G00 X-1.5703 Y0.2055 
G01 Z-0.0070 F10.00 
G01 X-1.6886 Y0.2055 F20.00 
G01 X-1.6890 Y0.2054 
G01 X-1.6905 Y0.2055 
G01 X-1.6919 Y0.2055 
G01 X-1.6923 Y0.2057 
G01 X-1.6928 Y0.2057 
G01 X-1.6941 Y0.2064 
G01 X-1.6954 Y0.2069 
G01 X-1.6957 Y0.2073 
G01 X-1.6961 Y0.2075 
G01 X-1.6970 Y0.2086 
G01 X-1.6981 Y0.2096 
G01 X-1.6982 Y0.2101 
G01 X-1.7320 Y0.2511 
G01 X-1.7331 Y0.2521 
G01 X-1.7332 Y0.2526 
G01 X-1.7335 Y0.2529 
G01 X-1.7340 Y0.2543 
G01 X-1.7345 Y0.2556 
G01 X-1.7345 Y0.2561 
G01 X-1.7346 Y0.2565 
G01 X-1.7345 Y0.2580 
G01 X-1.7345 Y0.8053 
G01 X-1.7357 Y0.8060 
G01 X-1.7390 Y0.8093 
G01 X-1.7413 Y0.8132 
G01 X-1.7425 Y0.8177 
G01 X-1.7425 Y0.8223 
G01 X-1.7413 Y0.8268 
G01 X-1.7390 Y0.8307 
G01 X-1.7357 Y0.8340 
G01 X-1.7344 Y0.8348 
G01 X-1.7350 Y0.8351 
G01 X-1.7364 Y0.8356 
G01 X-1.7366 Y0.8357 
G01 X-1.7368 Y0.8358 
G01 X-1.7378 Y0.8368 
G01 X-1.7389 Y0.8379 
G01 X-1.7390 Y0.8380 
G01 X-1.7392 Y0.8382 
G01 X-1.7398 Y0.8396 
G01 X-1.7404 Y0.8409 
G01 X-1.7404 Y0.8411 
G01 X-1.7405 Y0.8413 
G01 X-1.7405 Y0.8418 
G01 X-1.7455 Y0.8363 
G01 X-1.7455 Y0.2409 
G01 X-1.7131 Y0.2020 
G01 X-1.5787 Y0.2020 
G01 X-1.5780 Y0.2022 
G01 X-1.5768 Y0.2020 
G01 X-1.5756 Y0.2020 
G01 X-1.5750 Y0.2017 
G01 X-1.5743 Y0.2016 
G01 X-1.5732 Y0.2010 
G01 X-1.5723 Y0.2006 
G01 X-1.5723 Y0.2017 
G01 X-1.5720 Y0.2024 
G01 X-1.5710 Y0.2048 
G01 X-1.5703 Y0.2055 
G00 Z0.1000 
G00 X-1.6578 Y0.1830 
G01 Z-0.0070 F10.00 
G01 X-1.7161 Y0.1830 F20.00 
G01 X-1.7165 Y0.1829 
G01 X-1.7179 Y0.1830 
G01 X-1.7194 Y0.1830 
G01 X-1.7198 Y0.1832 
G01 X-1.7202 Y0.1832 
G01 X-1.7215 Y0.1839 
G01 X-1.7229 Y0.1844 
G01 X-1.7232 Y0.1848 
G01 X-1.7236 Y0.1850 
G01 X-1.7245 Y0.1861 
G01 X-1.7256 Y0.1871 
G01 X-1.7257 Y0.1875 
G01 X-1.7620 Y0.2311 
G01 X-1.7631 Y0.2321 
G01 X-1.7632 Y0.2325 
G01 X-1.7635 Y0.2329 
G01 X-1.7639 Y0.2343 
G01 X-1.7645 Y0.2356 
G01 X-1.7645 Y0.2361 
G01 X-1.7646 Y0.2365 
G01 X-1.7645 Y0.2379 
G01 X-1.7645 Y0.8398 
G01 X-1.7646 Y0.8414 
G01 X-1.7645 Y0.8417 
G01 X-1.7645 Y0.8419 
G01 X-1.7639 Y0.8434 
G01 X-1.7633 Y0.8450 
G01 X-1.7631 Y0.8452 
G01 X-1.7631 Y0.8454 
G01 X-1.7619 Y0.8466 
G01 X-1.6694 Y0.9480 
G01 X-1.6700 Y0.9502 
G01 X-1.6700 Y0.9548 
G01 X-1.6688 Y0.9593 
G01 X-1.6665 Y0.9632 
G01 X-1.6632 Y0.9665 
G01 X-1.6593 Y0.9688 
G01 X-1.6548 Y0.9700 
G01 X-1.6502 Y0.9700 
G01 X-1.6457 Y0.9688 
G01 X-1.6418 Y0.9665 
G01 X-1.6410 Y0.9657 
G01 X-1.6410 Y0.9667 
G01 X-1.6401 Y0.9688 
G01 X-1.6397 Y0.9698 
G01 X-1.6390 Y0.9705 
G01 X-1.7910 Y0.9705 
G01 X-1.7903 Y0.9698 
G01 X-1.7896 Y0.9680 
G01 X-1.7890 Y0.9667 
G01 X-1.7890 Y0.9650 
G01 X-1.7868 Y0.9663 
G01 X-1.7823 Y0.9675 
G01 X-1.7777 Y0.9675 
G01 X-1.7732 Y0.9663 
G01 X-1.7693 Y0.9640 
G01 X-1.7660 Y0.9607 
G01 X-1.7637 Y0.9568 
G01 X-1.7625 Y0.9523 
G01 X-1.7625 Y0.9477 
G01 X-1.7637 Y0.9432 
G01 X-1.7660 Y0.9393 
G01 X-1.7693 Y0.9360 
G01 X-1.7706 Y0.9352 
G01 X-1.7755 Y0.2304 
G01 X-1.7400 Y0.1795 
G01 X-1.6659 Y0.1795 
G01 X-1.6650 Y0.1797 
G01 X-1.6641 Y0.1795 
G01 X-1.6631 Y0.1795 
G01 X-1.6622 Y0.1791 
G01 X-1.6613 Y0.1789 
G01 X-1.6605 Y0.1784 
G01 X-1.6598 Y0.1781 
G01 X-1.6598 Y0.1792 
G01 X-1.6595 Y0.1799 
G01 X-1.6585 Y0.1823 
G01 X-1.6578 Y0.1830 
G00 Z0.1000 
G00 X-1.6701 Y0.1605 
G01 Z-0.0070 F10.00 
G01 X-1.6750 Y0.1605 F20.00 
G01 X-1.6744 Y0.1598 
G01 X-1.6731 Y0.1567 
G01 X-1.6731 Y0.1544 
G01 X-1.6713 Y0.1556 
G01 X-1.6678 Y0.1570 
G01 X-1.6701 Y0.1605 
G00 Z0.1000 
G00 X-1.7350 Y0.1605 
G01 Z-0.0070 F10.00 
G01 X-1.7440 Y0.1605 F20.00 
G01 X-1.7448 Y0.1603 
G01 X-1.7458 Y0.1605 
G01 X-1.7469 Y0.1605 
G01 X-1.7477 Y0.1608 
G01 X-1.7485 Y0.1610 
G01 X-1.7494 Y0.1615 
G01 X-1.7504 Y0.1619 
G01 X-1.7510 Y0.1626 
G01 X-1.7516 Y0.1630 
G01 X-1.7519 Y0.1624 
G01 X-1.7519 Y0.1621 
G01 X-1.7521 Y0.1619 
G01 X-1.7528 Y0.1602 
G01 X-1.7535 Y0.1595 
G01 X-1.7516 Y0.1595 
G01 X-1.7449 Y0.1582 
G01 X-1.7387 Y0.1556 
G01 X-1.7369 Y0.1544 
G01 X-1.7369 Y0.1567 
G01 X-1.7356 Y0.1598 
G01 X-1.7350 Y0.1605 
G00 Z0.1000 
G00 X-1.8270 Y0.4526 
G01 Z-0.0070 F10.00 
G01 X-1.8270 Y0.4899 F20.00 
G01 X-1.8277 Y0.4893 
G01 X-1.8308 Y0.4880 
G01 X-1.8330 Y0.4880 
G01 X-1.8321 Y0.4865 
G01 X-1.8297 Y0.4807 
G01 X-1.8284 Y0.4744 
G01 X-1.8284 Y0.4681 
G01 X-1.8297 Y0.4619 
G01 X-1.8321 Y0.4560 
G01 X-1.8330 Y0.4546 
G01 X-1.8308 Y0.4546 
G01 X-1.8277 Y0.4533 
G01 X-1.8270 Y0.4526 
G00 Z0.1000 
G00 X-1.8270 Y0.5313 
G01 Z-0.0070 F10.00 
G01 X-1.8270 Y0.5687 F20.00 
G01 X-1.8277 Y0.5680 
G01 X-1.8308 Y0.5667 
G01 X-1.8330 Y0.5667 
G01 X-1.8321 Y0.5653 
G01 X-1.8297 Y0.5594 
G01 X-1.8284 Y0.5532 
G01 X-1.8284 Y0.5468 
G01 X-1.8297 Y0.5406 
G01 X-1.8321 Y0.5347 
G01 X-1.8330 Y0.5333 
G01 X-1.8308 Y0.5333 
G01 X-1.8277 Y0.5320 
G01 X-1.8270 Y0.5313 
G00 Z0.1000 
G00 X-1.8270 Y0.6115 
G01 Z-0.0070 F10.00 
G01 X-1.8270 Y0.6460 F20.00 
G01 X-1.8277 Y0.6453 
G01 X-1.8295 Y0.6446 
G01 X-1.8308 Y0.6440 
G01 X-1.8321 Y0.6440 
G01 X-1.8297 Y0.6381 
G01 X-1.8284 Y0.6319 
G01 X-1.8284 Y0.6256 
G01 X-1.8297 Y0.6193 
G01 X-1.8321 Y0.6135 
G01 X-1.8308 Y0.6134 
G01 X-1.8296 Y0.6129 
G01 X-1.8277 Y0.6122 
G01 X-1.8270 Y0.6115 
G00 Z0.1000 
G00 X-1.8731 Y0.5990 
G01 Z-0.0070 F10.00 
G01 X-1.8759 Y0.6002 F20.00 
G01 X-1.8808 Y0.6035 
G01 X-1.8810 Y0.6026 
G01 X-1.8811 Y0.6024 
G01 X-1.8812 Y0.6021 
G01 X-1.8819 Y0.6009 
G01 X-1.8826 Y0.5997 
G01 X-1.8829 Y0.5995 
G01 X-1.8830 Y0.5992 
G01 X-1.8842 Y0.5985 
G01 X-1.8853 Y0.5976 
G01 X-1.8856 Y0.5975 
G01 X-1.8859 Y0.5974 
G01 X-1.8862 Y0.5973 
G01 X-1.8727 Y0.5897 
G01 X-1.8729 Y0.5900 
G01 X-1.8730 Y0.5904 
G01 X-1.8731 Y0.5908 
G01 X-1.8731 Y0.5921 
G01 X-1.8732 Y0.5934 
G01 X-1.8731 Y0.5938 
G01 X-1.8731 Y0.5990 
G00 Z0.1000 
G00 X-1.8827 Y0.5735 
G01 Z-0.0070 F10.00 
G01 X-1.8832 Y0.5737 F20.00 
G01 X-1.8832 Y0.5734 
G01 X-1.8831 Y0.5731 
G01 X-1.8827 Y0.5735 
G00 Z0.1000 
G00 X-1.9202 Y0.5759 
G01 Z-0.0070 F10.00 
G01 X-1.9202 Y0.5771 F20.00 
G01 X-1.9201 Y0.5773 
G01 X-1.9195 Y0.5788 
G01 X-1.9189 Y0.5803 
G01 X-1.9189 Y0.5804 
G01 X-1.9183 Y0.5810 
G01 X-1.9294 Y0.5808 
G01 X-1.9241 Y0.5785 
G01 X-1.9202 Y0.5759 
G00 Z0.1000 
G00 X-1.9182 Y0.5987 
G01 Z-0.0070 F10.00 
G01 X-1.9183 Y0.5988 F20.00 
G01 X-1.9190 Y0.6003 
G01 X-1.9196 Y0.6018 
G01 X-1.9196 Y0.6019 
G01 X-1.9196 Y0.6032 
G01 X-1.9241 Y0.6002 
G01 X-1.9300 Y0.5978 
G01 X-1.9176 Y0.5980 
G01 X-1.9182 Y0.5987 
G00 Z0.1000 
G00 X-1.9470 Y0.5974 
G01 Z-0.0070 F10.00 
G01 X-1.9488 Y0.5978 F20.00 
G01 X-1.9546 Y0.6002 
G01 X-1.9599 Y0.6037 
G01 X-1.9644 Y0.6082 
G01 X-1.9679 Y0.6135 
G01 X-1.9703 Y0.6193 
G01 X-1.9714 Y0.6248 
G01 X-2.0291 Y0.6279 
G01 X-2.0295 Y0.6278 
G01 X-2.0309 Y0.6280 
G01 X-2.0324 Y0.6281 
G01 X-2.0328 Y0.6283 
G01 X-2.0332 Y0.6284 
G01 X-2.0345 Y0.6291 
G01 X-2.0358 Y0.6298 
G01 X-2.0361 Y0.6301 
G01 X-2.0365 Y0.6303 
G01 X-2.0373 Y0.6315 
G01 X-2.0383 Y0.6326 
G01 X-2.0385 Y0.6330 
G01 X-2.2184 Y0.8720 
G01 X-2.2730 Y0.8910 
G01 X-2.2726 Y0.8902 
G01 X-2.2726 Y0.8899 
G01 X-2.2725 Y0.8897 
G01 X-2.2725 Y0.8882 
G01 X-2.2724 Y0.8868 
G01 X-2.2725 Y0.8866 
G01 X-2.2725 Y0.8863 
G01 X-2.2730 Y0.8850 
G01 X-2.2735 Y0.8836 
G01 X-2.2737 Y0.8834 
G01 X-2.2738 Y0.8832 
G01 X-2.2748 Y0.8822 
G01 X-2.2758 Y0.8811 
G01 X-2.2760 Y0.8810 
G01 X-2.2762 Y0.8808 
G01 X-2.2775 Y0.8802 
G01 X-2.2788 Y0.8796 
G01 X-2.2791 Y0.8796 
G01 X-2.2793 Y0.8795 
G01 X-2.2801 Y0.8795 
G01 X-2.2793 Y0.8790 
G01 X-2.2760 Y0.8757 
G01 X-2.2737 Y0.8718 
G01 X-2.2725 Y0.8673 
G01 X-2.2725 Y0.8627 
G01 X-2.2731 Y0.8604 
G01 X-2.2611 Y0.8470 
G01 X-2.2324 Y0.8256 
G01 X-2.2315 Y0.8251 
G01 X-2.2310 Y0.8245 
G01 X-2.2303 Y0.8240 
G01 X-2.2297 Y0.8230 
G01 X-2.0321 Y0.5906 
G01 X-2.2233 Y0.8325 
G01 X-2.2273 Y0.8325 
G01 X-2.2318 Y0.8337 
G01 X-2.2357 Y0.8360 
G01 X-2.2390 Y0.8393 
G01 X-2.2413 Y0.8432 
G01 X-2.2425 Y0.8477 
G01 X-2.2425 Y0.8523 
G01 X-2.2413 Y0.8568 
G01 X-2.2390 Y0.8607 
G01 X-2.2357 Y0.8640 
G01 X-2.2318 Y0.8663 
G01 X-2.2273 Y0.8675 
G01 X-2.2227 Y0.8675 
G01 X-2.2182 Y0.8663 
G01 X-2.2143 Y0.8640 
G01 X-2.2110 Y0.8607 
G01 X-2.2087 Y0.8568 
G01 X-2.2075 Y0.8523 
G01 X-2.2075 Y0.8477 
G01 X-2.2084 Y0.8443 
G01 X-2.0122 Y0.5961 
G01 X-1.9470 Y0.5974 
G00 Z0.1000 
G00 X-1.9503 Y0.5803 
G01 Z-0.0070 F10.00 
G01 X-2.0128 Y0.5791 F20.00 
G01 X-2.0131 Y0.5789 
G01 X-2.0167 Y0.5778 
G01 X-2.0205 Y0.5783 
G01 X-2.0226 Y0.5795 
G01 X-2.0056 Y0.5595 
G01 X-1.9703 Y0.5595 
G01 X-1.9679 Y0.5653 
G01 X-1.9644 Y0.5705 
G01 X-1.9599 Y0.5750 
G01 X-1.9546 Y0.5785 
G01 X-1.9503 Y0.5803 
G00 Z0.1000 
G00 X-2.0111 Y0.5405 
G01 Z-0.0070 F10.00 
G01 X-2.0119 Y0.5405 F20.00 
G01 X-2.0123 Y0.5407 
G01 X-2.0126 Y0.5407 
G01 X-2.0140 Y0.5414 
G01 X-2.0154 Y0.5419 
G01 X-2.0157 Y0.5422 
G01 X-2.0160 Y0.5424 
G01 X-2.0170 Y0.5436 
G01 X-2.0181 Y0.5446 
G01 X-2.0182 Y0.5450 
G01 X-2.2440 Y0.8105 
G01 X-2.2724 Y0.8318 
G01 X-2.2733 Y0.8322 
G01 X-2.2739 Y0.8330 
G01 X-2.2747 Y0.8335 
G01 X-2.2752 Y0.8343 
G01 X-2.2872 Y0.8476 
G01 X-2.2877 Y0.8475 
G01 X-2.2923 Y0.8475 
G01 X-2.2968 Y0.8487 
G01 X-2.2990 Y0.8500 
G01 X-2.2990 Y0.8483 
G01 X-2.2996 Y0.8469 
G01 X-2.2973 Y0.8475 
G01 X-2.2927 Y0.8475 
G01 X-2.2882 Y0.8463 
G01 X-2.2843 Y0.8440 
G01 X-2.2810 Y0.8407 
G01 X-2.2787 Y0.8368 
G01 X-2.2775 Y0.8323 
G01 X-2.2775 Y0.8290 
G01 X-2.2626 Y0.8182 
G01 X-2.2616 Y0.8177 
G01 X-2.2611 Y0.8171 
G01 X-2.2604 Y0.8166 
G01 X-2.2598 Y0.8157 
G01 X-2.0133 Y0.5345 
G01 X-2.0134 Y0.5349 
G01 X-2.0132 Y0.5360 
G01 X-2.0131 Y0.5372 
G01 X-2.0128 Y0.5377 
G01 X-2.0127 Y0.5382 
G01 X-2.0120 Y0.5392 
G01 X-2.0115 Y0.5402 
G01 X-2.0111 Y0.5405 
G00 Z0.1000 
G00 X-2.0395 Y0.9140 
G01 Z-0.0070 F10.00 
G01 X-2.0395 Y0.9194 F20.00 
G01 X-2.0381 Y0.9229 
G01 X-2.0321 Y0.9288 
G01 X-2.0325 Y0.9302 
G01 X-2.0325 Y0.9348 
G01 X-2.0313 Y0.9393 
G01 X-2.0290 Y0.9432 
G01 X-2.0257 Y0.9465 
G01 X-2.0232 Y0.9480 
G01 X-2.0387 Y0.9480 
G01 X-2.0431 Y0.9375 
G01 X-2.0412 Y0.9343 
G01 X-2.0400 Y0.9298 
G01 X-2.0400 Y0.9252 
G01 X-2.0412 Y0.9207 
G01 X-2.0435 Y0.9168 
G01 X-2.0443 Y0.9160 
G01 X-2.0433 Y0.9160 
G01 X-2.0412 Y0.9151 
G01 X-2.0402 Y0.9147 
G01 X-2.0395 Y0.9140 
G00 Z0.1000 
G00 X-2.0450 Y0.9670 
G01 Z-0.0070 F10.00 
G01 X-1.9186 Y0.9670 F20.00 
G01 X-1.9179 Y0.9672 
G01 X-1.9168 Y0.9670 
G01 X-1.9156 Y0.9670 
G01 X-1.9149 Y0.9667 
G01 X-1.9142 Y0.9666 
G01 X-1.9132 Y0.9660 
G01 X-1.9123 Y0.9656 
G01 X-1.9123 Y0.9667 
G01 X-1.9120 Y0.9674 
G01 X-1.9110 Y0.9698 
G01 X-1.9103 Y0.9705 
G01 X-2.0522 Y0.9705 
G01 X-2.0515 Y0.9698 
G01 X-2.0505 Y0.9675 
G01 X-2.0502 Y0.9667 
G01 X-2.0502 Y0.9656 
G01 X-2.0486 Y0.9663 
G01 X-2.0469 Y0.9670 
G01 X-2.0450 Y0.9670 
G00 Z0.1000 
G00 X-2.0068 Y0.9480 
G01 Z-0.0070 F10.00 
G01 X-2.0043 Y0.9465 F20.00 
G01 X-2.0010 Y0.9432 
G01 X-2.0010 Y0.9442 
G01 X-2.0003 Y0.9458 
G01 X-1.9997 Y0.9473 
G01 X-1.9990 Y0.9480 
G01 X-2.0068 Y0.9480 
G00 Z0.1000 
G00 X-1.8135 Y1.0095 
G01 Z-0.0070 F10.00 
G01 X-1.8065 Y1.0095 F20.00 
G01 X-1.8072 Y1.0102 
G01 X-1.8085 Y1.0133 
G01 X-1.8085 Y1.0167 
G01 X-1.8072 Y1.0197 
G01 X-1.8067 Y1.0203 
G01 X-1.8077 Y1.0200 
G01 X-1.8123 Y1.0200 
G01 X-1.8133 Y1.0203 
G01 X-1.8129 Y1.0199 
G01 X-1.8128 Y1.0198 
G01 X-1.8115 Y1.0167 
G01 X-1.8115 Y1.0133 
G01 X-1.8128 Y1.0102 
G01 X-1.8135 Y1.0095 
G00 Z0.1000 
G00 X-1.7933 Y1.0427 
G01 Z-0.0070 F10.00 
G01 X-1.7918 Y1.0442 F20.00 
G01 X-1.7894 Y1.0452 
G01 X-1.7907 Y1.0460 
G01 X-1.7940 Y1.0493 
G01 X-1.7963 Y1.0532 
G01 X-1.7975 Y1.0577 
G01 X-1.7975 Y1.0623 
G01 X-1.7963 Y1.0668 
G01 X-1.7940 Y1.0707 
G01 X-1.7920 Y1.0727 
G01 X-1.7877 Y1.1900 
G01 X-2.0197 Y1.4196 
G01 X-2.0197 Y1.4186 
G01 X-2.0203 Y1.4170 
G01 X-2.0209 Y1.4154 
G01 X-2.0221 Y1.4142 
G01 X-2.0233 Y1.4130 
G01 X-2.0249 Y1.4124 
G01 X-2.0264 Y1.4117 
G01 X-2.0274 Y1.4117 
G01 X-1.8024 Y1.1900 
G01 X-1.8012 Y1.1889 
G01 X-1.8001 Y1.1877 
G01 X-1.7992 Y1.1863 
G01 X-1.7984 Y1.1849 
G01 X-1.7979 Y1.1833 
G01 X-1.7975 Y1.1817 
G01 X-1.7975 Y1.1801 
G01 X-1.7975 Y1.1784 
G01 X-1.7975 Y1.0497 
G01 X-1.7960 Y1.0482 
G01 X-1.7937 Y1.0443 
G01 X-1.7933 Y1.0427 
G00 Z0.1000 
G00 X-1.6358 Y1.0446 
G01 Z-0.0070 F10.00 
G01 X-1.6354 Y1.0447 F20.00 
G01 X-1.6321 Y1.0447 
G01 X-1.6296 Y1.0437 
G01 X-1.6300 Y1.0452 
G01 X-1.6300 Y1.0498 
G01 X-1.6288 Y1.0543 
G01 X-1.6265 Y1.0582 
G01 X-1.6232 Y1.0615 
G01 X-1.6193 Y1.0638 
G01 X-1.6169 Y1.0644 
G01 X-1.6158 Y1.0663 
G01 X-1.6150 Y1.0677 
G01 X-1.6149 Y1.0678 
G01 X-1.6138 Y1.0689 
G01 X-1.6000 Y1.0827 
G01 X-1.5977 Y1.0850 
G01 X-1.5948 Y1.0866 
G01 X-1.5916 Y1.0875 
G01 X-1.5399 Y1.0875 
G01 X-1.5175 Y1.1080 
G01 X-1.5175 Y1.1847 
G01 X-1.5176 Y1.1860 
G01 X-1.5175 Y1.1863 
G01 X-1.5175 Y1.1866 
G01 X-1.5172 Y1.1879 
G01 X-1.5169 Y1.1892 
G01 X-1.5167 Y1.1895 
G01 X-1.5166 Y1.1898 
G01 X-1.5160 Y1.1910 
G01 X-1.5154 Y1.1922 
G01 X-1.5152 Y1.1924 
G01 X-1.5150 Y1.1927 
G01 X-1.5141 Y1.1936 
G01 X-1.4452 Y1.2699 
G01 X-1.4450 Y1.2702 
G01 X-1.4441 Y1.2711 
G01 X-1.4432 Y1.2721 
G01 X-1.4429 Y1.2723 
G01 X-1.4427 Y1.2725 
G01 X-1.4415 Y1.2732 
G01 X-1.4404 Y1.2739 
G01 X-1.4401 Y1.2740 
G01 X-1.4398 Y1.2741 
G01 X-1.4385 Y1.2745 
G01 X-1.4373 Y1.2749 
G01 X-1.4370 Y1.2749 
G01 X-1.4366 Y1.2750 
G01 X-1.4353 Y1.2750 
G01 X-1.4340 Y1.2751 
G01 X-1.4337 Y1.2750 
G01 X-1.0355 Y1.2750 
G01 X-1.0362 Y1.2756 
G01 X-1.0368 Y1.2772 
G01 X-1.0375 Y1.2788 
G01 X-1.0375 Y1.2805 
G01 X-1.0375 Y1.2821 
G01 X-1.0369 Y1.2837 
G01 X-1.0364 Y1.2850 
G01 X-1.0377 Y1.2850 
G01 X-1.2584 Y1.2837 
G01 X-1.4421 Y1.2825 
G01 X-1.5250 Y1.1950 
G01 X-1.5250 Y1.1184 
G01 X-1.5259 Y1.1152 
G01 X-1.5275 Y1.1123 
G01 X-1.5298 Y1.1100 
G01 X-1.5451 Y1.0947 
G01 X-1.5480 Y1.0931 
G01 X-1.5511 Y1.0922 
G01 X-1.6016 Y1.0922 
G01 X-1.6350 Y1.0516 
G01 X-1.6350 Y1.0477 
G01 X-1.6358 Y1.0446 
G00 Z0.1000 
G00 X-1.6472 Y1.0762 
G01 Z-0.0070 F10.00 
G01 X-1.6178 Y1.1119 F20.00 
G01 X-1.6175 Y1.1124 
G01 X-1.6168 Y1.1131 
G01 X-1.6161 Y1.1139 
G01 X-1.6156 Y1.1143 
G01 X-1.6152 Y1.1147 
G01 X-1.6173 Y1.1155 
G01 X-1.6193 Y1.1175 
G01 X-1.6194 Y1.1171 
G01 X-1.6221 Y1.1144 
G01 X-1.6375 Y1.0991 
G01 X-1.6375 Y1.0952 
G01 X-1.6387 Y1.0907 
G01 X-1.6410 Y1.0868 
G01 X-1.6443 Y1.0835 
G01 X-1.6482 Y1.0812 
G01 X-1.6499 Y1.0808 
G01 X-1.6490 Y1.0800 
G01 X-1.6488 Y1.0796 
G01 X-1.6485 Y1.0793 
G01 X-1.6480 Y1.0781 
G01 X-1.6474 Y1.0770 
G01 X-1.6473 Y1.0766 
G01 X-1.6472 Y1.0762 
G00 Z0.1000 
G00 X-1.6602 Y1.1142 
G01 Z-0.0070 F10.00 
G01 X-1.6617 Y1.1157 F20.00 
G01 X-1.6630 Y1.1188 
G01 X-1.6630 Y1.1213 
G01 X-1.6632 Y1.1212 
G01 X-1.6648 Y1.1208 
G01 X-1.6633 Y1.1193 
G01 X-1.6620 Y1.1162 
G01 X-1.6620 Y1.1137 
G01 X-1.6618 Y1.1138 
G01 X-1.6602 Y1.1142 
G00 Z0.1000 
G00 X-1.6180 Y1.1790 
G01 Z-0.0070 F10.00 
G01 X-1.6173 Y1.1797 F20.00 
G01 X-1.6142 Y1.1810 
G01 X-1.6108 Y1.1810 
G01 X-1.6078 Y1.1797 
G01 X-1.6072 Y1.1792 
G01 X-1.6075 Y1.1802 
G01 X-1.6075 Y1.1848 
G01 X-1.6072 Y1.1858 
G01 X-1.6076 Y1.1854 
G01 X-1.6108 Y1.1840 
G01 X-1.6142 Y1.1840 
G01 X-1.6173 Y1.1853 
G01 X-1.6180 Y1.1860 
G01 X-1.6180 Y1.1790 
G00 Z0.1000 
G00 X-1.7577 Y1.2068 
G01 Z-0.0070 F10.00 
G01 X-1.9451 Y1.3925 F20.00 
G01 X-1.9463 Y1.3936 
G01 X-1.9475 Y1.3948 
G01 X-2.2652 Y1.7125 
G01 X-2.2675 Y1.7148 
G01 X-2.2691 Y1.7177 
G01 X-2.2700 Y1.7209 
G01 X-2.2700 Y2.1227 
G01 X-2.2707 Y2.1220 
G01 X-2.2711 Y2.1219 
G01 X-2.2714 Y2.1216 
G01 X-2.2726 Y2.1212 
G01 X-2.2738 Y2.1207 
G01 X-2.2742 Y2.1207 
G01 X-2.2746 Y2.1206 
G01 X-2.2755 Y2.1207 
G01 X-2.2750 Y2.1202 
G01 X-2.2747 Y2.1197 
G01 X-2.2743 Y2.1192 
G01 X-2.2739 Y2.1183 
G01 X-2.2734 Y2.1173 
G01 X-2.2732 Y2.1168 
G01 X-2.2730 Y2.1163 
G01 X-2.2728 Y2.1152 
G01 X-2.2725 Y2.1141 
G01 X-2.2725 Y2.1136 
G01 X-2.2724 Y2.1130 
G01 X-2.2725 Y2.1119 
G01 X-2.2725 Y1.7052 
G01 X-2.0149 Y1.4500 
G01 X-2.0137 Y1.4489 
G01 X-2.0125 Y1.4477 
G01 X-2.0112 Y1.4464 
G01 X-1.7672 Y1.2049 
G01 X-1.7670 Y1.2047 
G01 X-1.7660 Y1.2037 
G01 X-1.7650 Y1.2027 
G01 X-1.7649 Y1.2025 
G01 X-1.7647 Y1.2023 
G01 X-1.7645 Y1.2019 
G01 X-1.7641 Y1.2030 
G01 X-1.7640 Y1.2031 
G01 X-1.7639 Y1.2033 
G01 X-1.7628 Y1.2043 
G01 X-1.7617 Y1.2054 
G01 X-1.7615 Y1.2055 
G01 X-1.7614 Y1.2056 
G01 X-1.7600 Y1.2061 
G01 X-1.7586 Y1.2067 
G01 X-1.7584 Y1.2067 
G01 X-1.7582 Y1.2068 
G01 X-1.7577 Y1.2068 
G00 Z0.1000 
G00 X-1.6846 Y1.3733 
G01 Z-0.0070 F10.00 
G01 X-1.6842 Y1.3743 F20.00 
G01 X-1.6818 Y1.3767 
G01 X-1.6794 Y1.3777 
G01 X-1.6807 Y1.3785 
G01 X-1.6840 Y1.3818 
G01 X-1.6863 Y1.3857 
G01 X-1.6875 Y1.3902 
G01 X-1.6875 Y1.3948 
G01 X-1.6863 Y1.3993 
G01 X-1.6841 Y1.4030 
G01 X-1.6852 Y1.4030 
G01 X-1.6865 Y1.4035 
G01 X-1.6875 Y1.4039 
G01 X-1.6875 Y1.3772 
G01 X-1.6860 Y1.3757 
G01 X-1.6846 Y1.3733 
G00 Z0.1000 
G00 X-1.6356 Y1.4254 
G01 Z-0.0070 F10.00 
G01 X-1.6354 Y1.4254 F20.00 
G01 X-1.6347 Y1.4256 
G01 X-1.6337 Y1.4254 
G01 X-1.6327 Y1.4254 
G01 X-1.6321 Y1.4251 
G01 X-1.6314 Y1.4250 
G01 X-1.6305 Y1.4245 
G01 X-1.6297 Y1.4242 
G01 X-1.6300 Y1.4252 
G01 X-1.6300 Y1.4298 
G01 X-1.6288 Y1.4343 
G01 X-1.6265 Y1.4382 
G01 X-1.6232 Y1.4415 
G01 X-1.6193 Y1.4438 
G01 X-1.6162 Y1.4446 
G01 X-1.5997 Y1.4645 
G01 X-1.6000 Y1.4646 
G01 X-1.6006 Y1.4645 
G01 X-1.6016 Y1.4648 
G01 X-1.6027 Y1.4650 
G01 X-1.6032 Y1.4653 
G01 X-1.6038 Y1.4655 
G01 X-1.6047 Y1.4662 
G01 X-1.6056 Y1.4668 
G01 X-1.6059 Y1.4673 
G01 X-1.6064 Y1.4677 
G01 X-1.6069 Y1.4686 
G01 X-1.6076 Y1.4695 
G01 X-1.6077 Y1.4701 
G01 X-1.6078 Y1.4704 
G01 X-1.6356 Y1.4254 
G00 Z0.1000 
G00 X-1.5950 Y1.4252 
G01 Z-0.0070 F10.00 
G01 X-1.5962 Y1.4207 F20.00 
G01 X-1.5985 Y1.4168 
G01 X-1.6018 Y1.4135 
G01 X-1.6057 Y1.4112 
G01 X-1.6093 Y1.4103 
G01 X-1.6083 Y1.4093 
G01 X-1.6070 Y1.4062 
G01 X-1.6070 Y1.4037 
G01 X-1.6068 Y1.4038 
G01 X-1.6023 Y1.4050 
G01 X-1.6018 Y1.4050 
G01 X-1.4950 Y1.5467 
G01 X-1.4975 Y2.0341 
G01 X-1.4976 Y2.0349 
G01 X-1.4975 Y2.0357 
G01 X-1.4975 Y2.0366 
G01 X-1.4973 Y2.0373 
G01 X-1.4972 Y2.0381 
G01 X-1.4969 Y2.0389 
G01 X-1.4967 Y2.0398 
G01 X-1.4963 Y2.0405 
G01 X-1.4960 Y2.0412 
G01 X-1.4955 Y2.0419 
G01 X-1.4951 Y2.0425 
G01 X-1.4961 Y2.0425 
G01 X-1.4977 Y2.0431 
G01 X-1.4993 Y2.0438 
G01 X-1.5000 Y2.0445 
G01 X-1.5000 Y1.5506 
G01 X-1.4999 Y1.5495 
G01 X-1.5000 Y1.5489 
G01 X-1.5000 Y1.5484 
G01 X-1.5003 Y1.5473 
G01 X-1.5005 Y1.5463 
G01 X-1.5007 Y1.5457 
G01 X-1.5009 Y1.5452 
G01 X-1.5014 Y1.5443 
G01 X-1.5018 Y1.5433 
G01 X-1.5022 Y1.5428 
G01 X-1.5025 Y1.5423 
G01 X-1.5033 Y1.5416 
G01 X-1.5952 Y1.4307 
G01 X-1.5950 Y1.4298 
G01 X-1.5950 Y1.4252 
G00 Z0.1000 
G00 X-1.4815 Y1.4157 
G01 Z-0.0070 F10.00 
G01 X-1.4782 Y1.4190 F20.00 
G01 X-1.4743 Y1.4213 
G01 X-1.4713 Y1.4221 
G01 X-1.3986 Y1.5334 
G01 X-1.3983 Y1.5339 
G01 X-1.3977 Y1.5348 
G01 X-1.3975 Y1.5351 
G01 X-1.3977 Y1.5351 
G01 X-1.3978 Y1.5350 
G01 X-1.3994 Y1.5353 
G01 X-1.4009 Y1.5356 
G01 X-1.4010 Y1.5356 
G01 X-1.4011 Y1.5357 
G01 X-1.4024 Y1.5365 
G01 X-1.4038 Y1.5373 
G01 X-1.4039 Y1.5374 
G01 X-1.4040 Y1.5375 
G01 X-1.4048 Y1.5388 
G01 X-1.4058 Y1.5401 
G01 X-1.4058 Y1.5402 
G01 X-1.4059 Y1.5403 
G01 X-1.4060 Y1.5410 
G01 X-1.4906 Y1.4029 
G01 X-1.4904 Y1.4029 
G01 X-1.4897 Y1.4030 
G01 X-1.4887 Y1.4029 
G01 X-1.4877 Y1.4029 
G01 X-1.4871 Y1.4026 
G01 X-1.4864 Y1.4025 
G01 X-1.4855 Y1.4020 
G01 X-1.4847 Y1.4016 
G01 X-1.4850 Y1.4027 
G01 X-1.4850 Y1.4073 
G01 X-1.4838 Y1.4118 
G01 X-1.4815 Y1.4157 
G00 Z0.1000 
G00 X-1.4503 Y1.4085 
G01 Z-0.0070 F10.00 
G01 X-1.4500 Y1.4073 F20.00 
G01 X-1.4500 Y1.4060 
G01 X-1.4493 Y1.4067 
G01 X-1.4462 Y1.4080 
G01 X-1.4428 Y1.4080 
G01 X-1.4398 Y1.4067 
G01 X-1.4400 Y1.4077 
G01 X-1.4400 Y1.4123 
G01 X-1.4388 Y1.4168 
G01 X-1.4365 Y1.4207 
G01 X-1.4332 Y1.4240 
G01 X-1.4293 Y1.4263 
G01 X-1.4270 Y1.4269 
G01 X-1.3785 Y1.5084 
G01 X-1.3781 Y1.5093 
G01 X-1.3777 Y1.5098 
G01 X-1.3774 Y1.5103 
G01 X-1.3766 Y1.5110 
G01 X-1.3760 Y1.5118 
G01 X-1.3755 Y1.5122 
G01 X-1.3750 Y1.5126 
G01 X-1.3741 Y1.5131 
G01 X-1.3733 Y1.5137 
G01 X-1.3727 Y1.5139 
G01 X-1.3722 Y1.5142 
G01 X-1.3711 Y1.5145 
G01 X-1.3378 Y1.5264 
G01 X-1.3373 Y1.5266 
G01 X-1.3362 Y1.5269 
G01 X-1.3352 Y1.5273 
G01 X-1.3346 Y1.5274 
G01 X-1.3341 Y1.5275 
G01 X-1.3330 Y1.5275 
G01 X-1.3319 Y1.5276 
G01 X-1.3314 Y1.5275 
G01 X-1.0522 Y1.5275 
G01 X-1.0400 Y1.5484 
G01 X-1.0375 Y1.7875 
G01 X-1.0387 Y2.1403 
G01 X-1.0394 Y2.1396 
G01 X-1.0410 Y2.1390 
G01 X-1.0425 Y2.1383 
G01 X-1.0443 Y2.1383 
G01 X-1.0454 Y2.1383 
G01 X-1.0428 Y2.1321 
G01 X-1.0415 Y2.1254 
G01 X-1.0415 Y2.0586 
G01 X-1.0428 Y2.0519 
G01 X-1.0454 Y2.0457 
G01 X-1.0492 Y2.0400 
G01 X-1.0540 Y2.0352 
G01 X-1.0572 Y2.0331 
G01 X-1.0527 Y1.9949 
G01 X-1.0525 Y1.9942 
G01 X-1.0525 Y1.9933 
G01 X-1.0524 Y1.9923 
G01 X-1.0525 Y1.9916 
G01 X-1.0500 Y1.5733 
G01 X-1.0499 Y1.5724 
G01 X-1.0500 Y1.5717 
G01 X-1.0500 Y1.5709 
G01 X-1.0502 Y1.5701 
G01 X-1.0503 Y1.5692 
G01 X-1.0506 Y1.5685 
G01 X-1.0508 Y1.5677 
G01 X-1.0513 Y1.5670 
G01 X-1.0516 Y1.5661 
G01 X-1.0521 Y1.5655 
G01 X-1.0525 Y1.5649 
G01 X-1.0531 Y1.5642 
G01 X-1.0696 Y1.5430 
G01 X-1.0700 Y1.5423 
G01 X-1.0706 Y1.5417 
G01 X-1.0711 Y1.5410 
G01 X-1.0718 Y1.5406 
G01 X-1.0775 Y1.5348 
G01 X-1.0798 Y1.5325 
G01 X-1.0827 Y1.5309 
G01 X-1.0859 Y1.5300 
G01 X-1.3476 Y1.5300 
G01 X-1.3792 Y1.5174 
G01 X-1.4503 Y1.4085 
G00 Z0.1000 
G00 X-1.3769 Y1.1901 
G01 Z-0.0070 F10.00 
G01 X-1.3762 Y1.1894 F20.00 
G01 X-1.3756 Y1.1878 
G01 X-1.3749 Y1.1863 
G01 X-1.3749 Y1.1851 
G01 X-1.3723 Y1.1866 
G01 X-1.3691 Y1.1875 
G01 X-0.8709 Y1.1875 
G01 X-0.8425 Y1.2220 
G01 X-0.8425 Y1.2668 
G01 X-0.8426 Y1.2678 
G01 X-0.8425 Y1.2684 
G01 X-0.8425 Y1.2691 
G01 X-0.8423 Y1.2701 
G01 X-0.8421 Y1.2710 
G01 X-0.8418 Y1.2716 
G01 X-0.8416 Y1.2723 
G01 X-0.8412 Y1.2732 
G01 X-0.8408 Y1.2740 
G01 X-0.8404 Y1.2746 
G01 X-0.8400 Y1.2752 
G01 X-0.8393 Y1.2758 
G01 X-0.8103 Y1.3121 
G01 X-0.8100 Y1.3127 
G01 X-0.8093 Y1.3134 
G01 X-0.8087 Y1.3141 
G01 X-0.8081 Y1.3145 
G01 X-0.8076 Y1.3150 
G01 X-0.8068 Y1.3155 
G01 X-0.8061 Y1.3160 
G01 X-0.8054 Y1.3163 
G01 X-0.8048 Y1.3167 
G01 X-0.8039 Y1.3169 
G01 X-0.8030 Y1.3172 
G01 X-0.8023 Y1.3173 
G01 X-0.8016 Y1.3175 
G01 X-0.8007 Y1.3175 
G01 X-0.7997 Y1.3176 
G01 X-0.7990 Y1.3175 
G01 X-0.3748 Y1.3150 
G01 X-0.3244 Y1.4054 
G01 X-0.3250 Y1.4077 
G01 X-0.3250 Y1.4123 
G01 X-0.3241 Y1.4157 
G01 X-0.3245 Y1.4157 
G01 X-0.3248 Y1.4156 
G01 X-0.3262 Y1.4157 
G01 X-0.3275 Y1.4157 
G01 X-0.3279 Y1.4158 
G01 X-0.3282 Y1.4159 
G01 X-0.3294 Y1.4165 
G01 X-0.3306 Y1.4170 
G01 X-0.3309 Y1.4172 
G01 X-0.3312 Y1.4174 
G01 X-0.3321 Y1.4184 
G01 X-0.3330 Y1.4194 
G01 X-0.3332 Y1.4197 
G01 X-0.3334 Y1.4200 
G01 X-0.3340 Y1.4190 
G01 X-0.3808 Y1.3279 
G01 X-0.3809 Y1.3276 
G01 X-0.3815 Y1.3265 
G01 X-0.3821 Y1.3253 
G01 X-0.3824 Y1.3251 
G01 X-0.3825 Y1.3248 
G01 X-0.3835 Y1.3239 
G01 X-0.3843 Y1.3229 
G01 X-0.3846 Y1.3227 
G01 X-0.3849 Y1.3225 
G01 X-0.3860 Y1.3218 
G01 X-0.3871 Y1.3211 
G01 X-0.3874 Y1.3210 
G01 X-0.3877 Y1.3208 
G01 X-0.3890 Y1.3205 
G01 X-0.3902 Y1.3201 
G01 X-0.3906 Y1.3201 
G01 X-0.3909 Y1.3200 
G01 X-0.3922 Y1.3200 
G01 X-0.3935 Y1.3199 
G01 X-0.3939 Y1.3200 
G01 X-0.8116 Y1.3225 
G01 X-0.8525 Y1.2730 
G01 X-0.8525 Y1.2259 
G01 X-0.8524 Y1.2251 
G01 X-0.8525 Y1.2242 
G01 X-0.8525 Y1.2234 
G01 X-0.8527 Y1.2226 
G01 X-0.8528 Y1.2219 
G01 X-0.8531 Y1.2210 
G01 X-0.8534 Y1.2202 
G01 X-0.8537 Y1.2195 
G01 X-0.8540 Y1.2188 
G01 X-0.8546 Y1.2181 
G01 X-0.8550 Y1.2173 
G01 X-0.8555 Y1.2168 
G01 X-0.8695 Y1.1981 
G01 X-0.8700 Y1.1974 
G01 X-0.8705 Y1.1968 
G01 X-0.8710 Y1.1962 
G01 X-0.8717 Y1.1956 
G01 X-0.8723 Y1.1950 
G01 X-0.8730 Y1.1946 
G01 X-0.8736 Y1.1942 
G01 X-0.8744 Y1.1938 
G01 X-0.8751 Y1.1934 
G01 X-0.8759 Y1.1932 
G01 X-0.8766 Y1.1929 
G01 X-0.8775 Y1.1927 
G01 X-0.8783 Y1.1925 
G01 X-0.8791 Y1.1925 
G01 X-0.8799 Y1.1924 
G01 X-0.8807 Y1.1925 
G01 X-1.3769 Y1.1901 
G00 Z0.1000 
G00 X-1.3531 Y0.9905 
G01 Z-0.0070 F10.00 
G01 X-2.2987 Y0.9905 F20.00 
G01 X-2.2982 Y0.9901 
G01 X-2.2981 Y0.9899 
G01 X-2.2980 Y0.9898 
G01 X-2.2975 Y0.9884 
G01 X-2.2968 Y0.9870 
G01 X-2.2968 Y0.9868 
G01 X-2.2967 Y0.9867 
G01 X-2.2967 Y0.9851 
G01 X-2.2967 Y0.9836 
G01 X-2.2967 Y0.9835 
G01 X-2.2967 Y0.9833 
G01 X-2.2970 Y0.9827 
G01 X-2.2855 Y0.9879 
G01 X-2.2854 Y0.9881 
G01 X-2.2838 Y0.9887 
G01 X-2.2822 Y0.9894 
G01 X-2.2820 Y0.9894 
G01 X-2.2819 Y0.9895 
G01 X-2.2802 Y0.9895 
G01 X-2.2784 Y0.9896 
G01 X-2.2783 Y0.9895 
G01 X-1.3481 Y0.9895 
G01 X-1.3446 Y0.9881 
G01 X-1.3419 Y0.9854 
G01 X-1.3382 Y0.9816 
G01 X-1.3357 Y0.9840 
G01 X-1.3318 Y0.9863 
G01 X-1.3273 Y0.9875 
G01 X-1.3227 Y0.9875 
G01 X-1.3185 Y0.9864 
G01 X-1.3185 Y0.9886 
G01 X-1.3227 Y0.9875 
G01 X-1.3273 Y0.9875 
G01 X-1.3318 Y0.9887 
G01 X-1.3357 Y0.9910 
G01 X-1.3390 Y0.9943 
G01 X-1.3397 Y0.9955 
G01 X-1.3461 Y0.9955 
G01 X-1.3469 Y0.9946 
G01 X-1.3496 Y0.9919 
G01 X-1.3531 Y0.9905 
G00 Z0.1000 
G00 X-1.2735 Y1.0124 
G01 Z-0.0070 F10.00 
G01 X-1.2735 Y1.0141 F20.00 
G01 X-1.2735 Y1.0142 
G01 X-1.2729 Y1.0157 
G01 X-1.2723 Y1.0172 
G01 X-1.2711 Y1.0185 
G01 X-1.1951 Y1.0965 
G01 X-1.1961 Y1.0965 
G01 X-1.1962 Y1.0965 
G01 X-1.1977 Y1.0972 
G01 X-1.1992 Y1.0978 
G01 X-1.2004 Y1.0989 
G01 X-1.2012 Y1.0957 
G01 X-1.2035 Y1.0918 
G01 X-1.2068 Y1.0885 
G01 X-1.2107 Y1.0862 
G01 X-1.2152 Y1.0850 
G01 X-1.2198 Y1.0850 
G01 X-1.2202 Y1.0851 
G01 X-1.2765 Y1.0194 
G01 X-1.2765 Y0.7728 
G01 X-1.2607 Y0.7510 
G01 X-0.8008 Y0.7510 
G01 X-0.7977 Y0.7497 
G01 X-0.7972 Y0.7492 
G01 X-0.7972 Y0.7502 
G01 X-0.7959 Y0.7533 
G01 X-0.7952 Y0.7540 
G01 X-1.2518 Y0.7540 
G01 X-1.2528 Y0.7538 
G01 X-1.2535 Y0.7540 
G01 X-1.2542 Y0.7540 
G01 X-1.2551 Y0.7544 
G01 X-1.2561 Y0.7546 
G01 X-1.2566 Y0.7550 
G01 X-1.2573 Y0.7553 
G01 X-1.2580 Y0.7560 
G01 X-1.2588 Y0.7566 
G01 X-1.2592 Y0.7572 
G01 X-1.2597 Y0.7577 
G01 X-1.2601 Y0.7586 
G01 X-1.2717 Y0.7772 
G01 X-1.2722 Y0.7777 
G01 X-1.2726 Y0.7786 
G01 X-1.2731 Y0.7794 
G01 X-1.2732 Y0.7801 
G01 X-1.2735 Y0.7808 
G01 X-1.2735 Y0.7818 
G01 X-1.2737 Y0.7828 
G01 X-1.2735 Y0.7835 
G01 X-1.2735 Y1.0124 
G00 Z0.1000 
G00 X-1.2165 Y0.9125 
G01 Z-0.0070 F10.00 
G01 X-1.2165 Y0.9108 F20.00 
G01 X-1.2170 Y0.9096 
G01 X-1.2178 Y0.9077 
G01 X-1.2183 Y0.9072 
G01 X-1.2173 Y0.9075 
G01 X-1.2127 Y0.9075 
G01 X-1.2082 Y0.9063 
G01 X-1.2060 Y0.9050 
G01 X-1.2060 Y0.9067 
G01 X-1.2047 Y0.9098 
G01 X-1.2042 Y0.9103 
G01 X-1.2052 Y0.9100 
G01 X-1.2098 Y0.9100 
G01 X-1.2143 Y0.9112 
G01 X-1.2165 Y0.9125 
G00 Z0.1000 
G00 X-1.2506 Y0.8155 
G01 Z-0.0070 F10.00 
G01 X-1.2527 Y0.8155 F20.00 
G01 X-1.2558 Y0.8168 
G01 X-1.2565 Y0.8175 
G01 X-1.2565 Y0.7975 
G01 X-1.2558 Y0.7982 
G01 X-1.2528 Y0.7994 
G01 X-1.2506 Y0.7995 
G01 X-1.2513 Y0.8007 
G01 X-1.2525 Y0.8052 
G01 X-1.2525 Y0.8098 
G01 X-1.2513 Y0.8143 
G01 X-1.2506 Y0.8155 
G00 Z0.1000 
G00 X-1.1023 Y0.9735 
G01 Z-0.0070 F10.00 
G01 X-0.3728 Y0.9735 F20.00 
G01 X-0.3714 Y0.9736 
G01 X-0.3711 Y0.9735 
G01 X-0.3708 Y0.9735 
G01 X-0.3695 Y0.9730 
G01 X-0.3682 Y0.9725 
G01 X-0.3680 Y0.9723 
G01 X-0.3677 Y0.9722 
G01 X-0.3667 Y0.9712 
G01 X-0.3302 Y0.9396 
G01 X-0.3303 Y0.9406 
G01 X-0.3302 Y0.9409 
G01 X-0.3302 Y0.9412 
G01 X-0.3297 Y0.9425 
G01 X-0.3292 Y0.9438 
G01 X-0.3290 Y0.9440 
G01 X-0.3289 Y0.9443 
G01 X-0.3282 Y0.9450 
G01 X-0.3298 Y0.9450 
G01 X-0.3343 Y0.9462 
G01 X-0.3382 Y0.9485 
G01 X-0.3415 Y0.9518 
G01 X-0.3438 Y0.9557 
G01 X-0.3450 Y0.9602 
G01 X-0.3450 Y0.9648 
G01 X-0.3440 Y0.9685 
G01 X-0.3532 Y0.9765 
G01 X-1.0936 Y0.9765 
G01 X-1.0939 Y0.9764 
G01 X-1.0953 Y0.9765 
G01 X-1.0967 Y0.9765 
G01 X-1.0970 Y0.9766 
G01 X-1.0973 Y0.9766 
G01 X-1.0985 Y0.9773 
G01 X-1.0998 Y0.9778 
G01 X-1.1000 Y0.9780 
G01 X-1.1003 Y0.9781 
G01 X-1.1003 Y0.9773 
G01 X-1.1010 Y0.9757 
G01 X-1.1016 Y0.9742 
G01 X-1.1023 Y0.9735 
G00 Z0.1000 
G00 X-0.6591 Y0.8990 
G01 Z-0.0070 F10.00 
G01 X-0.6584 Y0.8983 F20.00 
G01 X-0.6577 Y0.8965 
G01 X-0.6571 Y0.8952 
G01 X-0.6571 Y0.8918 
G01 X-0.6581 Y0.8895 
G01 X-0.5369 Y0.8895 
G01 X-0.5379 Y0.8918 
G01 X-0.5379 Y0.8952 
G01 X-0.5373 Y0.8964 
G01 X-0.5366 Y0.8983 
G01 X-0.5359 Y0.8990 
G01 X-0.6591 Y0.8990 
G00 Z0.1000 
G00 X-0.6609 Y1.5095 
G01 Z-0.0070 F10.00 
G01 X-0.5611 Y1.5095 F20.00 
G01 X-0.5618 Y1.5102 
G01 X-0.5630 Y1.5133 
G01 X-0.5630 Y1.5167 
G01 X-0.5618 Y1.5198 
G01 X-0.5616 Y1.5200 
G01 X-0.5622 Y1.5199 
G01 X-0.5632 Y1.5200 
G01 X-0.6639 Y1.5200 
G01 X-0.6703 Y1.5119 
G01 X-0.6693 Y1.5120 
G01 X-0.6688 Y1.5119 
G01 X-0.6683 Y1.5119 
G01 X-0.6672 Y1.5114 
G01 X-0.6661 Y1.5111 
G01 X-0.6657 Y1.5108 
G01 X-0.6652 Y1.5106 
G01 X-0.6643 Y1.5097 
G01 X-0.6634 Y1.5090 
G01 X-0.6632 Y1.5085 
G01 X-0.6630 Y1.5084 
G01 X-0.6625 Y1.5088 
G01 X-0.6609 Y1.5095 
G00 Z0.1000 
G00 X-0.6689 Y1.6995 
G01 Z-0.0070 F10.00 
G01 X-0.6696 Y1.7002 F20.00 
G01 X-0.6709 Y1.7033 
G01 X-0.6709 Y1.7043 
G01 X-0.6720 Y1.7032 
G01 X-0.6720 Y1.6995 
G01 X-0.6689 Y1.6995 
G00 Z0.1000 
G00 X-0.7867 Y1.6965 
G01 Z-0.0070 F10.00 
G01 X-0.7868 Y1.6965 F20.00 
G01 X-0.7868 Y1.6963 
G01 X-0.7867 Y1.6965 
G00 Z0.1000 
G00 X-0.7868 Y1.6487 
G01 Z-0.0070 F10.00 
G01 X-0.7868 Y1.6485 F20.00 
G01 X-0.7868 Y1.6487 
G00 Z0.1000 
G00 X-0.7935 Y1.6444 
G01 Z-0.0070 F10.00 
G01 X-0.8213 Y1.6444 F20.00 
G01 X-0.8213 Y1.6441 
G01 X-0.8207 Y1.6428 
G01 X-0.8207 Y1.6394 
G01 X-0.8212 Y1.6382 
G01 X-0.8220 Y1.6363 
G01 X-0.8227 Y1.6356 
G01 X-0.7934 Y1.6356 
G01 X-0.7938 Y1.6365 
G01 X-0.7944 Y1.6377 
G01 X-0.7944 Y1.6380 
G01 X-0.7946 Y1.6383 
G01 X-0.7946 Y1.6397 
G01 X-0.7947 Y1.6411 
G01 X-0.7946 Y1.6414 
G01 X-0.7946 Y1.6417 
G01 X-0.7940 Y1.6430 
G01 X-0.7936 Y1.6443 
G00 Z0.1000 
G00 X-0.7894 Y1.6321 
G01 Z-0.0070 F10.00 
G01 X-0.7893 Y1.6320 F20.00 
G01 X-0.7893 Y1.6180 
G01 X-0.7870 Y1.6180 
G01 X-0.7870 Y1.6309 
G01 X-0.7868 Y1.6314 
G01 X-0.7871 Y1.6314 
G01 X-0.7874 Y1.6315 
G01 X-0.7877 Y1.6315 
G01 X-0.7890 Y1.6320 
G01 X-0.7894 Y1.6321 
G00 Z0.1000 
G00 X-0.7893 Y1.5970 
G01 Z-0.0070 F10.00 
G01 X-0.7893 Y1.5844 F20.00 
G01 X-0.7876 Y1.5845 
G01 X-0.7870 Y1.5845 
G01 X-0.7870 Y1.5970 
G01 X-0.7893 Y1.5970 
G00 Z0.1000 
G00 X-0.8662 Y1.6356 
G01 Z-0.0070 F10.00 
G01 X-0.8668 Y1.6372 F20.00 
G01 X-0.8668 Y1.6406 
G01 X-0.8657 Y1.6432 
G01 X-0.8655 Y1.6437 
G01 X-0.8648 Y1.6444 
G01 X-0.8922 Y1.6444 
G01 X-0.8921 Y1.6441 
G01 X-0.8916 Y1.6428 
G01 X-0.8916 Y1.6394 
G01 X-0.8921 Y1.6382 
G01 X-0.8929 Y1.6363 
G01 X-0.8935 Y1.6356 
G01 X-0.8662 Y1.6356 
G00 Z0.1000 
G00 X-1.0150 Y1.5449 
G01 Z-0.0070 F10.00 
G01 X-1.0150 Y1.5433 F20.00 
G01 X-1.0155 Y1.5417 
G01 X-1.0159 Y1.5401 
G01 X-1.0163 Y1.5394 
G01 X-1.0160 Y1.5394 
G01 X-1.0154 Y1.5396 
G01 X-1.0143 Y1.5394 
G01 X-1.0131 Y1.5394 
G01 X-1.0126 Y1.5392 
G01 X-1.0120 Y1.5391 
G01 X-1.0111 Y1.5386 
G01 X-1.0100 Y1.5381 
G01 X-1.0096 Y1.5377 
G01 X-1.0093 Y1.5376 
G01 X-1.0075 Y2.1089 
G01 X-1.0076 Y2.1093 
G01 X-1.0075 Y2.1105 
G01 X-1.0075 Y2.1117 
G01 X-1.0074 Y2.1121 
G01 X-1.0073 Y2.1126 
G01 X-1.0069 Y2.1137 
G01 X-1.0068 Y2.1141 
G01 X-1.0074 Y2.1141 
G01 X-1.0083 Y2.1139 
G01 X-1.0091 Y2.1141 
G01 X-1.0098 Y2.1141 
G01 X-1.0107 Y2.1144 
G01 X-1.0116 Y2.1146 
G01 X-1.0123 Y2.1151 
G01 X-1.0130 Y2.1154 
G01 X-1.0136 Y2.1160 
G01 X-1.0125 Y1.7891 
G01 X-1.0125 Y1.7875 
G01 X-1.0125 Y1.7859 
G01 X-1.0150 Y1.5449 
G00 Z0.1000 
G00 X-1.1616 Y1.6759 
G01 Z-0.0070 F10.00 
G01 X-1.1625 Y1.6781 F20.00 
G01 X-1.1634 Y1.6828 
G01 X-1.1634 Y1.7272 
G01 X-1.1625 Y1.7319 
G01 X-1.1616 Y1.7341 
G01 X-1.1620 Y1.7339 
G01 X-1.1654 Y1.7339 
G01 X-1.1658 Y1.7341 
G01 X-1.1649 Y1.7319 
G01 X-1.1639 Y1.7272 
G01 X-1.1639 Y1.6828 
G01 X-1.1649 Y1.6781 
G01 X-1.1658 Y1.6759 
G01 X-1.1654 Y1.6761 
G01 X-1.1620 Y1.6761 
G01 X-1.1616 Y1.6759 
G00 Z0.1000 
G00 X-1.2112 Y1.6769 
G01 Z-0.0070 F10.00 
G01 X-1.2117 Y1.6781 F20.00 
G01 X-1.2126 Y1.6828 
G01 X-1.2126 Y1.7272 
G01 X-1.2117 Y1.7319 
G01 X-1.2112 Y1.7331 
G01 X-1.2121 Y1.7328 
G01 X-1.2129 Y1.7328 
G01 X-1.2138 Y1.7326 
G01 X-1.2144 Y1.7327 
G01 X-1.2141 Y1.7319 
G01 X-1.2132 Y1.7272 
G01 X-1.2132 Y1.6828 
G01 X-1.2141 Y1.6781 
G01 X-1.2144 Y1.6773 
G01 X-1.2138 Y1.6774 
G01 X-1.2129 Y1.6772 
G01 X-1.2121 Y1.6772 
G01 X-1.2113 Y1.6769 
G00 Z0.1000 
G00 X-1.2606 Y1.6773 
G01 Z-0.0070 F10.00 
G01 X-1.2609 Y1.6781 F20.00 
G01 X-1.2618 Y1.6828 
G01 X-1.2618 Y1.7272 
G01 X-1.2609 Y1.7319 
G01 X-1.2606 Y1.7327 
G01 X-1.2612 Y1.7326 
G01 X-1.2621 Y1.7328 
G01 X-1.2629 Y1.7328 
G01 X-1.2637 Y1.7331 
G01 X-1.2633 Y1.7319 
G01 X-1.2624 Y1.7272 
G01 X-1.2624 Y1.6828 
G01 X-1.2633 Y1.6781 
G01 X-1.2638 Y1.6769 
G01 X-1.2629 Y1.6772 
G01 X-1.2621 Y1.6772 
G01 X-1.2612 Y1.6774 
G01 X-1.2606 Y1.6773 
G00 Z0.1000 
G00 X-1.3092 Y1.6759 
G01 Z-0.0070 F10.00 
G01 X-1.3101 Y1.6781 F20.00 
G01 X-1.3111 Y1.6828 
G01 X-1.3111 Y1.7272 
G01 X-1.3101 Y1.7319 
G01 X-1.3092 Y1.7341 
G01 X-1.3096 Y1.7339 
G01 X-1.3130 Y1.7339 
G01 X-1.3134 Y1.7341 
G01 X-1.3125 Y1.7319 
G01 X-1.3116 Y1.7272 
G01 X-1.3116 Y1.6828 
G01 X-1.3125 Y1.6781 
G01 X-1.3134 Y1.6759 
G01 X-1.3130 Y1.6761 
G01 X-1.3096 Y1.6761 
G01 X-1.3092 Y1.6759 
G00 Z0.1000 
G00 X-0.9827 Y2.0330 
G01 Z-0.0070 F10.00 
G01 X-0.9821 Y2.0337 F20.00 
G01 X-0.9814 Y2.0339 
G01 X-0.9809 Y2.0343 
G01 X-0.9799 Y2.0346 
G01 X-0.9789 Y2.0349 
G01 X-0.9783 Y2.0349 
G01 X-0.9776 Y2.0351 
G01 X-0.9766 Y2.0349 
G01 X-0.9780 Y2.0385 
G01 X-0.9795 Y2.0461 
G01 X-0.9795 Y2.0539 
G01 X-0.9780 Y2.0615 
G01 X-0.9764 Y2.0653 
G01 X-0.9775 Y2.0651 
G01 X-0.9781 Y2.0653 
G01 X-0.9788 Y2.0653 
G01 X-0.9798 Y2.0657 
G01 X-0.9807 Y2.0659 
G01 X-0.9813 Y2.0663 
G01 X-0.9820 Y2.0666 
G01 X-0.9826 Y2.0673 
G01 X-0.9827 Y2.0330 
G00 Z0.1000 
G00 X-0.9701 Y2.1241 
G01 Z-0.0070 F10.00 
G01 X-0.9701 Y2.1241 F20.00 
G00 Z0.1000 
G00 X-1.0393 Y2.2992 
G01 Z-0.0070 F10.00 
G01 X-1.0397 Y2.3972 F20.00 
G01 X-1.0403 Y2.3966 
G01 X-1.0419 Y2.3959 
G01 X-1.0435 Y2.3953 
G01 X-1.0452 Y2.3952 
G01 X-1.0460 Y2.3952 
G01 X-1.0454 Y2.3943 
G01 X-1.0428 Y2.3881 
G01 X-1.0415 Y2.3814 
G01 X-1.0415 Y2.3146 
G01 X-1.0428 Y2.3079 
G01 X-1.0454 Y2.3017 
G01 X-1.0458 Y2.3011 
G01 X-1.0448 Y2.3011 
G01 X-1.0431 Y2.3012 
G01 X-1.0415 Y2.3005 
G01 X-1.0400 Y2.2999 
G01 X-1.0393 Y2.2992 
G00 Z0.1000 
G00 X-1.4608 Y2.3819 
G01 Z-0.0070 F10.00 
G01 X-1.4614 Y2.3834 F20.00 
G01 X-1.4626 Y2.3822 
G01 X-1.4616 Y2.3822 
G01 X-1.4608 Y2.3819 
G00 Z0.1000 
G00 X-1.8532 Y2.6399 
G01 Z-0.0070 F10.00 
G01 X-1.8535 Y2.6411 F20.00 
G01 X-1.8547 Y2.6487 
G01 X-1.8547 Y2.6563 
G01 X-1.8535 Y2.6639 
G01 X-1.8532 Y2.6651 
G01 X-1.8545 Y2.6646 
G01 X-1.8562 Y2.6646 
G01 X-1.8579 Y2.6646 
G01 X-1.8588 Y2.6649 
G01 X-1.8575 Y2.6619 
G01 X-1.8563 Y2.6557 
G01 X-1.8563 Y2.6493 
G01 X-1.8575 Y2.6431 
G01 X-1.8588 Y2.6401 
G01 X-1.8579 Y2.6404 
G01 X-1.8562 Y2.6404 
G01 X-1.8545 Y2.6404 
G01 X-1.8532 Y2.6399 
G00 Z0.1000 
G00 X-2.0762 Y2.6401 
G01 Z-0.0070 F10.00 
G01 X-2.0775 Y2.6431 F20.00 
G01 X-2.0787 Y2.6493 
G01 X-2.0787 Y2.6557 
G01 X-2.0775 Y2.6619 
G01 X-2.0762 Y2.6649 
G01 X-2.0771 Y2.6646 
G01 X-2.0788 Y2.6646 
G01 X-2.0805 Y2.6646 
G01 X-2.0818 Y2.6651 
G01 X-2.0815 Y2.6639 
G01 X-2.0802 Y2.6563 
G01 X-2.0802 Y2.6487 
G01 X-2.0815 Y2.6411 
G01 X-2.0818 Y2.6399 
G01 X-2.0805 Y2.6404 
G01 X-2.0788 Y2.6404 
G01 X-2.0771 Y2.6404 
G01 X-2.0762 Y2.6401 
G00 Z0.1000 
G00 X-1.8732 Y1.8099 
G01 Z-0.0070 F10.00 
G01 X-1.8725 Y1.8073 F20.00 
G01 X-1.8725 Y1.8035 
G01 X-1.8718 Y1.8042 
G01 X-1.8700 Y1.8049 
G01 X-1.8687 Y1.8055 
G01 X-1.8653 Y1.8055 
G01 X-1.8643 Y1.8051 
G01 X-1.8650 Y1.8077 
G01 X-1.8650 Y1.8115 
G01 X-1.8657 Y1.8108 
G01 X-1.8688 Y1.8095 
G01 X-1.8722 Y1.8095 
G01 X-1.8732 Y1.8099 
G00 Z0.1000 
G00 X-2.4867 Y1.0503 
G01 Z-0.0070 F10.00 
G01 X-2.4877 Y1.0500 F20.00 
G01 X-2.4923 Y1.0500 
G01 X-2.4940 Y1.0504 
G01 X-2.4930 Y1.0482 
G01 X-2.4930 Y1.0448 
G01 X-2.4943 Y1.0417 
G01 X-2.4950 Y1.0410 
G01 X-2.4881 Y1.0410 
G01 X-2.4877 Y1.0411 
G01 X-2.4878 Y1.0414 
G01 X-2.4886 Y1.0432 
G01 X-2.4886 Y1.0466 
G01 X-2.4875 Y1.0492 
G01 X-2.4873 Y1.0497 
G01 X-2.4867 Y1.0503 
G00 Z0.1000 
G00 X-2.4903 Y1.0240 
G01 Z-0.0070 F10.00 
G01 X-2.8017 Y1.0240 F20.00 
G01 X-2.8048 Y1.0253 
G01 X-2.8223 Y1.0428 
G01 X-2.8247 Y1.0452 
G01 X-2.8260 Y1.0483 
G01 X-2.8260 Y1.1865 
G01 X-2.8485 Y1.2090 
G01 X-2.8648 Y1.2090 
G01 X-2.8661 Y1.2060 
G01 X-2.8687 Y1.2020 
G01 X-2.8721 Y1.1986 
G01 X-2.8761 Y1.1959 
G01 X-2.8806 Y1.1941 
G01 X-2.8853 Y1.1932 
G01 X-2.9297 Y1.1932 
G01 X-2.9344 Y1.1941 
G01 X-2.9366 Y1.1950 
G01 X-2.9364 Y1.1946 
G01 X-2.9364 Y1.1912 
G01 X-2.9366 Y1.1908 
G01 X-2.9344 Y1.1917 
G01 X-2.9297 Y1.1926 
G01 X-2.8853 Y1.1926 
G01 X-2.8806 Y1.1917 
G01 X-2.8761 Y1.1899 
G01 X-2.8721 Y1.1872 
G01 X-2.8687 Y1.1838 
G01 X-2.8661 Y1.1798 
G01 X-2.8654 Y1.1782 
G01 X-2.8583 Y1.1785 
G01 X-2.8572 Y1.1787 
G01 X-2.8566 Y1.1785 
G01 X-2.8561 Y1.1786 
G01 X-2.8550 Y1.1781 
G01 X-2.8536 Y1.1778 
G01 X-2.8534 Y1.1778 
G01 X-2.8520 Y1.1774 
G01 X-2.8506 Y1.1771 
G01 X-2.8504 Y1.1769 
G01 X-2.8502 Y1.1769 
G01 X-2.8490 Y1.1760 
G01 X-2.8479 Y1.1751 
G01 X-2.8477 Y1.1749 
G01 X-2.8323 Y1.1624 
G01 X-2.8319 Y1.1622 
G01 X-2.8310 Y1.1613 
G01 X-2.8300 Y1.1605 
G01 X-2.8298 Y1.1601 
G01 X-2.8295 Y1.1598 
G01 X-2.8290 Y1.1586 
G01 X-2.8284 Y1.1576 
G01 X-2.8284 Y1.1571 
G01 X-2.8282 Y1.1566 
G01 X-2.8282 Y1.1554 
G01 X-2.8281 Y1.1542 
G01 X-2.8282 Y1.1537 
G01 X-2.8290 Y1.0388 
G01 X-2.8118 Y1.0235 
G01 X-2.4987 Y1.0235 
G01 X-2.4982 Y1.0236 
G01 X-2.4970 Y1.0235 
G01 X-2.4958 Y1.0235 
G01 X-2.4954 Y1.0233 
G01 X-2.4949 Y1.0233 
G01 X-2.4938 Y1.0227 
G01 X-2.4927 Y1.0222 
G01 X-2.4923 Y1.0219 
G01 X-2.4919 Y1.0216 
G01 X-2.4912 Y1.0207 
G01 X-2.4903 Y1.0198 
G01 X-2.4901 Y1.0194 
G01 X-2.4812 Y1.0082 
G01 X-2.4803 Y1.0073 
G01 X-2.4801 Y1.0069 
G01 X-2.4798 Y1.0065 
G01 X-2.4795 Y1.0053 
G01 X-2.4790 Y1.0042 
G01 X-2.4790 Y1.0037 
G01 X-2.4789 Y1.0032 
G01 X-2.4790 Y1.0020 
G01 X-2.4790 Y0.9301 
G01 X-2.4630 Y0.9060 
G01 X-2.4414 Y0.9060 
G01 X-2.4411 Y0.9061 
G01 X-2.4397 Y0.9060 
G01 X-2.4383 Y0.9060 
G01 X-2.4380 Y0.9059 
G01 X-2.4377 Y0.9059 
G01 X-2.4365 Y0.9052 
G01 X-2.4352 Y0.9047 
G01 X-2.4350 Y0.9045 
G01 X-2.4347 Y0.9044 
G01 X-2.4338 Y0.9033 
G01 X-2.4328 Y0.9023 
G01 X-2.4327 Y0.9020 
G01 X-2.3988 Y0.8633 
G01 X-2.3978 Y0.8623 
G01 X-2.3977 Y0.8620 
G01 X-2.3975 Y0.8618 
G01 X-2.3970 Y0.8605 
G01 X-2.3965 Y0.8592 
G01 X-2.3965 Y0.8589 
G01 X-2.3964 Y0.8586 
G01 X-2.3965 Y0.8572 
G01 X-2.3965 Y0.7373 
G01 X-2.3529 Y0.6615 
G01 X-2.3437 Y0.6625 
G01 X-2.3448 Y0.6625 
G01 X-2.3493 Y0.6637 
G01 X-2.3532 Y0.6660 
G01 X-2.3565 Y0.6693 
G01 X-2.3588 Y0.6732 
G01 X-2.3600 Y0.6777 
G01 X-2.3600 Y0.6823 
G01 X-2.3591 Y0.6857 
G01 X-2.3941 Y0.7371 
G01 X-2.3947 Y0.7377 
G01 X-2.3950 Y0.7384 
G01 X-2.3955 Y0.7391 
G01 X-2.3957 Y0.7400 
G01 X-2.3960 Y0.7408 
G01 X-2.3960 Y0.7416 
G01 X-2.3962 Y0.7424 
G01 X-2.3960 Y0.7433 
G01 X-2.3960 Y0.8665 
G01 X-2.4385 Y0.9090 
G01 X-2.4540 Y0.9090 
G01 X-2.4547 Y0.9088 
G01 X-2.4557 Y0.9090 
G01 X-2.4567 Y0.9090 
G01 X-2.4574 Y0.9093 
G01 X-2.4581 Y0.9094 
G01 X-2.4589 Y0.9099 
G01 X-2.4598 Y0.9103 
G01 X-2.4603 Y0.9108 
G01 X-2.4609 Y0.9112 
G01 X-2.4615 Y0.9120 
G01 X-2.4622 Y0.9127 
G01 X-2.4625 Y0.9133 
G01 X-2.4740 Y0.9295 
G01 X-2.4747 Y0.9302 
G01 X-2.4750 Y0.9308 
G01 X-2.4754 Y0.9314 
G01 X-2.4756 Y0.9324 
G01 X-2.4760 Y0.9333 
G01 X-2.4760 Y0.9340 
G01 X-2.4762 Y0.9347 
G01 X-2.4760 Y0.9357 
G01 X-2.4760 Y1.0132 
G01 X-2.4903 Y1.0240 
G00 Z0.1000 
G00 X-2.8784 Y1.1416 
G01 Z-0.0070 F10.00 
G01 X-2.8786 Y1.1420 F20.00 
G01 X-2.8786 Y1.1454 
G01 X-2.8784 Y1.1458 
G01 X-2.8806 Y1.1449 
G01 X-2.8853 Y1.1439 
G01 X-2.9297 Y1.1439 
G01 X-2.9344 Y1.1449 
G01 X-2.9366 Y1.1458 
G01 X-2.9364 Y1.1454 
G01 X-2.9364 Y1.1420 
G01 X-2.9366 Y1.1416 
G01 X-2.9344 Y1.1425 
G01 X-2.9297 Y1.1434 
G01 X-2.8853 Y1.1434 
G01 X-2.8806 Y1.1425 
G01 X-2.8784 Y1.1416 
G00 Z0.1000 
G00 X-2.8784 Y1.2400 
G01 Z-0.0070 F10.00 
G01 X-2.8786 Y1.2404 F20.00 
G01 X-2.8786 Y1.2438 
G01 X-2.8784 Y1.2442 
G01 X-2.8806 Y1.2433 
G01 X-2.8853 Y1.2424 
G01 X-2.9297 Y1.2424 
G01 X-2.9344 Y1.2433 
G01 X-2.9366 Y1.2442 
G01 X-2.9364 Y1.2438 
G01 X-2.9364 Y1.2404 
G01 X-2.9366 Y1.2400 
G01 X-2.9344 Y1.2409 
G01 X-2.9297 Y1.2418 
G01 X-2.8853 Y1.2418 
G01 X-2.8806 Y1.2409 
G01 X-2.8784 Y1.2400 
G00 Z0.1000 
G00 X-2.8794 Y1.2896 
G01 Z-0.0070 F10.00 
G01 X-2.8794 Y1.2897 F20.00 
G01 X-2.8797 Y1.2905 
G01 X-2.8797 Y1.2914 
G01 X-2.8799 Y1.2922 
G01 X-2.8798 Y1.2928 
G01 X-2.8806 Y1.2925 
G01 X-2.8853 Y1.2916 
G01 X-2.9297 Y1.2916 
G01 X-2.9344 Y1.2925 
G01 X-2.9352 Y1.2928 
G01 X-2.9351 Y1.2922 
G01 X-2.9353 Y1.2914 
G01 X-2.9353 Y1.2905 
G01 X-2.9356 Y1.2897 
G01 X-2.9344 Y1.2901 
G01 X-2.9297 Y1.2911 
G01 X-2.8853 Y1.2911 
G01 X-2.8806 Y1.2901 
G01 X-2.8794 Y1.2896 
G00 Z0.1000 
G00 X-2.3379 Y0.6631 
G01 Z-0.0070 F10.00 
G01 X-2.3263 Y0.6643 F20.00 
G01 X-2.3240 Y0.6682 
G01 X-2.3207 Y0.6715 
G01 X-2.3199 Y0.6720 
G01 X-2.3212 Y0.6720 
G01 X-2.3243 Y0.6733 
G01 X-2.3258 Y0.6748 
G01 X-2.3262 Y0.6732 
G01 X-2.3285 Y0.6693 
G01 X-2.3318 Y0.6660 
G01 X-2.3357 Y0.6637 
G01 X-2.3379 Y0.6631 
G00 Z0.1000 
G00 X-2.4060 Y0.3575 
G01 Z-0.0070 F10.00 
G01 X-2.4067 Y0.3569 F20.00 
G01 X-2.4082 Y0.3562 
G01 X-2.4098 Y0.3556 
G01 X-2.4115 Y0.3556 
G01 X-2.4181 Y0.3555 
G01 X-2.4060 Y0.3551 
G01 X-2.4060 Y0.3575 
G00 Z0.1000 
G00 X-0.2362 Y1.2286 
G01 Z-0.0070 F10.00 
G01 X-0.2356 Y1.2296 F20.00 
G01 X-0.2370 Y1.2296 
G01 X-0.2363 Y1.2290 
G01 X-0.2362 Y1.2286 
G00 Z0.1000 
G00 X-0.7030 Y2.6385 
G01 Z-0.0070 F10.00 
G01 X-0.7030 Y2.6385 F20.00 
G01 X-0.7031 Y2.6389 
G01 X-0.7034 Y2.6385 
G01 X-0.7032 Y2.6385 
G01 X-0.7030 Y2.6385 
G00 Z0.1000 
G00 X-0.0007 Y0.2030 
G01 Z-0.0070 F10.00 
G01 X-0.0037 Y0.2012 F20.00 
G01 X-0.0072 Y0.2003 
G01 X-0.0108 Y0.2003 
G01 X-0.0142 Y0.2012 
G01 X-0.0173 Y0.2030 
G01 X-0.0198 Y0.2055 
G01 X-0.0376 Y0.2363 
G01 X-0.0637 Y0.2624 
G01 X-0.0958 Y0.2809 
G01 X-0.1315 Y0.2905 
G01 X-0.1685 Y0.2905 
G01 X-0.2042 Y0.2809 
G01 X-0.2363 Y0.2624 
G01 X-0.2624 Y0.2363 
G01 X-0.2809 Y0.2042 
G01 X-0.2905 Y0.1685 
G01 X-0.2905 Y0.1315 
G01 X-0.2809 Y0.0958 
G01 X-0.2624 Y0.0637 
G01 X-0.2363 Y0.0376 
G01 X-0.2055 Y0.0198 
G01 X-0.2030 Y0.0173 
G01 X-0.2012 Y0.0142 
G01 X-0.2003 Y0.0108 
G01 X-0.2003 Y0.0072 
G01 X-0.2012 Y0.0039 
G01 X-0.2012 Y0.0038 
G01 X-0.2030 Y0.0007 
G01 X-0.2055 Y-0.0018 
G01 X-0.2086 Y-0.0036 
G01 X-0.2120 Y-0.0045 
G01 X-2.0578 Y-0.0045 
G01 X-2.0612 Y-0.0036 
G01 X-2.0643 Y-0.0018 
G01 X-2.0668 Y0.0007 
G01 X-2.0686 Y0.0038 
G01 X-2.0695 Y0.0072 
G01 X-2.0695 Y0.1428 
G01 X-2.0686 Y0.1462 
G01 X-2.0668 Y0.1493 
G01 X-2.0643 Y0.1518 
G01 X-2.0612 Y0.1536 
G01 X-2.0578 Y0.1545 
G01 X-2.0277 Y0.1545 
G01 X-2.0677 Y0.2257 
G01 X-2.0686 Y0.2271 
G01 X-2.0686 Y0.2273 
G01 X-2.0691 Y0.2289 
G01 X-2.0695 Y0.2306 
G01 X-2.0695 Y0.2307 
G01 X-2.0695 Y0.2324 
G01 X-2.0695 Y0.3481 
G01 X-2.0707 Y0.3493 
G01 X-2.0716 Y0.3509 
G01 X-2.0725 Y0.3524 
G01 X-2.0730 Y0.3541 
G01 X-2.0734 Y0.3558 
G01 X-2.0734 Y0.3576 
G01 X-2.0735 Y0.3607 
G01 X-2.0735 Y0.3625 
G01 X-2.0735 Y0.3630 
G01 X-2.1841 Y0.3630 
G01 X-2.1855 Y0.3606 
G01 X-2.1832 Y0.3583 
G01 X-2.1814 Y0.3552 
G01 X-2.1805 Y0.3518 
G01 X-2.1805 Y0.1282 
G01 X-2.1814 Y0.1248 
G01 X-2.1832 Y0.1217 
G01 X-2.1857 Y0.1192 
G01 X-2.1888 Y0.1174 
G01 X-2.1922 Y0.1165 
G01 X-2.1958 Y0.1165 
G01 X-2.2568 Y0.1165 
G01 X-2.2602 Y0.1174 
G01 X-2.2633 Y0.1192 
G01 X-2.2658 Y0.1217 
G01 X-2.2676 Y0.1248 
G01 X-2.2685 Y0.1282 
G01 X-2.2685 Y0.3518 
G01 X-2.2676 Y0.3552 
G01 X-2.2658 Y0.3583 
G01 X-2.2633 Y0.3608 
G01 X-2.2602 Y0.3626 
G01 X-2.2568 Y0.3635 
G01 X-2.2170 Y0.3635 
G01 X-2.2161 Y0.3651 
G01 X-2.2160 Y0.3655 
G01 X-2.2153 Y0.3668 
G01 X-2.2146 Y0.3682 
G01 X-2.2143 Y0.3685 
G01 X-2.2060 Y0.3831 
G01 X-2.2051 Y0.3847 
G01 X-2.2041 Y0.3864 
G01 X-2.2028 Y0.3877 
G01 X-2.2015 Y0.3891 
G01 X-2.1998 Y0.3900 
G01 X-2.1982 Y0.3910 
G01 X-2.1963 Y0.3915 
G01 X-2.3840 Y0.3915 
G01 X-2.3840 Y0.3592 
G01 X-2.3647 Y0.3585 
G01 X-2.3632 Y0.3585 
G01 X-2.3630 Y0.3584 
G01 X-2.3627 Y0.3584 
G01 X-2.3613 Y0.3580 
G01 X-2.3598 Y0.3576 
G01 X-2.3596 Y0.3574 
G01 X-2.3593 Y0.3574 
G01 X-2.3580 Y0.3566 
G01 X-2.3567 Y0.3558 
G01 X-2.3565 Y0.3556 
G01 X-2.3563 Y0.3555 
G01 X-2.3553 Y0.3544 
G01 X-2.3542 Y0.3533 
G01 X-2.3541 Y0.3531 
G01 X-2.3539 Y0.3529 
G01 X-2.3532 Y0.3515 
G01 X-2.3524 Y0.3502 
G01 X-2.3524 Y0.3500 
G01 X-2.3522 Y0.3497 
G01 X-2.3519 Y0.3482 
G01 X-2.3515 Y0.3468 
G01 X-2.3515 Y0.3465 
G01 X-2.3514 Y0.3463 
G01 X-2.3515 Y0.3447 
G01 X-2.3515 Y0.0822 
G01 X-2.3524 Y0.0788 
G01 X-2.3542 Y0.0757 
G01 X-2.3567 Y0.0732 
G01 X-2.3598 Y0.0714 
G01 X-2.3632 Y0.0705 
G01 X-2.4278 Y0.0705 
G01 X-2.4312 Y0.0714 
G01 X-2.4343 Y0.0732 
G01 X-2.4368 Y0.0757 
G01 X-2.4386 Y0.0788 
G01 X-2.4395 Y0.0822 
G01 X-2.4395 Y0.3458 
G01 X-2.4396 Y0.3461 
G01 X-2.4395 Y0.3476 
G01 X-2.4395 Y0.3491 
G01 X-2.4394 Y0.3494 
G01 X-2.4394 Y0.3496 
G01 X-2.4392 Y0.3505 
G01 X-2.9892 Y0.3490 
G01 X-2.9910 Y0.3490 
G01 X-2.9927 Y0.3490 
G01 X-2.9945 Y0.3495 
G01 X-2.9962 Y0.3499 
G01 X-2.9977 Y0.3508 
G01 X-2.9993 Y0.3517 
G01 X-3.0005 Y0.3530 
G01 X-3.0018 Y0.3542 
G01 X-3.0027 Y0.3557 
G01 X-3.0036 Y0.3573 
G01 X-3.0040 Y0.3590 
G01 X-3.0045 Y0.3607 
G01 X-3.0045 Y0.3625 
G01 X-3.0045 Y0.3643 
G01 X-3.0045 Y0.6865 
G01 X-3.0045 Y0.6883 
G01 X-3.0045 Y0.6900 
G01 X-3.0041 Y0.6915 
G01 X-3.0036 Y0.6935 
G01 X-3.0024 Y0.6955 
G01 X-3.0018 Y0.6966 
G01 X-3.0001 Y0.6982 
G01 X-2.9993 Y0.6991 
G01 X-2.9975 Y0.7001 
G01 X-2.9962 Y0.7009 
G01 X-2.9945 Y0.7013 
G01 X-2.9945 Y0.7080 
G01 X-2.9962 Y0.7084 
G01 X-2.9993 Y0.7102 
G01 X-3.0018 Y0.7127 
G01 X-3.0036 Y0.7158 
G01 X-3.0045 Y0.7192 
G01 X-3.0045 Y0.7308 
G01 X-3.0036 Y0.7342 
G01 X-3.0018 Y0.7373 
G01 X-2.9993 Y0.7398 
G01 X-2.9962 Y0.7416 
G01 X-2.9945 Y0.7420 
G01 X-2.9945 Y0.7487 
G01 X-2.9962 Y0.7491 
G01 X-2.9974 Y0.7499 
G01 X-2.9993 Y0.7509 
G01 X-3.0001 Y0.7517 
G01 X-3.0018 Y0.7534 
G01 X-3.0024 Y0.7545 
G01 X-3.0036 Y0.7565 
G01 X-3.0041 Y0.7584 
G01 X-3.0045 Y0.7599 
G01 X-3.0045 Y0.7617 
G01 X-3.0045 Y0.7635 
G01 X-3.0045 Y0.8865 
G01 X-3.0045 Y0.8883 
G01 X-3.0045 Y0.8900 
G01 X-3.0041 Y0.8915 
G01 X-3.0036 Y0.8935 
G01 X-3.0024 Y0.8955 
G01 X-3.0018 Y0.8966 
G01 X-3.0001 Y0.8982 
G01 X-2.9993 Y0.8991 
G01 X-2.9975 Y0.9001 
G01 X-2.9962 Y0.9009 
G01 X-2.9945 Y0.9013 
G01 X-2.9945 Y0.9080 
G01 X-2.9962 Y0.9084 
G01 X-2.9993 Y0.9102 
G01 X-3.0018 Y0.9127 
G01 X-3.0036 Y0.9158 
G01 X-3.0045 Y0.9192 
G01 X-3.0045 Y0.9308 
G01 X-3.0036 Y0.9342 
G01 X-3.0018 Y0.9373 
G01 X-2.9993 Y0.9398 
G01 X-2.9962 Y0.9416 
G01 X-2.9945 Y0.9420 
G01 X-2.9945 Y0.9487 
G01 X-2.9962 Y0.9491 
G01 X-2.9974 Y0.9499 
G01 X-2.9993 Y0.9509 
G01 X-3.0001 Y0.9517 
G01 X-3.0018 Y0.9534 
G01 X-3.0024 Y0.9545 
G01 X-3.0036 Y0.9565 
G01 X-3.0041 Y0.9584 
G01 X-3.0045 Y0.9599 
G01 X-3.0045 Y0.9617 
G01 X-3.0045 Y0.9635 
G01 X-3.0045 Y2.5380 
G01 X-3.0036 Y2.5414 
G01 X-3.0018 Y2.5445 
G01 X-2.9993 Y2.5470 
G01 X-2.9962 Y2.5488 
G01 X-2.9928 Y2.5497 
G01 X-2.9892 Y2.5497 
G01 X-2.9858 Y2.5488 
G01 X-2.9827 Y2.5470 
G01 X-2.9802 Y2.5445 
G01 X-2.9624 Y2.5137 
G01 X-2.9363 Y2.4876 
G01 X-2.9042 Y2.4691 
G01 X-2.8685 Y2.4595 
G01 X-2.8315 Y2.4595 
G01 X-2.7958 Y2.4691 
G01 X-2.7637 Y2.4876 
G01 X-2.7376 Y2.5137 
G01 X-2.7191 Y2.5458 
G01 X-2.7095 Y2.5815 
G01 X-2.7095 Y2.6185 
G01 X-2.7191 Y2.6542 
G01 X-2.7376 Y2.6863 
G01 X-2.7637 Y2.7124 
G01 X-2.7945 Y2.7302 
G01 X-2.7970 Y2.7327 
G01 X-2.7988 Y2.7358 
G01 X-2.7997 Y2.7392 
G01 X-2.7997 Y2.7428 
G01 X-2.7988 Y2.7461 
G01 X-2.7988 Y2.7462 
G01 X-2.7970 Y2.7493 
G01 X-2.7945 Y2.7518 
G01 X-2.7914 Y2.7536 
G01 X-2.7880 Y2.7545 
G01 X-0.2120 Y2.7545 
G01 X-0.2086 Y2.7536 
G01 X-0.2055 Y2.7518 
G01 X-0.2030 Y2.7493 
G01 X-0.2012 Y2.7462 
G01 X-0.2003 Y2.7428 
G01 X-0.2003 Y2.7392 
G01 X-0.2012 Y2.7358 
G01 X-0.2030 Y2.7327 
G01 X-0.2055 Y2.7302 
G01 X-0.2363 Y2.7124 
G01 X-0.2624 Y2.6863 
G01 X-0.2809 Y2.6542 
G01 X-0.2905 Y2.6185 
G01 X-0.2905 Y2.5815 
G01 X-0.2809 Y2.5458 
G01 X-0.2624 Y2.5137 
G01 X-0.2363 Y2.4876 
G01 X-0.2211 Y2.4788 
G01 X-0.2203 Y2.4785 
G01 X-0.2196 Y2.4779 
G01 X-0.2188 Y2.4775 
G01 X-0.2182 Y2.4769 
G01 X-0.2175 Y2.4763 
G01 X-0.2169 Y2.4756 
G01 X-0.2163 Y2.4750 
G01 X-0.2158 Y2.4742 
G01 X-0.2153 Y2.4735 
G01 X-0.2150 Y2.4727 
G01 X-0.2145 Y2.4719 
G01 X-0.2143 Y2.4710 
G01 X-0.2139 Y2.4702 
G01 X-0.2138 Y2.4693 
G01 X-0.2136 Y2.4685 
G01 X-0.2136 Y2.4676 
G01 X-0.2135 Y2.4667 
G01 X-0.2136 Y2.4659 
G01 X-0.2133 Y2.4661 
G01 X-0.2114 Y2.4672 
G01 X-0.2102 Y2.4679 
G01 X-0.2068 Y2.4688 
G01 X-0.2033 Y2.4688 
G01 X-0.2024 Y2.4686 
G01 X-0.1998 Y2.4679 
G01 X-0.1685 Y2.4595 
G01 X-0.1315 Y2.4595 
G01 X-0.0958 Y2.4691 
G01 X-0.0637 Y2.4876 
G01 X-0.0376 Y2.5137 
G01 X-0.0198 Y2.5445 
G01 X-0.0173 Y2.5470 
G01 X-0.0142 Y2.5488 
G01 X-0.0108 Y2.5497 
G01 X-0.0072 Y2.5497 
G01 X-0.0039 Y2.5488 
G01 X-0.0038 Y2.5488 
G01 X-0.0007 Y2.5470 
G01 X0.0018 Y2.5445 
G01 X0.0036 Y2.5414 
G01 X0.0045 Y2.5380 
G01 X0.0045 Y0.2120 
G01 X0.0036 Y0.2086 
G01 X0.0018 Y0.2055 
G01 X-0.0007 Y0.2030 
G00 Z0.1000 
G00 X-0.8105 Y0.1907 
G01 Z-0.0070 F10.00 
G01 X-0.8105 Y0.1785 F20.00 
G01 X-0.8065 Y0.1745 
G01 X-0.7965 Y0.1745 
G01 X-0.7975 Y0.1749 
G01 X-0.7981 Y0.1755 
G01 X-0.7989 Y0.1759 
G01 X-0.7996 Y0.1766 
G01 X-0.8005 Y0.1773 
G01 X-0.8010 Y0.1780 
G01 X-0.8016 Y0.1786 
G01 X-0.8021 Y0.1795 
G01 X-0.8105 Y0.1907 
G00 Z0.1000 
G00 X-0.8395 Y0.1706 
G01 Z-0.0070 F10.00 
G01 X-0.8395 Y0.3365 F20.00 
G01 X-0.8685 Y0.3655 
G01 X-0.8725 Y0.3655 
G01 X-0.8434 Y0.3364 
G01 X-0.8415 Y0.3331 
G01 X-0.8405 Y0.3294 
G01 X-0.8405 Y0.3256 
G01 X-0.8405 Y0.1617 
G01 X-0.8363 Y0.1600 
G01 X-0.8309 Y0.1564 
G01 X-0.8305 Y0.1568 
G01 X-0.8301 Y0.1571 
G01 X-0.8366 Y0.1636 
G01 X-0.8385 Y0.1669 
G01 X-0.8395 Y0.1706 
G00 Z0.1000 
G00 X-0.8195 Y0.3575 
G01 Z-0.0070 F10.00 
G01 X-0.8195 Y0.3587 F20.00 
G01 X-0.8404 Y0.3784 
G01 X-0.8195 Y0.3575 
G00 Z0.1000 
G00 X-1.4304 Y0.3945 
G01 Z-0.0070 F10.00 
G01 X-1.4522 Y0.4090 F20.00 
G01 X-1.4348 Y0.3945 
G01 X-1.4304 Y0.3945 
G00 Z0.1000 
G00 X-1.4560 Y0.3745 
G01 Z-0.0070 F10.00 
G01 X-1.4783 Y0.3931 F20.00 
G01 X-1.4789 Y0.3934 
G01 X-1.4798 Y0.3943 
G01 X-1.4807 Y0.3951 
G01 X-1.4811 Y0.3956 
G01 X-1.4816 Y0.3961 
G01 X-1.4822 Y0.3972 
G01 X-1.4829 Y0.3982 
G01 X-1.4832 Y0.3988 
G01 X-1.4835 Y0.3994 
G01 X-1.4838 Y0.4006 
G01 X-1.4843 Y0.4018 
G01 X-1.4843 Y0.4024 
G01 X-1.4845 Y0.4031 
G01 X-1.4845 Y0.4043 
G01 X-1.4846 Y0.4056 
G01 X-1.4845 Y0.4062 
G01 X-1.4845 Y0.7287 
G01 X-1.4855 Y0.7277 
G01 X-1.4855 Y0.3850 
G01 X-1.4704 Y0.3745 
G01 X-1.4560 Y0.3745 
G00 Z0.1000 
G00 X-1.4817 Y0.3470 
G01 Z-0.0070 F10.00 
G01 X-1.4818 Y0.3470 F20.00 
G01 X-1.4828 Y0.3478 
G01 X-1.4839 Y0.3484 
G01 X-1.4844 Y0.3488 
G01 X-1.5078 Y0.3653 
G01 X-1.5089 Y0.3659 
G01 X-1.5094 Y0.3663 
G01 X-1.5099 Y0.3667 
G01 X-1.5107 Y0.3677 
G01 X-1.5116 Y0.3686 
G01 X-1.5119 Y0.3692 
G01 X-1.5123 Y0.3696 
G01 X-1.5129 Y0.3708 
G01 X-1.5135 Y0.3719 
G01 X-1.5137 Y0.3725 
G01 X-1.5139 Y0.3731 
G01 X-1.5142 Y0.3744 
G01 X-1.5145 Y0.3756 
G01 X-1.5145 Y0.3762 
G01 X-1.5146 Y0.3769 
G01 X-1.5145 Y0.3781 
G01 X-1.5145 Y0.7277 
G01 X-1.5155 Y0.7287 
G01 X-1.5155 Y0.3666 
G01 X-1.4901 Y0.3470 
G01 X-1.4817 Y0.3470 
G00 Z0.1000 
G00 X-1.5084 Y0.3245 
G01 Z-0.0070 F10.00 
G01 X-1.5356 Y0.3454 F20.00 
G01 X-1.5364 Y0.3459 
G01 X-1.5371 Y0.3466 
G01 X-1.5379 Y0.3472 
G01 X-1.5384 Y0.3479 
G01 X-1.5416 Y0.3511 
G01 X-1.5435 Y0.3544 
G01 X-1.5445 Y0.3581 
G01 X-1.5445 Y0.7237 
G01 X-1.5455 Y0.7227 
G01 X-1.5455 Y0.3370 
G01 X-1.5299 Y0.3245 
G01 X-1.5084 Y0.3245 
G00 Z0.1000 
G00 X-1.5482 Y0.3020 
G01 Z-0.0070 F10.00 
G01 X-1.5682 Y0.3180 F20.00 
G01 X-1.5689 Y0.3184 
G01 X-1.5697 Y0.3192 
G01 X-1.5705 Y0.3199 
G01 X-1.5710 Y0.3205 
G01 X-1.5716 Y0.3211 
G01 X-1.5722 Y0.3221 
G01 X-1.5728 Y0.3229 
G01 X-1.5731 Y0.3237 
G01 X-1.5735 Y0.3244 
G01 X-1.5738 Y0.3255 
G01 X-1.5742 Y0.3265 
G01 X-1.5743 Y0.3273 
G01 X-1.5745 Y0.3281 
G01 X-1.5745 Y0.3292 
G01 X-1.5746 Y0.3303 
G01 X-1.5745 Y0.3311 
G01 X-1.5745 Y0.7227 
G01 X-1.5780 Y0.7262 
G01 X-1.5810 Y0.7313 
G01 X-1.5813 Y0.7324 
G01 X-1.5820 Y0.7312 
G01 X-1.5855 Y0.7277 
G01 X-1.5855 Y0.3318 
G01 X-1.5498 Y0.3020 
G01 X-1.5482 Y0.3020 
G00 Z0.1000 
G00 X-1.6355 Y0.2496 
G01 Z-0.0070 F10.00 
G01 X-1.6397 Y0.2531 F20.00 
G01 X-1.6363 Y0.2496 
G01 X-1.6355 Y0.2496 
G00 Z0.1000 
G00 X-1.7370 Y0.2492 
G01 Z-0.0070 F10.00 
G01 X-1.7374 Y0.2498 F20.00 
G01 X-1.7379 Y0.2509 
G01 X-1.7385 Y0.2519 
G01 X-1.7387 Y0.2526 
G01 X-1.7390 Y0.2532 
G01 X-1.7392 Y0.2544 
G01 X-1.7395 Y0.2556 
G01 X-1.7395 Y0.2563 
G01 X-1.7396 Y0.2570 
G01 X-1.7395 Y0.2582 
G01 X-1.7395 Y0.8027 
G01 X-1.7405 Y0.8037 
G01 X-1.7405 Y0.2427 
G01 X-1.7107 Y0.2070 
G01 X-1.7022 Y0.2070 
G01 X-1.7357 Y0.2477 
G01 X-1.7366 Y0.2486 
G01 X-1.7370 Y0.2492 
G00 Z0.1000 
G00 X-1.7695 Y0.2382 
G01 Z-0.0070 F10.00 
G01 X-1.7695 Y0.3720 F20.00 
G01 X-1.7705 Y0.2320 
G01 X-1.7374 Y0.1845 
G01 X-1.7297 Y0.1845 
G01 X-1.7657 Y0.2277 
G01 X-1.7666 Y0.2286 
G01 X-1.7669 Y0.2292 
G01 X-1.7674 Y0.2297 
G01 X-1.7679 Y0.2308 
G01 X-1.7685 Y0.2319 
G01 X-1.7687 Y0.2325 
G01 X-1.7690 Y0.2331 
G01 X-1.7692 Y0.2344 
G01 X-1.7695 Y0.2356 
G01 X-1.7695 Y0.2363 
G01 X-1.7696 Y0.2369 
G01 X-1.7695 Y0.2382 
G00 Z0.1000 
G00 X-1.9736 Y0.5645 
G01 Z-0.0070 F10.00 
G01 X-1.9724 Y0.5676 F20.00 
G01 X-1.9683 Y0.5737 
G01 X-1.9670 Y0.5750 
G01 X-2.0115 Y0.5741 
G01 X-2.0033 Y0.5645 
G01 X-1.9736 Y0.5645 
G00 Z0.1000 
G00 X-1.9683 Y0.6050 
G01 Z-0.0070 F10.00 
G01 X-1.9724 Y0.6111 F20.00 
G01 X-1.9752 Y0.6179 
G01 X-1.9756 Y0.6200 
G01 X-2.0269 Y0.6228 
G01 X-2.0098 Y0.6012 
G01 X-1.9653 Y0.6020 
G01 X-1.9683 Y0.6050 
G00 Z0.1000 
G00 X-2.0371 Y0.9371 
G01 Z-0.0070 F10.00 
G01 X-2.0360 Y0.9412 F20.00 
G01 X-2.0349 Y0.9430 
G01 X-2.0353 Y0.9430 
G01 X-2.0375 Y0.9378 
G01 X-2.0371 Y0.9371 
G00 Z0.1000 
G00 X-2.2320 Y0.8714 
G01 Z-0.0070 F10.00 
G01 X-2.2681 Y0.8840 F20.00 
G01 X-2.2684 Y0.8828 
G01 X-2.2686 Y0.8824 
G01 X-2.2688 Y0.8819 
G01 X-2.2695 Y0.8808 
G01 X-2.2702 Y0.8797 
G01 X-2.2705 Y0.8794 
G01 X-2.2708 Y0.8789 
G01 X-2.2716 Y0.8782 
G01 X-2.2690 Y0.8737 
G01 X-2.2675 Y0.8680 
G01 X-2.2675 Y0.8620 
G01 X-2.2676 Y0.8618 
G01 X-2.2577 Y0.8508 
G01 X-2.2462 Y0.8421 
G01 X-2.2475 Y0.8470 
G01 X-2.2475 Y0.8530 
G01 X-2.2460 Y0.8587 
G01 X-2.2430 Y0.8638 
G01 X-2.2388 Y0.8680 
G01 X-2.2337 Y0.8710 
G01 X-2.2320 Y0.8714 
G00 Z0.1000 
G00 X-2.2269 Y0.8275 
G01 Z-0.0070 F10.00 
G01 X-2.2263 Y0.8267 F20.00 
G01 X-2.2089 Y0.8063 
G01 X-2.2257 Y0.8275 
G01 X-2.2269 Y0.8275 
G00 Z0.1000 
G00 X-1.7662 Y0.8493 
G01 Z-0.0070 F10.00 
G01 X-1.7655 Y0.8500 F20.00 
G01 X-1.6750 Y0.9494 
G01 X-1.6750 Y0.9495 
G01 X-1.6750 Y0.9555 
G01 X-1.6735 Y0.9612 
G01 X-1.6710 Y0.9655 
G01 X-1.7637 Y0.9655 
G01 X-1.7620 Y0.9638 
G01 X-1.7590 Y0.9587 
G01 X-1.7575 Y0.9530 
G01 X-1.7575 Y0.9470 
G01 X-1.7590 Y0.9413 
G01 X-1.7620 Y0.9362 
G01 X-1.7656 Y0.9326 
G01 X-1.7662 Y0.8493 
G00 Z0.1000 
G00 X-1.5090 Y0.8463 
G01 Z-0.0070 F10.00 
G01 X-1.5120 Y0.8412 F20.00 
G01 X-1.5155 Y0.8377 
G01 X-1.5155 Y0.7613 
G01 X-1.5138 Y0.7630 
G01 X-1.5087 Y0.7660 
G01 X-1.5030 Y0.7675 
G01 X-1.4970 Y0.7675 
G01 X-1.4913 Y0.7660 
G01 X-1.4862 Y0.7630 
G01 X-1.4845 Y0.7613 
G01 X-1.4845 Y0.8282 
G01 X-1.5052 Y0.8600 
G01 X-1.5055 Y0.8600 
G01 X-1.5082 Y0.8607 
G01 X-1.5075 Y0.8580 
G01 X-1.5075 Y0.8520 
G01 X-1.5090 Y0.8463 
G00 Z0.1000 
G00 X-1.5225 Y1.1102 
G01 Z-0.0070 F10.00 
G01 X-1.5225 Y1.1110 F20.00 
G01 X-1.5235 Y1.1093 
G01 X-1.5225 Y1.1102 
G00 Z0.1000 
G00 X-1.7929 Y1.1839 
G01 Z-0.0070 F10.00 
G01 X-1.7928 Y1.1880 F20.00 
G01 X-2.0182 Y1.4111 
G01 X-2.0186 Y1.4107 
G01 X-2.0189 Y1.4104 
G01 X-1.7993 Y1.1940 
G01 X-1.7977 Y1.1924 
G01 X-1.7961 Y1.1908 
G01 X-1.7960 Y1.1907 
G01 X-1.7949 Y1.1888 
G01 X-1.7937 Y1.1869 
G01 X-1.7937 Y1.1868 
G01 X-1.7931 Y1.1846 
G01 X-1.7929 Y1.1839 
G00 Z0.1000 
G00 X-1.5900 Y1.4290 
G01 Z-0.0070 F10.00 
G01 X-1.5885 Y1.4311 F20.00 
G01 X-1.5900 Y1.4292 
G01 X-1.5900 Y1.4290 
G00 Z0.1000 
G00 X-1.4086 Y1.5271 
G01 Z-0.0070 F10.00 
G01 X-1.4052 Y1.5324 F20.00 
G01 X-1.4054 Y1.5325 
G01 X-1.4086 Y1.5271 
G00 Z0.1000 
G00 X-1.0728 Y1.5325 
G01 Z-0.0070 F10.00 
G01 X-1.0551 Y1.5325 F20.00 
G01 X-1.0450 Y1.5498 
G01 X-1.0425 Y1.7876 
G01 X-1.0434 Y2.0397 
G01 X-1.0453 Y2.0368 
G01 X-1.0508 Y2.0313 
G01 X-1.0519 Y2.0306 
G01 X-1.0478 Y1.9959 
G01 X-1.0475 Y1.9949 
G01 X-1.0475 Y1.9936 
G01 X-1.0474 Y1.9923 
G01 X-1.0475 Y1.9913 
G01 X-1.0450 Y1.5736 
G01 X-1.0448 Y1.5724 
G01 X-1.0450 Y1.5713 
G01 X-1.0450 Y1.5703 
G01 X-1.0453 Y1.5691 
G01 X-1.0455 Y1.5678 
G01 X-1.0459 Y1.5669 
G01 X-1.0462 Y1.5658 
G01 X-1.0468 Y1.5647 
G01 X-1.0473 Y1.5636 
G01 X-1.0479 Y1.5627 
G01 X-1.0484 Y1.5618 
G01 X-1.0493 Y1.5609 
G01 X-1.0654 Y1.5402 
G01 X-1.0660 Y1.5393 
G01 X-1.0669 Y1.5384 
G01 X-1.0676 Y1.5374 
G01 X-1.0685 Y1.5368 
G01 X-1.0728 Y1.5325 
G00 Z0.1000 
G00 X-0.6615 Y1.5150 
G01 Z-0.0070 F10.00 
G01 X-0.6619 Y1.5145 F20.00 
G01 X-0.5680 Y1.5145 
G01 X-0.5680 Y1.5150 
G01 X-0.6615 Y1.5150 
G00 Z0.1000 
G00 X-0.8471 Y1.2717 
G01 Z-0.0070 F10.00 
G01 X-0.8475 Y1.2712 F20.00 
G01 X-0.8475 Y1.2688 
G01 X-0.8475 Y1.2698 
G01 X-0.8472 Y1.2711 
G01 X-0.8471 Y1.2717 
G00 Z0.1000 
G00 X-0.8475 Y1.2665 
G01 Z-0.0070 F10.00 
G01 X-0.8475 Y1.2262 F20.00 
G01 X-0.8475 Y1.2665 
G00 Z0.1000 
G00 X-0.8475 Y1.2240 
G01 Z-0.0070 F10.00 
G01 X-0.8475 Y1.2239 F20.00 
G01 X-0.8475 Y1.2238 
G01 X-0.8475 Y1.2240 
G00 Z0.1000 
G00 X-0.3801 Y1.3201 
G01 Z-0.0070 F10.00 
G01 X-0.3777 Y1.3201 F20.00 
G01 X-0.3297 Y1.4061 
G01 X-0.3300 Y1.4070 
G01 X-0.3300 Y1.4113 
G01 X-0.3304 Y1.4114 
G01 X-0.3307 Y1.4115 
G01 X-0.3310 Y1.4116 
G01 X-0.3319 Y1.4121 
G01 X-0.3761 Y1.3261 
G01 X-0.3762 Y1.3256 
G01 X-0.3772 Y1.3241 
G01 X-0.3780 Y1.3225 
G01 X-0.3783 Y1.3221 
G01 X-0.3786 Y1.3217 
G01 X-0.3799 Y1.3204 
G01 X-0.3801 Y1.3201 
G00 Z0.1000 
G00 X-0.3594 Y0.9715 
G01 Z-0.0070 F10.00 
G01 X-0.3500 Y0.9634 F20.00 
G01 X-0.3500 Y0.9655 
G01 X-0.3497 Y0.9668 
G01 X-0.3551 Y0.9715 
G01 X-0.3594 Y0.9715 
G00 Z0.1000 
G00 X-2.2199 Y1.6601 
G01 Z-0.0070 F10.00 
G01 X-2.2675 Y1.7078 F20.00 
G01 X-2.2675 Y1.7073 
G01 X-2.2199 Y1.6601 
G00 Z0.1000 
G00 X-2.8310 Y1.1844 
G01 Z-0.0070 F10.00 
G01 X-2.8506 Y1.2040 F20.00 
G01 X-2.8615 Y1.2040 
G01 X-2.8617 Y1.2036 
G01 X-2.8649 Y1.1988 
G01 X-2.8690 Y1.1947 
G01 X-2.8717 Y1.1929 
G01 X-2.8690 Y1.1911 
G01 X-2.8649 Y1.1870 
G01 X-2.8624 Y1.1833 
G01 X-2.8597 Y1.1834 
G01 X-2.8579 Y1.1835 
G01 X-2.8562 Y1.1836 
G01 X-2.8561 Y1.1835 
G01 X-2.8544 Y1.1831 
G01 X-2.8527 Y1.1828 
G01 X-2.8516 Y1.1825 
G01 X-2.8503 Y1.1823 
G01 X-2.8498 Y1.1820 
G01 X-2.8493 Y1.1819 
G01 X-2.8482 Y1.1813 
G01 X-2.8471 Y1.1808 
G01 X-2.8467 Y1.1805 
G01 X-2.8462 Y1.1802 
G01 X-2.8453 Y1.1794 
G01 X-2.8310 Y1.1678 
G01 X-2.8310 Y1.1844 
G00 Z0.1000 
G00 X-0.1966 Y0.0018 
G01 Z-0.0070 F10.00 
G01 X-0.1990 Y-0.0024 F20.00 
G01 X-0.2024 Y-0.0058 
G01 X-0.2051 Y-0.0073 
G01 X-0.2066 Y-0.0082 
G01 X-0.2113 Y-0.0095 
G01 X-2.0584 Y-0.0095 
G01 X-2.0631 Y-0.0082 
G01 X-2.0674 Y-0.0058 
G01 X-2.0708 Y-0.0024 
G01 X-2.0732 Y0.0019 
G01 X-2.0745 Y0.0066 
G01 X-2.0745 Y0.1434 
G01 X-2.0732 Y0.1481 
G01 X-2.0708 Y0.1524 
G01 X-2.0674 Y0.1558 
G01 X-2.0631 Y0.1582 
G01 X-2.0584 Y0.1595 
G01 X-2.0362 Y0.1595 
G01 X-2.0721 Y0.2232 
G01 X-2.0732 Y0.2252 
G01 X-2.0733 Y0.2253 
G01 X-2.0739 Y0.2277 
G01 X-2.0745 Y0.2299 
G01 X-2.0745 Y0.2300 
G01 X-2.0745 Y0.2301 
G01 X-2.0745 Y0.2325 
G01 X-2.0745 Y0.3460 
G01 X-2.0747 Y0.3462 
G01 X-2.0748 Y0.3463 
G01 X-2.0759 Y0.3484 
G01 X-2.0771 Y0.3504 
G01 X-2.0772 Y0.3505 
G01 X-2.0778 Y0.3528 
G01 X-2.0784 Y0.3551 
G01 X-2.0784 Y0.3552 
G01 X-2.0784 Y0.3576 
G01 X-2.0785 Y0.3580 
G01 X-2.1773 Y0.3580 
G01 X-2.1768 Y0.3571 
G01 X-2.1755 Y0.3524 
G01 X-2.1755 Y0.1276 
G01 X-2.1768 Y0.1229 
G01 X-2.1792 Y0.1186 
G01 X-2.1826 Y0.1152 
G01 X-2.1869 Y0.1128 
G01 X-2.1916 Y0.1115 
G01 X-2.1964 Y0.1115 
G01 X-2.2574 Y0.1115 
G01 X-2.2621 Y0.1128 
G01 X-2.2664 Y0.1152 
G01 X-2.2698 Y0.1186 
G01 X-2.2722 Y0.1229 
G01 X-2.2735 Y0.1276 
G01 X-2.2735 Y0.3524 
G01 X-2.2722 Y0.3571 
G01 X-2.2698 Y0.3614 
G01 X-2.2664 Y0.3648 
G01 X-2.2621 Y0.3672 
G01 X-2.2574 Y0.3685 
G01 X-2.2201 Y0.3685 
G01 X-2.2197 Y0.3692 
G01 X-2.2188 Y0.3710 
G01 X-2.2184 Y0.3714 
G01 X-2.2107 Y0.3850 
G01 X-2.2098 Y0.3865 
G01 X-2.3790 Y0.3865 
G01 X-2.3790 Y0.3641 
G01 X-2.3646 Y0.3635 
G01 X-2.3626 Y0.3635 
G01 X-2.3622 Y0.3634 
G01 X-2.3619 Y0.3634 
G01 X-2.3599 Y0.3628 
G01 X-2.3579 Y0.3622 
G01 X-2.3575 Y0.3621 
G01 X-2.3572 Y0.3620 
G01 X-2.3554 Y0.3608 
G01 X-2.3536 Y0.3598 
G01 X-2.3534 Y0.3595 
G01 X-2.3531 Y0.3594 
G01 X-2.3517 Y0.3578 
G01 X-2.3502 Y0.3564 
G01 X-2.3500 Y0.3560 
G01 X-2.3498 Y0.3558 
G01 X-2.3488 Y0.3539 
G01 X-2.3478 Y0.3521 
G01 X-2.3477 Y0.3518 
G01 X-2.3475 Y0.3515 
G01 X-2.3470 Y0.3494 
G01 X-2.3465 Y0.3474 
G01 X-2.3465 Y0.3471 
G01 X-2.3464 Y0.3467 
G01 X-2.3465 Y0.3446 
G01 X-2.3465 Y0.0816 
G01 X-2.3478 Y0.0769 
G01 X-2.3502 Y0.0726 
G01 X-2.3536 Y0.0692 
G01 X-2.3579 Y0.0668 
G01 X-2.3626 Y0.0655 
G01 X-2.4284 Y0.0655 
G01 X-2.4331 Y0.0668 
G01 X-2.4374 Y0.0692 
G01 X-2.4408 Y0.0726 
G01 X-2.4432 Y0.0769 
G01 X-2.4445 Y0.0816 
G01 X-2.4445 Y0.3453 
G01 X-2.4445 Y0.3455 
G01 X-2.9885 Y0.3440 
G01 X-2.9910 Y0.3440 
G01 X-2.9934 Y0.3440 
G01 X-2.9958 Y0.3447 
G01 X-2.9981 Y0.3453 
G01 X-3.0002 Y0.3465 
G01 X-3.0023 Y0.3477 
G01 X-3.0041 Y0.3495 
G01 X-3.0058 Y0.3511 
G01 X-3.0070 Y0.3533 
G01 X-3.0082 Y0.3553 
G01 X-3.0089 Y0.3577 
G01 X-3.0095 Y0.3600 
G01 X-3.0095 Y0.3625 
G01 X-3.0095 Y0.3649 
G01 X-3.0095 Y0.6858 
G01 X-3.0095 Y0.6882 
G01 X-3.0095 Y0.6907 
G01 X-3.0088 Y0.6933 
G01 X-3.0082 Y0.6954 
G01 X-3.0072 Y0.6972 
G01 X-3.0058 Y0.6996 
G01 X-3.0050 Y0.7005 
G01 X-3.0024 Y0.7031 
G01 X-3.0007 Y0.7040 
G01 X-2.9997 Y0.7046 
G01 X-3.0024 Y0.7062 
G01 X-3.0058 Y0.7096 
G01 X-3.0082 Y0.7139 
G01 X-3.0095 Y0.7186 
G01 X-3.0095 Y0.7314 
G01 X-3.0082 Y0.7361 
G01 X-3.0058 Y0.7404 
G01 X-3.0024 Y0.7438 
G01 X-2.9997 Y0.7454 
G01 X-3.0006 Y0.7459 
G01 X-3.0024 Y0.7469 
G01 X-3.0049 Y0.7495 
G01 X-3.0058 Y0.7504 
G01 X-3.0072 Y0.7528 
G01 X-3.0082 Y0.7546 
G01 X-3.0088 Y0.7566 
G01 X-3.0095 Y0.7593 
G01 X-3.0095 Y0.7617 
G01 X-3.0095 Y0.7642 
G01 X-3.0095 Y0.8858 
G01 X-3.0095 Y0.8882 
G01 X-3.0095 Y0.8907 
G01 X-3.0088 Y0.8933 
G01 X-3.0082 Y0.8954 
G01 X-3.0072 Y0.8972 
G01 X-3.0058 Y0.8996 
G01 X-3.0050 Y0.9005 
G01 X-3.0024 Y0.9031 
G01 X-3.0007 Y0.9040 
G01 X-2.9997 Y0.9046 
G01 X-3.0024 Y0.9062 
G01 X-3.0058 Y0.9096 
G01 X-3.0082 Y0.9139 
G01 X-3.0095 Y0.9186 
G01 X-3.0095 Y0.9314 
G01 X-3.0082 Y0.9361 
G01 X-3.0058 Y0.9404 
G01 X-3.0024 Y0.9438 
G01 X-2.9997 Y0.9454 
G01 X-3.0006 Y0.9459 
G01 X-3.0024 Y0.9469 
G01 X-3.0049 Y0.9495 
G01 X-3.0058 Y0.9504 
G01 X-3.0072 Y0.9528 
G01 X-3.0082 Y0.9546 
G01 X-3.0088 Y0.9566 
G01 X-3.0095 Y0.9593 
G01 X-3.0095 Y0.9617 
G01 X-3.0095 Y0.9642 
G01 X-3.0095 Y2.5387 
G01 X-3.0082 Y2.5434 
G01 X-3.0074 Y2.5449 
G01 X-3.0058 Y2.5476 
G01 X-3.0024 Y2.5510 
G01 X-2.9981 Y2.5535 
G01 X-2.9934 Y2.5547 
G01 X-2.9886 Y2.5547 
G01 X-2.9839 Y2.5535 
G01 X-2.9823 Y2.5526 
G01 X-2.9796 Y2.5510 
G01 X-2.9762 Y2.5476 
G01 X-2.9738 Y2.5435 
G01 X-2.9584 Y2.5168 
G01 X-2.9332 Y2.4916 
G01 X-2.9023 Y2.4737 
G01 X-2.8678 Y2.4645 
G01 X-2.8322 Y2.4645 
G01 X-2.7977 Y2.4737 
G01 X-2.7668 Y2.4916 
G01 X-2.7416 Y2.5168 
G01 X-2.7237 Y2.5477 
G01 X-2.7145 Y2.5822 
G01 X-2.7145 Y2.6178 
G01 X-2.7237 Y2.6523 
G01 X-2.7416 Y2.6832 
G01 X-2.7668 Y2.7084 
G01 X-2.7937 Y2.7239 
G01 X-2.7976 Y2.7262 
G01 X-2.8010 Y2.7296 
G01 X-2.8025 Y2.7323 
G01 X-2.8035 Y2.7339 
G01 X-2.8047 Y2.7386 
G01 X-2.8047 Y2.7434 
G01 X-2.8035 Y2.7481 
G01 X-2.8010 Y2.7524 
G01 X-2.7976 Y2.7558 
G01 X-2.7949 Y2.7573 
G01 X-2.7934 Y2.7582 
G01 X-2.7887 Y2.7595 
G01 X-0.2113 Y2.7595 
G01 X-0.2066 Y2.7582 
G01 X-0.2051 Y2.7574 
G01 X-0.2024 Y2.7558 
G01 X-0.1990 Y2.7524 
G01 X-0.1965 Y2.7481 
G01 X-0.1953 Y2.7434 
G01 X-0.1953 Y2.7386 
G01 X-0.1965 Y2.7339 
G01 X-0.1974 Y2.7323 
G01 X-0.1990 Y2.7296 
G01 X-0.2024 Y2.7262 
G01 X-0.2065 Y2.7238 
G01 X-0.2332 Y2.7084 
G01 X-0.2584 Y2.6832 
G01 X-0.2763 Y2.6523 
G01 X-0.2855 Y2.6178 
G01 X-0.2855 Y2.5822 
G01 X-0.2763 Y2.5477 
G01 X-0.2584 Y2.5168 
G01 X-0.2332 Y2.4916 
G01 X-0.2189 Y2.4833 
G01 X-0.2178 Y2.4828 
G01 X-0.2168 Y2.4821 
G01 X-0.2157 Y2.4815 
G01 X-0.2149 Y2.4806 
G01 X-0.2139 Y2.4799 
G01 X-0.2131 Y2.4789 
G01 X-0.2123 Y2.4780 
G01 X-0.2117 Y2.4770 
G01 X-0.2109 Y2.4760 
G01 X-0.2105 Y2.4749 
G01 X-0.2098 Y2.4738 
G01 X-0.2097 Y2.4732 
G01 X-0.2088 Y2.4735 
G01 X-0.2075 Y2.4738 
G01 X-0.2026 Y2.4738 
G01 X-0.1999 Y2.4731 
G01 X-0.1979 Y2.4726 
G01 X-0.1678 Y2.4645 
G01 X-0.1322 Y2.4645 
G01 X-0.0977 Y2.4737 
G01 X-0.0668 Y2.4916 
G01 X-0.0416 Y2.5168 
G01 X-0.0261 Y2.5437 
G01 X-0.0238 Y2.5476 
G01 X-0.0204 Y2.5510 
G01 X-0.0177 Y2.5525 
G01 X-0.0161 Y2.5535 
G01 X-0.0114 Y2.5547 
G01 X-0.0066 Y2.5547 
G01 X-0.0019 Y2.5535 
G01 X0.0024 Y2.5510 
G01 X0.0058 Y2.5476 
G01 X0.0073 Y2.5449 
G01 X0.0082 Y2.5434 
G01 X0.0095 Y2.5387 
G01 X0.0095 Y0.2113 
G01 X0.0082 Y0.2066 
G01 X0.0074 Y0.2051 
G01 X0.0058 Y0.2024 
G01 X0.0024 Y0.1990 
G01 X-0.0019 Y0.1965 
G01 X-0.0066 Y0.1953 
G01 X-0.0114 Y0.1953 
G01 X-0.0161 Y0.1965 
G01 X-0.0177 Y0.1974 
G01 X-0.0204 Y0.1990 
G01 X-0.0238 Y0.2024 
G01 X-0.0262 Y0.2065 
G01 X-0.0416 Y0.2332 
G01 X-0.0668 Y0.2584 
G01 X-0.0977 Y0.2763 
G01 X-0.1322 Y0.2855 
G01 X-0.1678 Y0.2855 
G01 X-0.2023 Y0.2763 
G01 X-0.2332 Y0.2584 
G01 X-0.2584 Y0.2332 
G01 X-0.2763 Y0.2023 
G01 X-0.2855 Y0.1678 
G01 X-0.2855 Y0.1322 
G01 X-0.2763 Y0.0977 
G01 X-0.2584 Y0.0668 
G01 X-0.2332 Y0.0416 
G01 X-0.2063 Y0.0261 
G01 X-0.2024 Y0.0238 
G01 X-0.1990 Y0.0204 
G01 X-0.1975 Y0.0177 
G01 X-0.1965 Y0.0161 
G01 X-0.1953 Y0.0114 
G01 X-0.1953 Y0.0066 
G01 X-0.1965 Y0.0019 
G00 Z0.1000 
G00 X-1.5231 Y0.3295 
G01 Z-0.0070 F10.00 
G01 X-1.5384 Y0.3413 F20.00 
G01 X-1.5395 Y0.3419 
G01 X-1.5404 Y0.3428 
G01 X-1.5405 Y0.3429 
G01 X-1.5405 Y0.3394 
G01 X-1.5282 Y0.3295 
G01 X-1.5231 Y0.3295 
G00 Z0.1000 
G00 X-1.5795 Y0.3333 
G01 Z-0.0070 F10.00 
G01 X-1.5795 Y0.7206 F20.00 
G01 X-1.5805 Y0.7216 
G01 X-1.5805 Y0.3341 
G01 X-1.5795 Y0.3333 
G00 Z0.1000 
G00 X-1.4805 Y0.3877 
G01 Z-0.0070 F10.00 
G01 X-1.4751 Y0.3839 F20.00 
G01 X-1.4805 Y0.3884 
G01 X-1.4805 Y0.3877 
G00 Z0.1000 
G00 X-1.4895 Y0.7704 
G01 Z-0.0070 F10.00 
G01 X-1.4895 Y0.8267 F20.00 
G01 X-1.5033 Y0.8480 
G01 X-1.5036 Y0.8470 
G01 X-1.5056 Y0.8420 
G01 X-1.5086 Y0.8375 
G01 X-1.5105 Y0.8356 
G01 X-1.5105 Y0.7704 
G01 X-1.5080 Y0.7714 
G01 X-1.5027 Y0.7725 
G01 X-1.4973 Y0.7725 
G01 X-1.4920 Y0.7714 
G01 X-1.4895 Y0.7704 
G00 Z0.1000 
G00 X-1.7611 Y0.8623 
G01 Z-0.0070 F10.00 
G01 X-1.6800 Y0.9513 F20.00 
G01 X-1.6800 Y0.9552 
G01 X-1.6789 Y0.9605 
G01 X-1.7546 Y0.9605 
G01 X-1.7536 Y0.9580 
G01 X-1.7525 Y0.9527 
G01 X-1.7525 Y0.9473 
G01 X-1.7536 Y0.9420 
G01 X-1.7556 Y0.9370 
G01 X-1.7586 Y0.9325 
G01 X-1.7606 Y0.9305 
G01 X-1.7611 Y0.8623 
G00 Z0.1000 
G00 X-1.9794 Y0.6152 
G01 Z-0.0070 F10.00 
G01 X-2.0161 Y0.6172 F20.00 
G01 X-2.0074 Y0.6062 
G01 X-1.9756 Y0.6068 
G01 X-1.9785 Y0.6125 
G01 X-1.9794 Y0.6152 
G00 Z0.1000 
G00 X-1.9767 Y0.5698 
G01 Z-0.0070 F10.00 
G01 X-1.9923 Y0.5695 F20.00 
G01 X-1.9768 Y0.5695 
G01 X-1.9767 Y0.5698 
G00 Z0.1000 
G00 X-2.2524 Y0.8531 
G01 Z-0.0070 F10.00 
G01 X-2.2514 Y0.8580 F20.00 
G01 X-2.2494 Y0.8630 
G01 X-2.2464 Y0.8675 
G01 X-2.2437 Y0.8702 
G01 X-2.2655 Y0.8778 
G01 X-2.2636 Y0.8730 
G01 X-2.2625 Y0.8677 
G01 X-2.2625 Y0.8636 
G01 X-2.2543 Y0.8545 
G01 X-2.2524 Y0.8531 
G00 Z0.1000 
G00 X-2.8360 Y1.1783 
G01 Z-0.0070 F10.00 
G01 X-2.8360 Y1.1823 F20.00 
G01 X-2.8527 Y1.1990 
G01 X-2.8587 Y1.1990 
G01 X-2.8610 Y1.1956 
G01 X-2.8637 Y1.1929 
G01 X-2.8610 Y1.1902 
G01 X-2.8598 Y1.1884 
G01 X-2.8581 Y1.1885 
G01 X-2.8557 Y1.1886 
G01 X-2.8556 Y1.1886 
G01 X-2.8533 Y1.1880 
G01 X-2.8510 Y1.1875 
G01 X-2.8506 Y1.1874 
G01 X-2.8489 Y1.1871 
G01 X-2.8482 Y1.1868 
G01 X-2.8475 Y1.1866 
G01 X-2.8460 Y1.1858 
G01 X-2.8444 Y1.1851 
G01 X-2.8439 Y1.1847 
G01 X-2.8433 Y1.1843 
G01 X-2.8420 Y1.1831 
G01 X-2.8360 Y1.1783 
G00 Z0.1000 
G00 X-1.0612 Y1.5375 
G01 Z-0.0070 F10.00 
G01 X-1.0579 Y1.5375 F20.00 
G01 X-1.0499 Y1.5512 
G01 X-1.0499 Y1.5520 
G01 X-1.0612 Y1.5375 
G00 Z0.1000 
G00 X-0.0007 Y0.1918 
G01 Z-0.0070 F10.00 
G01 X-0.0021 Y0.1912 F20.00 
G01 X-0.0029 Y0.1910 
G01 X-0.0036 Y0.1908 
G01 X-0.0052 Y0.1906 
G01 X-0.0067 Y0.1903 
G01 X-0.0075 Y0.1903 
G01 X-0.0082 Y0.1902 
G01 X-0.0098 Y0.1903 
G01 X-0.0113 Y0.1903 
G01 X-0.0121 Y0.1904 
G01 X-0.0128 Y0.1905 
G01 X-0.0143 Y0.1909 
G01 X-0.0159 Y0.1912 
G01 X-0.0166 Y0.1915 
G01 X-0.0173 Y0.1917 
G01 X-0.0187 Y0.1924 
G01 X-0.0201 Y0.1930 
G01 X-0.0208 Y0.1934 
G01 X-0.0215 Y0.1937 
G01 X-0.0227 Y0.1947 
G01 X-0.0240 Y0.1955 
G01 X-0.0245 Y0.1961 
G01 X-0.0251 Y0.1965 
G01 X-0.0262 Y0.1977 
G01 X-0.0273 Y0.1988 
G01 X-0.0277 Y0.1994 
G01 X-0.0282 Y0.2000 
G01 X-0.0290 Y0.2014 
G01 X-0.0298 Y0.2026 
G01 X-0.0301 Y0.2034 
G01 X-0.0456 Y0.2301 
G01 X-0.0699 Y0.2544 
G01 X-0.0996 Y0.2716 
G01 X-0.1328 Y0.2805 
G01 X-0.1672 Y0.2805 
G01 X-0.2004 Y0.2716 
G01 X-0.2301 Y0.2544 
G01 X-0.2544 Y0.2301 
G01 X-0.2716 Y0.2004 
G01 X-0.2805 Y0.1672 
G01 X-0.2805 Y0.1328 
G01 X-0.2716 Y0.0996 
G01 X-0.2544 Y0.0699 
G01 X-0.2301 Y0.0456 
G01 X-0.2034 Y0.0301 
G01 X-0.2026 Y0.0298 
G01 X-0.2014 Y0.0290 
G01 X-0.2000 Y0.0282 
G01 X-0.1994 Y0.0277 
G01 X-0.1988 Y0.0273 
G01 X-0.1977 Y0.0262 
G01 X-0.1965 Y0.0251 
G01 X-0.1961 Y0.0245 
G01 X-0.1955 Y0.0240 
G01 X-0.1947 Y0.0227 
G01 X-0.1937 Y0.0215 
G01 X-0.1934 Y0.0208 
G01 X-0.1930 Y0.0201 
G01 X-0.1924 Y0.0187 
G01 X-0.1917 Y0.0173 
G01 X-0.1915 Y0.0166 
G01 X-0.1912 Y0.0159 
G01 X-0.1909 Y0.0143 
G01 X-0.1905 Y0.0128 
G01 X-0.1904 Y0.0121 
G01 X-0.1903 Y0.0113 
G01 X-0.1903 Y0.0098 
G01 X-0.1902 Y0.0082 
G01 X-0.1903 Y0.0075 
G01 X-0.1903 Y0.0067 
G01 X-0.1906 Y0.0052 
G01 X-0.1908 Y0.0036 
G01 X-0.1910 Y0.0029 
G01 X-0.1912 Y0.0021 
G01 X-0.1918 Y0.0007 
G01 X-0.1923 Y-0.0007 
G01 X-0.1927 Y-0.0014 
G01 X-0.1930 Y-0.0021 
G01 X-0.1938 Y-0.0034 
G01 X-0.1946 Y-0.0048 
G01 X-0.1951 Y-0.0053 
G01 X-0.1955 Y-0.0060 
G01 X-0.1966 Y-0.0071 
G01 X-0.1976 Y-0.0082 
G01 X-0.1983 Y-0.0087 
G01 X-0.1988 Y-0.0093 
G01 X-0.2001 Y-0.0101 
G01 X-0.2013 Y-0.0111 
G01 X-0.2020 Y-0.0114 
G01 X-0.2026 Y-0.0118 
G01 X-0.2041 Y-0.0124 
G01 X-0.2055 Y-0.0131 
G01 X-0.2062 Y-0.0133 
G01 X-0.2069 Y-0.0136 
G01 X-0.2084 Y-0.0139 
G01 X-0.2099 Y-0.0143 
G01 X-0.2107 Y-0.0143 
G01 X-0.2115 Y-0.0145 
G01 X-0.2130 Y-0.0145 
G01 X-0.2146 Y-0.0146 
G01 X-0.2153 Y-0.0145 
G01 X-2.0583 Y-0.0145 
G01 X-2.0629 Y-0.0136 
G01 X-2.0671 Y-0.0118 
G01 X-2.0710 Y-0.0093 
G01 X-2.0743 Y-0.0060 
G01 X-2.0768 Y-0.0021 
G01 X-2.0786 Y0.0021 
G01 X-2.0795 Y0.0067 
G01 X-2.0795 Y0.1433 
G01 X-2.0786 Y0.1479 
G01 X-2.0768 Y0.1521 
G01 X-2.0743 Y0.1560 
G01 X-2.0710 Y0.1593 
G01 X-2.0671 Y0.1618 
G01 X-2.0629 Y0.1636 
G01 X-2.0583 Y0.1645 
G01 X-2.0448 Y0.1645 
G01 X-2.0760 Y0.2201 
G01 X-2.0768 Y0.2212 
G01 X-2.0772 Y0.2221 
G01 X-2.0776 Y0.2229 
G01 X-2.0781 Y0.2242 
G01 X-2.0786 Y0.2255 
G01 X-2.0788 Y0.2264 
G01 X-2.0791 Y0.2273 
G01 X-2.0792 Y0.2287 
G01 X-2.0795 Y0.2300 
G01 X-2.0795 Y0.2309 
G01 X-2.0796 Y0.2318 
G01 X-2.0795 Y0.2333 
G01 X-2.0795 Y0.3446 
G01 X-2.0807 Y0.3464 
G01 X-2.0808 Y0.3465 
G01 X-2.0816 Y0.3486 
G01 X-2.0825 Y0.3507 
G01 X-2.0825 Y0.3508 
G01 X-2.0830 Y0.3530 
G01 X-2.1706 Y0.3530 
G01 X-2.1705 Y0.3523 
G01 X-2.1705 Y0.1277 
G01 X-2.1714 Y0.1231 
G01 X-2.1732 Y0.1189 
G01 X-2.1757 Y0.1150 
G01 X-2.1790 Y0.1117 
G01 X-2.1829 Y0.1092 
G01 X-2.1871 Y0.1074 
G01 X-2.1917 Y0.1065 
G01 X-2.2573 Y0.1065 
G01 X-2.2619 Y0.1074 
G01 X-2.2661 Y0.1092 
G01 X-2.2700 Y0.1117 
G01 X-2.2733 Y0.1150 
G01 X-2.2758 Y0.1189 
G01 X-2.2776 Y0.1231 
G01 X-2.2785 Y0.1277 
G01 X-2.2785 Y0.3523 
G01 X-2.2776 Y0.3569 
G01 X-2.2758 Y0.3611 
G01 X-2.2733 Y0.3650 
G01 X-2.2700 Y0.3683 
G01 X-2.2661 Y0.3708 
G01 X-2.2619 Y0.3726 
G01 X-2.2573 Y0.3735 
G01 X-2.2230 Y0.3735 
G01 X-2.2229 Y0.3737 
G01 X-2.2184 Y0.3815 
G01 X-2.3740 Y0.3815 
G01 X-2.3740 Y0.3689 
G01 X-2.3645 Y0.3685 
G01 X-2.3627 Y0.3685 
G01 X-2.3622 Y0.3684 
G01 X-2.3618 Y0.3684 
G01 X-2.3600 Y0.3680 
G01 X-2.3581 Y0.3676 
G01 X-2.3577 Y0.3674 
G01 X-2.3573 Y0.3673 
G01 X-2.3556 Y0.3665 
G01 X-2.3539 Y0.3658 
G01 X-2.3535 Y0.3656 
G01 X-2.3531 Y0.3654 
G01 X-2.3516 Y0.3643 
G01 X-2.3500 Y0.3633 
G01 X-2.3497 Y0.3629 
G01 X-2.3493 Y0.3627 
G01 X-2.3481 Y0.3613 
G01 X-2.3467 Y0.3600 
G01 X-2.3465 Y0.3596 
G01 X-2.3462 Y0.3593 
G01 X-2.3452 Y0.3577 
G01 X-2.3442 Y0.3561 
G01 X-2.3440 Y0.3557 
G01 X-2.3438 Y0.3553 
G01 X-2.3431 Y0.3536 
G01 X-2.3424 Y0.3519 
G01 X-2.3423 Y0.3514 
G01 X-2.3422 Y0.3510 
G01 X-2.3419 Y0.3491 
G01 X-2.3415 Y0.3473 
G01 X-2.3415 Y0.3469 
G01 X-2.3414 Y0.3464 
G01 X-2.3415 Y0.3445 
G01 X-2.3415 Y0.0817 
G01 X-2.3424 Y0.0771 
G01 X-2.3442 Y0.0729 
G01 X-2.3467 Y0.0690 
G01 X-2.3500 Y0.0657 
G01 X-2.3539 Y0.0632 
G01 X-2.3581 Y0.0614 
G01 X-2.3627 Y0.0605 
G01 X-2.4283 Y0.0605 
G01 X-2.4329 Y0.0614 
G01 X-2.4371 Y0.0632 
G01 X-2.4410 Y0.0657 
G01 X-2.4443 Y0.0690 
G01 X-2.4468 Y0.0729 
G01 X-2.4486 Y0.0771 
G01 X-2.4495 Y0.0817 
G01 X-2.4495 Y0.3405 
G01 X-2.9887 Y0.3390 
G01 X-2.9910 Y0.3390 
G01 X-2.9933 Y0.3390 
G01 X-2.9956 Y0.3395 
G01 X-2.9978 Y0.3399 
G01 X-3.0000 Y0.3408 
G01 X-3.0021 Y0.3417 
G01 X-3.0040 Y0.3430 
G01 X-3.0059 Y0.3442 
G01 X-3.0076 Y0.3459 
G01 X-3.0092 Y0.3475 
G01 X-3.0105 Y0.3495 
G01 X-3.0118 Y0.3513 
G01 X-3.0127 Y0.3535 
G01 X-3.0136 Y0.3556 
G01 X-3.0140 Y0.3579 
G01 X-3.0145 Y0.3602 
G01 X-3.0145 Y0.3625 
G01 X-3.0145 Y0.3648 
G01 X-3.0145 Y0.6860 
G01 X-3.0145 Y0.6882 
G01 X-3.0145 Y0.6906 
G01 X-3.0141 Y0.6928 
G01 X-3.0136 Y0.6951 
G01 X-3.0129 Y0.6968 
G01 X-3.0118 Y0.6994 
G01 X-3.0105 Y0.7013 
G01 X-3.0093 Y0.7033 
G01 X-3.0079 Y0.7046 
G01 X-3.0093 Y0.7060 
G01 X-3.0118 Y0.7099 
G01 X-3.0136 Y0.7141 
G01 X-3.0145 Y0.7187 
G01 X-3.0145 Y0.7313 
G01 X-3.0136 Y0.7359 
G01 X-3.0118 Y0.7401 
G01 X-3.0093 Y0.7440 
G01 X-3.0079 Y0.7454 
G01 X-3.0093 Y0.7467 
G01 X-3.0105 Y0.7486 
G01 X-3.0118 Y0.7506 
G01 X-3.0129 Y0.7531 
G01 X-3.0136 Y0.7549 
G01 X-3.0140 Y0.7571 
G01 X-3.0145 Y0.7594 
G01 X-3.0145 Y0.7617 
G01 X-3.0145 Y0.7640 
G01 X-3.0145 Y0.8860 
G01 X-3.0145 Y0.8882 
G01 X-3.0145 Y0.8906 
G01 X-3.0141 Y0.8928 
G01 X-3.0136 Y0.8951 
G01 X-3.0129 Y0.8968 
G01 X-3.0118 Y0.8994 
G01 X-3.0105 Y0.9013 
G01 X-3.0093 Y0.9033 
G01 X-3.0079 Y0.9046 
G01 X-3.0093 Y0.9060 
G01 X-3.0118 Y0.9099 
G01 X-3.0136 Y0.9141 
G01 X-3.0145 Y0.9187 
G01 X-3.0145 Y0.9313 
G01 X-3.0136 Y0.9359 
G01 X-3.0118 Y0.9401 
G01 X-3.0093 Y0.9440 
G01 X-3.0079 Y0.9454 
G01 X-3.0093 Y0.9467 
G01 X-3.0105 Y0.9486 
G01 X-3.0118 Y0.9506 
G01 X-3.0129 Y0.9531 
G01 X-3.0136 Y0.9549 
G01 X-3.0140 Y0.9571 
G01 X-3.0145 Y0.9594 
G01 X-3.0145 Y0.9617 
G01 X-3.0145 Y0.9640 
G01 X-3.0145 Y2.5347 
G01 X-3.0146 Y2.5354 
G01 X-3.0145 Y2.5370 
G01 X-3.0145 Y2.5385 
G01 X-3.0143 Y2.5393 
G01 X-3.0143 Y2.5401 
G01 X-3.0139 Y2.5416 
G01 X-3.0136 Y2.5431 
G01 X-3.0133 Y2.5438 
G01 X-3.0131 Y2.5445 
G01 X-3.0124 Y2.5459 
G01 X-3.0118 Y2.5474 
G01 X-3.0114 Y2.5480 
G01 X-3.0111 Y2.5487 
G01 X-3.0101 Y2.5499 
G01 X-3.0093 Y2.5512 
G01 X-3.0087 Y2.5517 
G01 X-3.0082 Y2.5524 
G01 X-3.0071 Y2.5534 
G01 X-3.0060 Y2.5545 
G01 X-3.0053 Y2.5549 
G01 X-3.0048 Y2.5554 
G01 X-3.0034 Y2.5562 
G01 X-3.0021 Y2.5570 
G01 X-3.0014 Y2.5573 
G01 X-3.0007 Y2.5577 
G01 X-2.9993 Y2.5582 
G01 X-2.9979 Y2.5588 
G01 X-2.9971 Y2.5590 
G01 X-2.9964 Y2.5592 
G01 X-2.9948 Y2.5594 
G01 X-2.9933 Y2.5597 
G01 X-2.9925 Y2.5597 
G01 X-2.9918 Y2.5598 
G01 X-2.9902 Y2.5597 
G01 X-2.9887 Y2.5597 
G01 X-2.9879 Y2.5596 
G01 X-2.9872 Y2.5595 
G01 X-2.9857 Y2.5591 
G01 X-2.9841 Y2.5588 
G01 X-2.9834 Y2.5585 
G01 X-2.9827 Y2.5583 
G01 X-2.9813 Y2.5576 
G01 X-2.9799 Y2.5570 
G01 X-2.9792 Y2.5566 
G01 X-2.9785 Y2.5563 
G01 X-2.9773 Y2.5553 
G01 X-2.9760 Y2.5545 
G01 X-2.9755 Y2.5539 
G01 X-2.9749 Y2.5535 
G01 X-2.9738 Y2.5523 
G01 X-2.9727 Y2.5512 
G01 X-2.9723 Y2.5506 
G01 X-2.9718 Y2.5500 
G01 X-2.9710 Y2.5486 
G01 X-2.9702 Y2.5474 
G01 X-2.9699 Y2.5466 
G01 X-2.9544 Y2.5199 
G01 X-2.9301 Y2.4956 
G01 X-2.9004 Y2.4784 
G01 X-2.8672 Y2.4695 
G01 X-2.8328 Y2.4695 
G01 X-2.7996 Y2.4784 
G01 X-2.7699 Y2.4956 
G01 X-2.7456 Y2.5199 
G01 X-2.7284 Y2.5496 
G01 X-2.7195 Y2.5828 
G01 X-2.7195 Y2.6172 
G01 X-2.7284 Y2.6504 
G01 X-2.7456 Y2.6801 
G01 X-2.7699 Y2.7044 
G01 X-2.7966 Y2.7199 
G01 X-2.7974 Y2.7202 
G01 X-2.7986 Y2.7210 
G01 X-2.8000 Y2.7218 
G01 X-2.8006 Y2.7223 
G01 X-2.8012 Y2.7227 
G01 X-2.8023 Y2.7238 
G01 X-2.8035 Y2.7249 
G01 X-2.8039 Y2.7255 
G01 X-2.8045 Y2.7260 
G01 X-2.8053 Y2.7273 
G01 X-2.8063 Y2.7285 
G01 X-2.8066 Y2.7292 
G01 X-2.8070 Y2.7299 
G01 X-2.8076 Y2.7313 
G01 X-2.8083 Y2.7327 
G01 X-2.8085 Y2.7334 
G01 X-2.8088 Y2.7341 
G01 X-2.8091 Y2.7357 
G01 X-2.8095 Y2.7372 
G01 X-2.8096 Y2.7379 
G01 X-2.8097 Y2.7387 
G01 X-2.8097 Y2.7402 
G01 X-2.8098 Y2.7418 
G01 X-2.8097 Y2.7425 
G01 X-2.8097 Y2.7433 
G01 X-2.8094 Y2.7448 
G01 X-2.8092 Y2.7464 
G01 X-2.8090 Y2.7471 
G01 X-2.8088 Y2.7479 
G01 X-2.8082 Y2.7493 
G01 X-2.8077 Y2.7507 
G01 X-2.8073 Y2.7514 
G01 X-2.8070 Y2.7521 
G01 X-2.8062 Y2.7534 
G01 X-2.8054 Y2.7548 
G01 X-2.8049 Y2.7553 
G01 X-2.8045 Y2.7560 
G01 X-2.8034 Y2.7571 
G01 X-2.8024 Y2.7582 
G01 X-2.8017 Y2.7587 
G01 X-2.8012 Y2.7593 
G01 X-2.7999 Y2.7601 
G01 X-2.7987 Y2.7611 
G01 X-2.7980 Y2.7614 
G01 X-2.7974 Y2.7618 
G01 X-2.7959 Y2.7624 
G01 X-2.7945 Y2.7631 
G01 X-2.7938 Y2.7633 
G01 X-2.7931 Y2.7636 
G01 X-2.7916 Y2.7639 
G01 X-2.7901 Y2.7643 
G01 X-2.7893 Y2.7643 
G01 X-2.7885 Y2.7645 
G01 X-2.7870 Y2.7645 
G01 X-2.7854 Y2.7646 
G01 X-2.7847 Y2.7645 
G01 X-0.2153 Y2.7645 
G01 X-0.2146 Y2.7646 
G01 X-0.2130 Y2.7645 
G01 X-0.2115 Y2.7645 
G01 X-0.2107 Y2.7643 
G01 X-0.2099 Y2.7643 
G01 X-0.2084 Y2.7639 
G01 X-0.2069 Y2.7636 
G01 X-0.2062 Y2.7633 
G01 X-0.2055 Y2.7631 
G01 X-0.2041 Y2.7624 
G01 X-0.2026 Y2.7618 
G01 X-0.2020 Y2.7614 
G01 X-0.2013 Y2.7611 
G01 X-0.2001 Y2.7601 
G01 X-0.1988 Y2.7593 
G01 X-0.1983 Y2.7587 
