(.../pcb-gcode-3.6.2.4/pcb-gcode.ulp)
(Copyright 2005 - 2012 by John Johnson)
(See readme.txt for licensing terms.)
(This file generated from the board:)
(.../LagoVista.EaglePCB.Tests/PNPHeadBoard.brd)
(Current profile is .../pcb-gcode-3.6.2.4/profiles/generic.pp  )
(This file generated 3/17/2017 08:37)
(Settings from pcb-machine.h)
(spindle on time = 3.0000)
(  Tool Size)
(0.1778 )
(spindle speed = 30000.0000)
(tool change at 0.0000 0.0000 25.4000 )
(feed rate xy = F508.00 )
(feed rate z  = F254.00 )
(Z Axis Settings)
(  High     Up        Down     Drill)
(12.7000 	2.5400 	-0.1778 	-0.8128 )
(Settings from pcb-defaults.h)
(isolate min = 0.0254)
(isolate max = 0.5080)
(isolate step = 0.1270)
(Generated top outlines, top drill, bottom outlines, bottom drill, )
(Unit of measure: mm)
(Metric Mode)
G21
(Absolute Coordinates)
G90
S30000
G00 Z12.7000 
G00 X0.0000 Y0.0000 
M03
G04 P3.000000
G00 Z2.5400 
G00 X6.4124 Y0.3626 
G01 Z-0.1778 F254.00 
G01 X6.4005 Y0.3811 F508.00 
G01 X6.3849 Y0.3967 
G01 X6.3748 Y0.4211 
G01 X6.3605 Y0.4433 
G01 X6.3566 Y0.4650 
G01 X6.3482 Y0.4854 
G01 X6.3482 Y0.5118 
G01 X6.3435 Y0.5378 
G01 X6.3482 Y0.5593 
G01 X6.3482 Y0.5814 
G01 X6.3583 Y0.6058 
G01 X6.3639 Y0.6316 
G01 X6.3765 Y0.6497 
G01 X6.3849 Y0.6701 
G01 X6.4036 Y0.6888 
G01 X6.4186 Y0.7104 
G01 X6.4372 Y0.7224 
G01 X6.4528 Y0.7380 
G01 X6.4772 Y0.7481 
G01 X7.2295 Y1.2315 
G01 X8.0191 Y2.1428 
G01 X8.0225 Y2.1511 
G01 X8.0257 Y2.1542 
G01 X8.5248 Y3.2471 
G01 X8.6970 Y4.4450 
G01 X8.5248 Y5.6429 
G01 X8.0257 Y6.7358 
G01 X8.0225 Y6.7389 
G01 X8.0191 Y6.7472 
G01 X7.2295 Y7.6585 
G01 X6.2113 Y8.3128 
G01 X5.0673 Y8.6487 
G01 X5.0540 Y8.6487 
G01 X5.0216 Y8.6621 
G01 X5.0147 Y8.6641 
G01 X4.9895 Y8.6537 
G01 X3.8399 Y8.6537 
G01 X2.6786 Y8.3128 
G01 X1.6605 Y7.6585 
G01 X0.8680 Y6.7438 
G01 X0.7547 Y6.4958 
G01 X0.7380 Y6.4554 
G01 X0.7348 Y6.4522 
G01 X0.7329 Y6.4482 
G01 X0.7010 Y6.4184 
G01 X0.6701 Y6.3875 
G01 X0.6660 Y6.3858 
G01 X0.6627 Y6.3827 
G01 X0.6218 Y6.3675 
G01 X0.5814 Y6.3507 
G01 X0.5769 Y6.3507 
G01 X0.5728 Y6.3492 
G01 X0.5291 Y6.3507 
G01 X0.4854 Y6.3507 
G01 X0.4813 Y6.3525 
G01 X0.4768 Y6.3526 
G01 X0.4371 Y6.3708 
G01 X0.3967 Y6.3875 
G01 X0.3936 Y6.3906 
G01 X0.3895 Y6.3925 
G01 X0.3597 Y6.4245 
G01 X0.3288 Y6.4554 
G01 X0.3271 Y6.4595 
G01 X0.3241 Y6.4627 
G01 X0.3088 Y6.5037 
G01 X0.2921 Y6.5441 
G01 X0.2921 Y6.5485 
G01 X0.2905 Y6.5527 
G01 X0.2921 Y6.5964 
G01 X0.2921 Y37.8536 
G01 X0.2905 Y37.8973 
G01 X0.2921 Y37.9015 
G01 X0.2921 Y37.9059 
G01 X0.3088 Y37.9463 
G01 X0.3241 Y37.9872 
G01 X0.3271 Y37.9905 
G01 X0.3288 Y37.9946 
G01 X0.3597 Y38.0255 
G01 X0.3895 Y38.0575 
G01 X0.3936 Y38.0594 
G01 X0.3967 Y38.0625 
G01 X0.4371 Y38.0792 
G01 X0.4768 Y38.0974 
G01 X0.4813 Y38.0975 
G01 X0.4854 Y38.0992 
G01 X0.5291 Y38.0992 
G01 X0.5728 Y38.1008 
G01 X0.5769 Y38.0992 
G01 X0.5814 Y38.0992 
G01 X0.6218 Y38.0825 
G01 X0.6627 Y38.0673 
G01 X0.6660 Y38.0642 
G01 X0.6701 Y38.0625 
G01 X0.7010 Y38.0316 
G01 X0.7329 Y38.0018 
G01 X0.7348 Y37.9978 
G01 X0.7380 Y37.9946 
G01 X0.7547 Y37.9542 
G01 X0.8643 Y37.7142 
G01 X0.8675 Y37.7111 
G01 X0.8709 Y37.7028 
G01 X1.6605 Y36.7915 
G01 X2.6787 Y36.1372 
G01 X2.7948 Y36.1031 
G01 X2.8081 Y36.1031 
G01 X2.8405 Y36.0897 
G01 X2.8742 Y36.0798 
G01 X2.8845 Y36.0715 
G01 X2.8968 Y36.0664 
G01 X2.9216 Y36.0416 
G01 X2.9489 Y36.0196 
G01 X2.9553 Y36.0079 
G01 X2.9647 Y35.9985 
G01 X2.9781 Y35.9661 
G01 X2.9949 Y35.9353 
G01 X2.9964 Y35.9221 
G01 X3.0015 Y35.9098 
G01 X3.0015 Y35.8747 
G01 X3.0052 Y35.8399 
G01 X3.0015 Y35.8271 
G01 X3.0015 Y35.8138 
G01 X2.9880 Y35.7814 
G01 X2.9782 Y35.7478 
G01 X2.9698 Y35.7374 
G01 X2.9647 Y35.7251 
G01 X2.9399 Y35.7003 
G01 X2.9179 Y35.6730 
G01 X2.9062 Y35.6666 
G01 X2.7658 Y35.5262 
G01 X2.6979 Y35.4583 
G01 X2.6449 Y35.4364 
G01 X2.6092 Y35.4216 
G01 X2.5132 Y35.4216 
G01 X2.4605 Y35.4434 
G01 X2.4245 Y35.4583 
G01 X2.4197 Y35.4632 
G01 X2.3567 Y35.5262 
G01 X2.2134 Y35.6695 
G01 X1.5966 Y35.6695 
G01 X1.1605 Y35.2334 
G01 X1.1605 Y34.6166 
G01 X1.5966 Y34.1805 
G01 X2.2134 Y34.1805 
G01 X2.3436 Y34.3107 
G01 X2.4115 Y34.3786 
G01 X2.4750 Y34.4049 
G01 X2.5002 Y34.4154 
G01 X2.5962 Y34.4154 
G01 X2.6849 Y34.3786 
G01 X2.7528 Y34.3108 
G01 X2.7790 Y34.2473 
G01 X2.7895 Y34.2221 
G01 X2.7895 Y33.7921 
G01 X2.9011 Y33.6805 
G01 X4.4589 Y33.6805 
G01 X4.5705 Y33.7921 
G01 X4.5705 Y35.6030 
G01 X4.6072 Y35.6916 
G01 X4.6751 Y35.7595 
G01 X4.7638 Y35.7963 
G01 X5.0501 Y35.7963 
G01 X5.3394 Y35.8812 
G01 X5.3853 Y35.8947 
G01 X5.4286 Y35.9074 
G01 X5.4316 Y35.9071 
G01 X5.4345 Y35.9078 
G01 X5.4792 Y35.9019 
G01 X5.5240 Y35.8971 
G01 X5.5267 Y35.8957 
G01 X5.5296 Y35.8953 
G01 X5.5687 Y35.8728 
G01 X5.6083 Y35.8511 
G01 X5.6128 Y35.8473 
G01 X5.6402 Y35.8116 
G01 X5.6685 Y35.7764 
G01 X5.6694 Y35.7735 
G01 X5.6829 Y35.7276 
G01 X5.6956 Y35.6843 
G01 X5.6953 Y35.6813 
G01 X5.6960 Y35.6784 
G01 X5.6901 Y35.6337 
G01 X5.6853 Y35.5888 
G01 X5.6839 Y35.5862 
G01 X5.6835 Y35.5833 
G01 X5.6609 Y35.5442 
G01 X5.6492 Y35.5227 
G01 X5.6403 Y35.4894 
G01 X5.6403 Y35.0393 
G01 X5.6657 Y35.0393 
G01 X5.6657 Y35.4937 
G01 X5.6831 Y35.5357 
G01 X5.7153 Y35.5679 
G01 X5.7573 Y35.5853 
G01 X6.1117 Y35.5853 
G01 X6.1117 Y35.6077 
G01 X6.0835 Y35.6107 
G01 X6.0484 Y35.6107 
G01 X6.0361 Y35.6158 
G01 X6.0229 Y35.6172 
G01 X5.9921 Y35.6340 
G01 X5.9597 Y35.6474 
G01 X5.9503 Y35.6568 
G01 X5.9387 Y35.6632 
G01 X5.9167 Y35.6905 
G01 X5.8919 Y35.7153 
G01 X5.8868 Y35.7276 
G01 X5.8784 Y35.7380 
G01 X5.8685 Y35.7716 
G01 X5.8551 Y35.8040 
G01 X5.8551 Y35.8173 
G01 X5.8514 Y35.8301 
G01 X5.8551 Y35.8649 
G01 X5.8551 Y35.9000 
G01 X5.8602 Y35.9123 
G01 X5.8616 Y35.9255 
G01 X5.8784 Y35.9563 
G01 X5.8919 Y35.9887 
G01 X5.9013 Y35.9981 
G01 X5.9076 Y36.0098 
G01 X5.9349 Y36.0318 
G01 X5.9597 Y36.0566 
G01 X5.9720 Y36.0617 
G01 X5.9824 Y36.0700 
G01 X6.0160 Y36.0799 
G01 X6.0484 Y36.0933 
G01 X6.0617 Y36.0933 
G01 X6.2113 Y36.1372 
G01 X7.2295 Y36.7915 
G01 X8.0191 Y37.7028 
G01 X8.0225 Y37.7111 
G01 X8.0257 Y37.7142 
G01 X8.5248 Y38.8071 
G01 X8.6970 Y40.0050 
G01 X8.5248 Y41.2029 
G01 X8.0257 Y42.2958 
G01 X8.0225 Y42.2989 
G01 X8.0191 Y42.3072 
G01 X7.2295 Y43.2185 
G01 X6.4772 Y43.7019 
G01 X6.4528 Y43.7120 
G01 X6.4372 Y43.7276 
G01 X6.4186 Y43.7396 
G01 X6.4036 Y43.7612 
G01 X6.3849 Y43.7799 
G01 X6.3765 Y43.8003 
G01 X6.3639 Y43.8184 
G01 X6.3583 Y43.8442 
G01 X6.3482 Y43.8686 
G01 X6.3482 Y43.8907 
G01 X6.3435 Y43.9122 
G01 X6.3482 Y43.9382 
G01 X6.3482 Y43.9646 
G01 X6.3566 Y43.9850 
G01 X6.3605 Y44.0067 
G01 X6.3748 Y44.0289 
G01 X6.3849 Y44.0533 
G01 X6.4005 Y44.0689 
G01 X6.4124 Y44.0874 
G01 X6.4341 Y44.1025 
G01 X6.4528 Y44.1212 
G01 X6.4732 Y44.1296 
G01 X6.4913 Y44.1422 
G01 X6.5171 Y44.1478 
G01 X6.5415 Y44.1579 
G01 X6.5635 Y44.1579 
G01 X6.5851 Y44.1626 
G01 X6.6111 Y44.1579 
G01 X10.8205 Y44.1579 
G01 X10.9092 Y44.1212 
G01 X10.9770 Y44.0533 
G01 X11.0127 Y43.9671 
G01 X11.0138 Y43.8686 
G01 X10.9770 Y43.7799 
G01 X10.9740 Y43.7769 
G01 X10.9092 Y43.7120 
G01 X10.6855 Y43.4884 
G01 X10.6855 Y42.8716 
G01 X11.1216 Y42.4355 
G01 X11.7384 Y42.4355 
G01 X11.8830 Y42.5801 
G01 X11.9508 Y42.6480 
G01 X12.0143 Y42.6742 
G01 X12.0395 Y42.6847 
G01 X12.7247 Y42.6847 
G01 X12.8134 Y42.6480 
G01 X12.8813 Y42.5801 
G01 X12.9180 Y42.4914 
G01 X12.9180 Y42.3954 
G01 X12.9024 Y42.3576 
G01 X12.8813 Y42.3067 
G01 X12.8134 Y42.2388 
G01 X12.7969 Y42.2223 
G01 X12.7969 Y41.8620 
G01 X12.7602 Y41.7733 
G01 X12.6923 Y41.7054 
G01 X12.6036 Y41.6687 
G01 X11.9867 Y41.6687 
G01 X11.8420 Y41.6088 
G01 X11.7312 Y41.4980 
G01 X11.6763 Y41.4431 
G01 X11.6085 Y41.3752 
G01 X11.5198 Y41.3385 
G01 X11.0971 Y41.3385 
G01 X10.9855 Y41.2269 
G01 X10.9855 Y39.5451 
G01 X11.0587 Y39.4719 
G01 X11.1266 Y39.4040 
G01 X11.1528 Y39.3406 
G01 X11.1633 Y39.3153 
G01 X11.1633 Y35.8687 
G01 X11.1266 Y35.7800 
G01 X10.9855 Y35.6389 
G01 X10.9855 Y35.5120 
G01 X10.9488 Y35.4233 
G01 X10.8809 Y35.3554 
G01 X10.7922 Y35.3187 
G01 X10.7167 Y35.3187 
G01 X10.5720 Y35.2588 
G01 X10.4612 Y35.1480 
G01 X9.8262 Y34.5130 
G01 X9.7663 Y34.3683 
G01 X9.7663 Y33.8700 
G01 X9.7296 Y33.7813 
G01 X9.0465 Y33.0983 
G01 X8.9787 Y33.0304 
G01 X8.8900 Y32.9937 
G01 X8.3917 Y32.9937 
G01 X8.3742 Y32.9865 
G01 X8.3439 Y32.9739 
G01 X7.8411 Y32.9739 
G01 X7.8246 Y32.9574 
G01 X7.7567 Y32.8895 
G01 X7.7037 Y32.8675 
G01 X7.6680 Y32.8528 
G01 X7.5720 Y32.8528 
G01 X7.4833 Y32.8895 
G01 X7.3989 Y32.9739 
G01 X6.1411 Y32.9739 
G01 X6.0842 Y32.9170 
G01 X5.9955 Y32.8803 
G01 X5.6895 Y32.8803 
G01 X5.6008 Y32.9170 
G01 X5.3884 Y33.1295 
G01 X4.7716 Y33.1295 
G01 X4.3355 Y32.6934 
G01 X4.3355 Y32.0766 
G01 X4.7716 Y31.6405 
G01 X5.3884 Y31.6405 
G01 X5.5330 Y31.7851 
G01 X5.6008 Y31.8530 
G01 X5.6895 Y31.8897 
G01 X5.8362 Y31.8897 
G01 X5.9249 Y31.8530 
G01 X5.9928 Y31.7851 
G01 X6.0238 Y31.7102 
G01 X6.0710 Y31.6630 
G01 X6.1389 Y31.5951 
G01 X6.1652 Y31.5317 
G01 X6.1756 Y31.5064 
G01 X6.1756 Y31.4104 
G01 X6.1389 Y31.3217 
G01 X5.6055 Y30.7884 
G01 X5.6055 Y30.1716 
G01 X6.0416 Y29.7355 
G01 X6.6584 Y29.7355 
G01 X7.0945 Y30.1716 
G01 X7.0945 Y30.5280 
G01 X7.1312 Y30.6167 
G01 X7.1991 Y30.6846 
G01 X7.2878 Y30.7213 
G01 X8.3333 Y30.7213 
G01 X8.4780 Y30.7812 
G01 X8.5888 Y30.8920 
G01 X8.6487 Y31.0367 
G01 X8.6487 Y31.3996 
G01 X8.6854 Y31.4883 
G01 X8.7533 Y31.5562 
G01 X8.8420 Y31.5929 
G01 X9.0989 Y31.5929 
G01 X9.2105 Y31.7045 
G01 X9.2105 Y32.0084 
G01 X9.2105 Y32.0565 
G01 X9.2105 Y32.1043 
G01 X9.2282 Y32.1471 
G01 X9.2472 Y32.1930 
G01 X9.2813 Y32.2271 
G01 X9.3151 Y32.2609 
G01 X9.3280 Y32.2662 
G01 X10.3151 Y33.2534 
G01 X10.4938 Y33.4320 
G01 X10.5537 Y33.5767 
G01 X10.5537 Y33.8543 
G01 X10.5648 Y33.8811 
G01 X10.5904 Y33.9430 
G01 X10.6583 Y34.0109 
G01 X10.7470 Y34.0476 
G01 X10.8430 Y34.0476 
G01 X10.8697 Y34.0366 
G01 X10.9317 Y34.0109 
G01 X10.9996 Y33.9430 
G01 X11.0971 Y33.8455 
G01 X12.0169 Y33.8455 
G01 X12.1285 Y33.9571 
G01 X12.1285 Y35.6389 
G01 X12.0553 Y35.7121 
G01 X11.9874 Y35.7800 
G01 X11.9507 Y35.8687 
G01 X11.9507 Y39.3153 
G01 X11.9618 Y39.3421 
G01 X11.9874 Y39.4040 
G01 X12.0553 Y39.4719 
G01 X12.1285 Y39.5451 
G01 X12.1285 Y40.6880 
G01 X12.1652 Y40.7767 
G01 X12.2331 Y40.8446 
G01 X12.3218 Y40.8813 
G01 X12.8281 Y40.8813 
G01 X12.8967 Y40.8529 
G01 X14.0663 Y40.8529 
G01 X14.1779 Y40.9645 
G01 X14.1779 Y42.2223 
G01 X14.1614 Y42.2388 
G01 X14.0935 Y42.3067 
G01 X14.0715 Y42.3597 
G01 X14.0568 Y42.3954 
G01 X14.0568 Y42.4914 
G01 X14.0935 Y42.5801 
G01 X14.1614 Y42.6480 
G01 X14.2501 Y42.6847 
G01 X17.3708 Y42.6847 
G01 X17.4595 Y42.6480 
G01 X17.5274 Y42.5801 
G01 X17.5641 Y42.4914 
G01 X17.5641 Y41.5948 
G01 X17.5274 Y41.5061 
G01 X17.3689 Y41.3476 
G01 X17.3689 Y40.3656 
G01 X17.6182 Y40.1163 
G01 X17.6539 Y40.0301 
G01 X17.6549 Y39.9316 
G01 X17.6182 Y39.8429 
G01 X17.5503 Y39.7750 
G01 X17.3689 Y39.5936 
G01 X17.3689 Y38.6138 
G01 X17.3322 Y38.5251 
G01 X17.2643 Y38.4572 
G01 X17.2191 Y38.4385 
G01 X17.0895 Y38.3089 
G01 X17.0895 Y37.0511 
G01 X17.1420 Y36.9986 
G01 X17.2098 Y36.9308 
G01 X17.2229 Y36.8993 
G01 X17.2466 Y36.8421 
G01 X17.2466 Y36.7935 
G01 X17.2466 Y36.7461 
G01 X17.2364 Y36.7215 
G01 X17.2098 Y36.6574 
G01 X17.1682 Y36.6158 
G01 X17.1498 Y36.5839 
G01 X17.1403 Y36.5484 
G01 X17.1403 Y36.3443 
G01 X17.1657 Y36.3443 
G01 X17.1657 Y36.5527 
G01 X17.1831 Y36.5947 
G01 X17.2153 Y36.6269 
G01 X17.2573 Y36.6443 
G01 X18.3027 Y36.6443 
G01 X18.3447 Y36.6269 
G01 X18.3769 Y36.5947 
G01 X18.3943 Y36.5527 
G01 X18.3943 Y36.3443 
G01 X18.4197 Y36.3443 
G01 X18.4197 Y36.5484 
G01 X18.4102 Y36.5839 
G01 X18.3918 Y36.6158 
G01 X18.3502 Y36.6574 
G01 X18.3233 Y36.7224 
G01 X18.3134 Y36.7461 
G01 X18.3134 Y36.7946 
G01 X18.3134 Y36.8421 
G01 X18.3380 Y36.9014 
G01 X18.3502 Y36.9307 
G01 X18.4705 Y37.0511 
G01 X18.4705 Y38.2802 
G01 X18.5072 Y38.3689 
G01 X18.7499 Y38.6116 
G01 X18.7499 Y39.5936 
G01 X18.5685 Y39.7750 
G01 X18.5006 Y39.8429 
G01 X18.4639 Y39.9316 
G01 X18.4639 Y40.0276 
G01 X18.5006 Y40.1163 
G01 X18.7499 Y40.3656 
G01 X18.7499 Y41.3476 
G01 X18.6593 Y41.4382 
G01 X18.5914 Y41.5061 
G01 X18.5547 Y41.5948 
G01 X18.5547 Y42.4914 
G01 X18.5914 Y42.5801 
G01 X18.6593 Y42.6480 
G01 X18.7480 Y42.6847 
G01 X22.1714 Y42.6847 
G01 X22.2601 Y42.6480 
G01 X22.3280 Y42.5801 
G01 X22.3647 Y42.4914 
G01 X22.3647 Y42.1830 
G01 X22.3536 Y42.1563 
G01 X22.3280 Y42.0944 
G01 X22.2601 Y42.0265 
G01 X22.0956 Y41.8620 
G01 X21.9583 Y41.5306 
G01 X21.9583 Y39.7494 
G01 X22.0956 Y39.4180 
G01 X22.3492 Y39.1644 
G01 X22.6806 Y39.0271 
G01 X23.0394 Y39.0271 
G01 X23.3708 Y39.1644 
G01 X23.6244 Y39.4180 
G01 X23.7617 Y39.7494 
G01 X23.7617 Y41.5306 
G01 X23.6244 Y41.8620 
G01 X23.4599 Y42.0265 
G01 X23.3920 Y42.0944 
G01 X23.3658 Y42.1578 
G01 X23.3553 Y42.1830 
G01 X23.3553 Y42.4914 
G01 X23.3920 Y42.5801 
G01 X23.4599 Y42.6480 
G01 X23.5486 Y42.6847 
G01 X25.0980 Y42.6847 
G01 X25.1358 Y42.6690 
G01 X25.1867 Y42.6480 
G01 X25.2546 Y42.5801 
G01 X25.2913 Y42.4914 
G01 X25.2913 Y42.3954 
G01 X25.2757 Y42.3576 
G01 X25.2546 Y42.3067 
G01 X25.1867 Y42.2388 
G01 X25.0980 Y42.2021 
G01 X24.8892 Y42.1156 
G01 X24.6356 Y41.8620 
G01 X24.4983 Y41.5306 
G01 X24.4983 Y39.7494 
G01 X24.6356 Y39.4180 
G01 X24.8892 Y39.1644 
G01 X24.9017 Y39.1592 
G01 X24.9528 Y39.1081 
G01 X24.9695 Y39.0914 
G01 X24.9938 Y39.0328 
G01 X25.0063 Y39.0027 
G01 X25.0063 Y38.9544 
G01 X25.0063 Y38.9067 
G01 X25.0063 Y37.6800 
G01 X24.9696 Y37.5913 
G01 X24.6387 Y37.2604 
G01 X24.5500 Y37.2237 
G01 X22.1467 Y37.2237 
G01 X22.0020 Y37.1638 
G01 X21.8912 Y37.0530 
G01 X21.8706 Y37.0324 
G01 X21.8234 Y36.9851 
G01 X20.6212 Y35.7830 
G01 X20.5613 Y35.6383 
G01 X20.5613 Y28.7900 
G01 X20.5246 Y28.7013 
G01 X19.3512 Y27.5280 
G01 X19.3413 Y27.5040 
G01 X19.3238 Y27.4617 
G01 X19.2893 Y27.4273 
G01 X19.2559 Y27.3939 
G01 X19.1672 Y27.3571 
G01 X19.1187 Y27.3571 
G01 X19.0712 Y27.3571 
G01 X18.9825 Y27.3939 
G01 X18.9765 Y27.3999 
G01 X17.4332 Y27.3999 
G01 X17.3445 Y27.4366 
G01 X17.2766 Y27.5045 
G01 X17.2399 Y27.5932 
G01 X17.2399 Y29.2580 
G01 X17.2766 Y29.3467 
G01 X17.3445 Y29.4146 
G01 X17.4332 Y29.4513 
G01 X18.4202 Y29.4513 
G01 X18.5089 Y29.4146 
G01 X18.5768 Y29.3467 
G01 X18.6135 Y29.2580 
G01 X18.6135 Y29.1789 
G01 X18.7251 Y29.0673 
G01 X19.8829 Y29.0673 
G01 X19.9945 Y29.1789 
G01 X19.9945 Y30.4367 
G01 X19.9780 Y30.4532 
G01 X19.9101 Y30.5211 
G01 X19.8881 Y30.5741 
G01 X19.8734 Y30.6098 
G01 X19.8734 Y30.7058 
G01 X19.9101 Y30.7945 
G01 X19.9945 Y30.8789 
G01 X19.9945 Y32.1367 
G01 X19.9672 Y32.1640 
G01 X19.9516 Y32.2015 
G01 X19.9304 Y32.2527 
G01 X19.9304 Y32.3487 
G01 X19.9613 Y32.4232 
G01 X19.9672 Y32.4374 
G01 X19.9945 Y32.4648 
G01 X19.9945 Y33.4468 
G01 X19.7367 Y33.7047 
G01 X19.7112 Y33.7242 
G01 X19.7030 Y33.7383 
G01 X19.6916 Y33.7498 
G01 X19.6792 Y33.7795 
G01 X19.6632 Y33.8074 
G01 X19.6610 Y33.8235 
G01 X19.6548 Y33.8385 
G01 X19.6548 Y33.8706 
G01 X19.6506 Y33.9025 
G01 X19.6548 Y33.9182 
G01 X19.6548 Y33.9344 
G01 X19.6671 Y33.9642 
G01 X19.6755 Y33.9953 
G01 X19.6854 Y34.0081 
G01 X19.6916 Y34.0231 
G01 X19.7143 Y34.0459 
G01 X19.7339 Y34.0714 
G01 X19.7480 Y34.0795 
G01 X19.7594 Y34.0910 
G01 X19.7892 Y34.1033 
G01 X19.8319 Y34.1280 
G01 X19.8858 Y34.1819 
G01 X19.9240 Y34.2480 
G01 X19.9437 Y34.3217 
G01 X19.9437 Y34.3455 
G01 X19.9183 Y34.3455 
G01 X19.9183 Y34.3250 
G01 X19.9003 Y34.2578 
G01 X19.8655 Y34.1975 
G01 X19.8163 Y34.1483 
G01 X19.7560 Y34.1135 
G01 X19.6888 Y34.0955 
G01 X18.9192 Y34.0955 
G01 X18.8520 Y34.1135 
G01 X18.7917 Y34.1483 
G01 X18.7425 Y34.1975 
G01 X18.7077 Y34.2578 
G01 X18.6897 Y34.3250 
G01 X18.6897 Y34.3455 
G01 X18.6643 Y34.3455 
G01 X18.6643 Y34.3217 
G01 X18.6840 Y34.2480 
G01 X18.7222 Y34.1819 
G01 X18.7761 Y34.1280 
G01 X18.8188 Y34.1033 
G01 X18.8485 Y34.0910 
G01 X18.8600 Y34.0795 
G01 X18.8741 Y34.0714 
G01 X18.8937 Y34.0459 
G01 X18.9164 Y34.0231 
G01 X18.9226 Y34.0081 
G01 X18.9325 Y33.9953 
G01 X18.9408 Y33.9642 
G01 X18.9532 Y33.9344 
G01 X18.9532 Y33.9182 
G01 X18.9574 Y33.9026 
G01 X18.9532 Y33.8706 
G01 X18.9532 Y33.8385 
G01 X18.9470 Y33.8235 
G01 X18.9448 Y33.8074 
G01 X18.9287 Y33.7795 
G01 X18.9164 Y33.7498 
G01 X18.9050 Y33.7383 
G01 X18.8968 Y33.7242 
G01 X18.8713 Y33.7047 
G01 X18.6135 Y33.4468 
G01 X18.6135 Y32.4814 
G01 X18.5768 Y32.3927 
G01 X18.5089 Y32.3248 
G01 X18.4202 Y32.2881 
G01 X18.1561 Y32.2881 
G01 X18.1561 Y32.2627 
G01 X18.3645 Y32.2627 
G01 X18.4065 Y32.2453 
G01 X18.4387 Y32.2131 
G01 X18.4561 Y32.1711 
G01 X18.4561 Y31.1257 
G01 X18.4387 Y31.0837 
G01 X18.4065 Y31.0515 
G01 X18.3645 Y31.0341 
G01 X18.1561 Y31.0341 
G01 X18.1561 Y31.0087 
G01 X18.4317 Y31.0087 
G01 X18.4695 Y30.9930 
G01 X18.5204 Y30.9720 
G01 X18.5883 Y30.9041 
G01 X18.6300 Y30.8624 
G01 X18.6979 Y30.7945 
G01 X18.7346 Y30.7058 
G01 X18.7346 Y30.6098 
G01 X18.6979 Y30.5211 
G01 X18.6135 Y30.4367 
G01 X18.6135 Y30.4320 
G01 X18.5768 Y30.3433 
G01 X18.5089 Y30.2754 
G01 X18.4202 Y30.2387 
G01 X17.0667 Y30.2387 
G01 X16.9220 Y30.1788 
G01 X16.8096 Y30.0663 
G01 X16.7749 Y30.0317 
G01 X16.7419 Y29.9986 
G01 X16.6976 Y29.9802 
G01 X16.6532 Y29.9618 
G01 X16.6052 Y29.9617 
G01 X16.5572 Y29.9617 
G01 X16.5112 Y29.9807 
G01 X16.4685 Y29.9983 
G01 X16.4337 Y30.0331 
G01 X16.4006 Y30.0661 
G01 X16.3822 Y30.1104 
G01 X16.3637 Y30.1548 
G01 X16.3637 Y30.2028 
G01 X16.3637 Y30.2508 
G01 X16.3637 Y30.7646 
G01 X16.4004 Y30.8533 
G01 X16.4683 Y30.9212 
G01 X16.5570 Y30.9579 
G01 X16.7207 Y30.9579 
G01 X16.7732 Y31.0103 
G01 X16.8410 Y31.0782 
G01 X16.9045 Y31.1045 
G01 X16.9297 Y31.1150 
G01 X17.0257 Y31.1150 
G01 X17.1144 Y31.0782 
G01 X17.1560 Y31.0366 
G01 X17.1879 Y31.0182 
G01 X17.2234 Y31.0087 
G01 X17.4275 Y31.0087 
G01 X17.4275 Y31.0341 
G01 X17.2191 Y31.0341 
G01 X17.1771 Y31.0515 
G01 X17.1449 Y31.0837 
G01 X17.1275 Y31.1257 
G01 X17.1275 Y32.1711 
G01 X17.1449 Y32.2131 
G01 X17.1771 Y32.2453 
G01 X17.2191 Y32.2627 
G01 X17.4275 Y32.2627 
G01 X17.4275 Y32.2881 
G01 X17.2234 Y32.2881 
G01 X17.1879 Y32.2786 
G01 X17.1560 Y32.2602 
G01 X17.1144 Y32.2186 
G01 X17.0257 Y32.1818 
G01 X16.9297 Y32.1818 
G01 X16.8410 Y32.2186 
G01 X16.7578 Y32.3018 
G01 X16.6899 Y32.3697 
G01 X16.6531 Y32.4584 
G01 X16.6531 Y32.5544 
G01 X16.6899 Y32.6431 
G01 X16.8527 Y32.8059 
G01 X16.9205 Y32.8738 
G01 X17.0092 Y32.9105 
G01 X17.4534 Y32.9105 
G01 X17.8895 Y33.3466 
G01 X17.8895 Y33.9634 
G01 X17.4534 Y34.3995 
G01 X16.8366 Y34.3995 
G01 X16.4005 Y33.9634 
G01 X16.4005 Y33.5192 
G01 X16.3638 Y33.4305 
G01 X15.7580 Y32.8248 
G01 X15.6981 Y32.6801 
G01 X15.6981 Y32.5322 
G01 X15.6614 Y32.4435 
G01 X15.5935 Y32.3756 
G01 X15.5048 Y32.3389 
G01 X15.4629 Y32.3389 
G01 X15.3513 Y32.2273 
G01 X15.3513 Y31.0695 
G01 X15.4717 Y30.9491 
G01 X15.5396 Y30.8812 
G01 X15.5658 Y30.8178 
G01 X15.5763 Y30.7925 
G01 X15.5763 Y29.4414 
G01 X15.5396 Y29.3527 
G01 X15.4717 Y29.2848 
G01 X15.3830 Y29.2481 
G01 X14.9570 Y29.2481 
G01 X14.8683 Y29.2848 
G01 X14.8004 Y29.3527 
G01 X14.7637 Y29.4414 
G01 X14.7637 Y31.5415 
G01 X14.7855 Y31.5942 
G01 X14.8004 Y31.6302 
G01 X14.8239 Y31.6537 
G01 X14.8239 Y32.8115 
G01 X14.7123 Y32.9231 
G01 X13.4545 Y32.9231 
G01 X13.4020 Y32.8707 
G01 X13.3342 Y32.8028 
G01 X13.2707 Y32.7765 
G01 X13.2455 Y32.7660 
G01 X13.1495 Y32.7660 
G01 X13.0608 Y32.8028 
G01 X13.0192 Y32.8444 
G01 X12.9873 Y32.8628 
G01 X12.9518 Y32.8723 
G01 X12.7477 Y32.8723 
G01 X12.7477 Y32.8469 
G01 X12.9561 Y32.8469 
G01 X12.9981 Y32.8295 
G01 X13.0303 Y32.7973 
G01 X13.0477 Y32.7553 
G01 X13.0477 Y31.7099 
G01 X13.0303 Y31.6679 
G01 X12.9981 Y31.6357 
G01 X12.9561 Y31.6183 
G01 X12.7477 Y31.6183 
G01 X12.7477 Y31.5929 
G01 X12.9518 Y31.5929 
G01 X12.9873 Y31.6024 
G01 X13.0192 Y31.6208 
G01 X13.0608 Y31.6624 
G01 X13.1495 Y31.6992 
G01 X13.2455 Y31.6992 
G01 X13.2722 Y31.6881 
G01 X13.3342 Y31.6624 
G01 X13.4020 Y31.5946 
G01 X13.4545 Y31.5421 
G01 X13.7830 Y31.5421 
G01 X13.8717 Y31.5054 
G01 X13.9396 Y31.4375 
G01 X13.9763 Y31.3488 
G01 X13.9763 Y29.3906 
G01 X13.9396 Y29.3019 
G01 X13.8717 Y29.2340 
G01 X13.8240 Y29.2143 
G01 X13.8240 Y29.1719 
G01 X13.8721 Y29.1719 
G01 X13.9141 Y29.1545 
G01 X13.9463 Y29.1223 
G01 X13.9637 Y29.0803 
G01 X13.9637 Y27.7649 
G01 X13.9463 Y27.7229 
G01 X13.9141 Y27.6907 
G01 X13.8721 Y27.6733 
G01 X13.8240 Y27.6733 
G01 X13.8240 Y27.6479 
G01 X13.9089 Y27.6479 
G01 X13.9462 Y27.6325 
G01 X13.9976 Y27.6112 
G01 X14.0117 Y27.5971 
G01 X15.3830 Y27.5971 
G01 X15.4717 Y27.5604 
G01 X15.5396 Y27.4925 
G01 X15.5763 Y27.4038 
G01 X15.5763 Y26.3450 
G01 X15.5396 Y26.2563 
G01 X13.8149 Y24.5316 
G01 X13.6362 Y24.3530 
G01 X13.5763 Y24.2083 
G01 X13.5763 Y21.8050 
G01 X13.5396 Y21.7163 
G01 X13.4717 Y21.6485 
G01 X13.2362 Y21.4130 
G01 X13.1763 Y21.2683 
G01 X13.1763 Y20.8054 
G01 X13.1396 Y20.7167 
G01 X13.0717 Y20.6488 
G01 X13.0240 Y20.6291 
G01 X13.0240 Y20.5867 
G01 X13.0721 Y20.5867 
G01 X13.1141 Y20.5693 
G01 X13.1463 Y20.5371 
G01 X13.1637 Y20.4951 
G01 X13.1637 Y19.1797 
G01 X13.1463 Y19.1377 
G01 X13.1141 Y19.1055 
G01 X13.0721 Y19.0881 
G01 X13.0240 Y19.0881 
G01 X13.0240 Y19.0536 
G01 X13.0907 Y19.0260 
G01 X13.1586 Y18.9581 
G01 X13.1953 Y18.8694 
G01 X13.1953 Y16.8127 
G01 X13.2552 Y16.6680 
G01 X13.5684 Y16.3549 
G01 X13.7470 Y16.1762 
G01 X13.8917 Y16.1163 
G01 X13.9752 Y16.1163 
G01 X14.0639 Y16.0796 
G01 X14.1318 Y16.0117 
G01 X14.1359 Y16.0017 
G01 X14.2209 Y15.9166 
G01 X14.2888 Y15.8488 
G01 X14.3151 Y15.7853 
G01 X14.3256 Y15.7601 
G01 X14.3256 Y15.6641 
G01 X14.2888 Y15.5754 
G01 X14.2472 Y15.5338 
G01 X14.2288 Y15.5019 
G01 X14.2193 Y15.4664 
G01 X14.2193 Y15.2623 
G01 X14.2447 Y15.2623 
G01 X14.2447 Y15.4707 
G01 X14.2621 Y15.5127 
G01 X14.2943 Y15.5449 
G01 X14.3363 Y15.5623 
G01 X15.3817 Y15.5623 
G01 X15.4237 Y15.5449 
G01 X15.4559 Y15.5127 
G01 X15.4733 Y15.4707 
G01 X15.4733 Y15.2623 
G01 X15.4987 Y15.2623 
G01 X15.4987 Y15.4664 
G01 X15.4892 Y15.5019 
G01 X15.4708 Y15.5338 
G01 X15.4292 Y15.5754 
G01 X15.4023 Y15.6404 
G01 X15.3924 Y15.6641 
G01 X15.3924 Y15.7126 
G01 X15.3924 Y15.7601 
G01 X15.4170 Y15.8194 
G01 X15.4292 Y15.8487 
G01 X15.5495 Y15.9691 
G01 X15.5495 Y17.2269 
G01 X15.4379 Y17.3385 
G01 X14.1760 Y17.3385 
G01 X14.0873 Y17.3752 
G01 X14.0194 Y17.4431 
G01 X13.9827 Y17.5318 
G01 X13.9827 Y18.8694 
G01 X14.0045 Y18.9221 
G01 X14.0194 Y18.9581 
G01 X14.0873 Y19.0260 
G01 X14.1036 Y19.0327 
G01 X14.1160 Y19.0378 
G01 X14.1160 Y19.0881 
G01 X14.0679 Y19.0881 
G01 X14.0259 Y19.1055 
G01 X13.9937 Y19.1377 
G01 X13.9763 Y19.1797 
G01 X13.9763 Y20.4951 
G01 X13.9937 Y20.5371 
G01 X14.0259 Y20.5693 
G01 X14.0679 Y20.5867 
G01 X14.1160 Y20.5867 
G01 X14.1160 Y20.6291 
G01 X14.0683 Y20.6488 
G01 X14.0004 Y20.7167 
G01 X13.9637 Y20.8054 
G01 X13.9637 Y20.9750 
G01 X14.0004 Y21.0637 
G01 X14.0285 Y21.0917 
G01 X14.0963 Y21.1596 
G01 X14.1850 Y21.1963 
G01 X14.3900 Y21.1963 
G01 X14.4787 Y21.1596 
G01 X14.6481 Y20.9901 
G01 X14.6849 Y20.9014 
G01 X14.6849 Y20.8054 
G01 X14.6481 Y20.7167 
G01 X14.6240 Y20.6926 
G01 X14.6240 Y20.5867 
G01 X14.6721 Y20.5867 
G01 X14.7141 Y20.5693 
G01 X14.7463 Y20.5371 
G01 X14.7637 Y20.4951 
G01 X14.7637 Y19.1797 
G01 X14.7463 Y19.1377 
G01 X14.7141 Y19.1055 
G01 X14.6721 Y19.0881 
G01 X14.6240 Y19.0881 
G01 X14.6240 Y19.0627 
G01 X14.7089 Y19.0627 
G01 X14.7976 Y19.0260 
G01 X14.8117 Y19.0119 
G01 X15.3514 Y19.0119 
G01 X15.3775 Y19.0011 
G01 X15.4401 Y18.9752 
G01 X15.5080 Y18.9073 
G01 X15.5412 Y18.8270 
G01 X15.6520 Y18.7162 
G01 X16.1071 Y18.2611 
G01 X16.1750 Y18.1933 
G01 X16.2117 Y18.1046 
G01 X16.2117 Y17.8046 
G01 X16.1946 Y17.7632 
G01 X16.1899 Y17.7519 
G01 X16.1899 Y16.1316 
G01 X16.2512 Y15.9837 
G01 X16.2879 Y15.8951 
G01 X16.2879 Y15.7943 
G01 X16.4739 Y15.6083 
G01 X16.7369 Y15.6083 
G01 X16.9229 Y15.7943 
G01 X16.9229 Y15.8951 
G01 X16.9526 Y15.9667 
G01 X16.9916 Y16.0609 
G01 X16.9999 Y16.0809 
G01 X17.0283 Y16.1496 
G01 X17.0962 Y16.2175 
G01 X17.1487 Y16.2392 
G01 X17.1849 Y16.2542 
G01 X17.2809 Y16.2542 
G01 X17.3181 Y16.2388 
G01 X17.3696 Y16.2175 
G01 X17.4375 Y16.1496 
G01 X17.4642 Y16.0849 
G01 X17.4742 Y16.0609 
G01 X17.4822 Y16.0415 
G01 X17.5221 Y15.9818 
G01 X17.5641 Y15.9398 
G01 X17.5641 Y15.9758 
G01 X17.5339 Y16.0060 
G01 X17.4892 Y16.0833 
G01 X17.4661 Y16.1696 
G01 X17.4661 Y17.7140 
G01 X17.4892 Y17.8003 
G01 X17.5339 Y17.8776 
G01 X17.5641 Y17.9078 
G01 X17.5641 Y17.9437 
G01 X17.5221 Y17.9018 
G01 X17.4822 Y17.8421 
G01 X17.4450 Y17.7521 
G01 X17.3771 Y17.6842 
G01 X17.3029 Y17.6535 
G01 X17.2884 Y17.6475 
G01 X17.2399 Y17.6475 
G01 X17.1924 Y17.6475 
G01 X17.1037 Y17.6842 
G01 X17.0358 Y17.7521 
G01 X17.0051 Y17.8263 
G01 X16.9991 Y17.8408 
G01 X16.9991 Y17.8893 
G01 X16.9991 Y17.9368 
G01 X16.9991 Y18.3979 
G01 X16.9392 Y18.5426 
G01 X16.9157 Y18.5660 
G01 X16.8479 Y18.6339 
G01 X16.8259 Y18.6869 
G01 X16.8111 Y18.7226 
G01 X16.8111 Y18.8186 
G01 X16.8479 Y18.9073 
G01 X16.9157 Y18.9752 
G01 X16.9687 Y18.9971 
G01 X17.0044 Y19.0119 
G01 X17.1283 Y19.0119 
G01 X17.2399 Y19.1235 
G01 X17.2399 Y19.2504 
G01 X17.2766 Y19.3391 
G01 X17.3445 Y19.4070 
G01 X17.4332 Y19.4437 
G01 X18.4630 Y19.4437 
G01 X18.5517 Y19.4070 
G01 X18.6196 Y19.3391 
G01 X18.6563 Y19.2504 
G01 X18.6563 Y18.1438 
G01 X18.6402 Y18.1048 
G01 X18.6196 Y18.0551 
G01 X18.6117 Y18.0361 
G01 X18.6117 Y17.9368 
G01 X18.6117 Y17.8883 
G01 X18.6117 Y17.8408 
G01 X18.6051 Y17.8248 
G01 X18.5750 Y17.7521 
G01 X18.5071 Y17.6842 
G01 X18.4184 Y17.6475 
G01 X18.3699 Y17.6475 
G01 X18.3224 Y17.6475 
G01 X18.3064 Y17.6541 
G01 X18.2337 Y17.6842 
G01 X18.1658 Y17.7521 
G01 X18.1291 Y17.8408 
G01 X18.0887 Y17.9018 
G01 X18.0467 Y17.9438 
G01 X18.0467 Y17.9078 
G01 X18.0769 Y17.8776 
G01 X18.1216 Y17.8003 
G01 X18.1447 Y17.7140 
G01 X18.1447 Y16.1696 
G01 X18.1216 Y16.0833 
G01 X18.0769 Y16.0060 
G01 X18.0467 Y15.9758 
G01 X18.0467 Y15.9398 
G01 X18.0887 Y15.9818 
G01 X18.1286 Y16.0415 
G01 X18.1366 Y16.0609 
G01 X18.1471 Y16.0862 
G01 X18.1733 Y16.1496 
G01 X18.2412 Y16.2175 
G01 X18.2937 Y16.2392 
G01 X18.3299 Y16.2542 
G01 X18.4259 Y16.2542 
G01 X18.4632 Y16.2388 
G01 X18.5146 Y16.2175 
G01 X18.5825 Y16.1496 
G01 X18.6115 Y16.0795 
G01 X18.6192 Y16.0609 
G01 X18.6565 Y15.9709 
G01 X18.6879 Y15.8951 
G01 X18.6879 Y15.7943 
G01 X18.8739 Y15.6083 
G01 X19.1369 Y15.6083 
G01 X19.3229 Y15.7943 
G01 X19.3229 Y15.8951 
G01 X19.3596 Y15.9837 
G01 X19.4209 Y16.1316 
G01 X19.4209 Y17.7519 
G01 X19.4165 Y17.7625 
G01 X19.4165 Y17.8107 
G01 X19.4165 Y17.8585 
G01 X19.4367 Y17.9071 
G01 X19.4437 Y17.9241 
G01 X19.4437 Y19.7633 
G01 X19.3838 Y19.9080 
G01 X19.2730 Y20.0188 
G01 X19.1206 Y20.1712 
G01 X18.9759 Y20.2311 
G01 X17.4332 Y20.2311 
G01 X17.3445 Y20.2678 
G01 X17.2766 Y20.3357 
G01 X17.2399 Y20.4244 
G01 X17.2399 Y20.6668 
G01 X17.2766 Y20.7555 
G01 X17.3445 Y20.8234 
G01 X17.4332 Y20.8601 
G01 X18.9765 Y20.8601 
G01 X19.0160 Y20.8996 
G01 X19.1047 Y20.9363 
G01 X19.7300 Y20.9363 
G01 X19.8187 Y20.8996 
G01 X19.9184 Y20.7999 
G01 X20.0970 Y20.6212 
G01 X20.2417 Y20.5613 
G01 X37.5433 Y20.5613 
G01 X37.6880 Y20.6212 
G01 X38.2551 Y21.1884 
G01 X38.4338 Y21.3670 
G01 X38.4937 Y21.5117 
G01 X38.4937 Y22.3967 
G01 X38.4937 Y22.4449 
G01 X38.4937 Y22.4926 
G01 X38.5064 Y22.5234 
G01 X38.5304 Y22.5813 
G01 X38.5477 Y22.5986 
G01 X38.5983 Y22.6492 
G01 X38.6108 Y22.6544 
G01 X38.8644 Y22.9080 
G01 X39.0017 Y23.2394 
G01 X39.0017 Y25.0206 
G01 X38.8644 Y25.3520 
G01 X38.6108 Y25.6056 
G01 X38.2794 Y25.7429 
G01 X37.9206 Y25.7429 
G01 X37.5892 Y25.6056 
G01 X37.3356 Y25.3520 
G01 X37.1983 Y25.0206 
G01 X37.1983 Y23.2394 
G01 X37.3356 Y22.9080 
G01 X37.5892 Y22.6544 
G01 X37.6017 Y22.6492 
G01 X37.6528 Y22.5981 
G01 X37.6695 Y22.5814 
G01 X37.6938 Y22.5228 
G01 X37.7063 Y22.4927 
G01 X37.7063 Y22.4444 
G01 X37.7063 Y22.3967 
G01 X37.7063 Y21.8050 
G01 X37.6696 Y21.7163 
G01 X37.4065 Y21.4533 
G01 X37.3387 Y21.3854 
G01 X37.2500 Y21.3487 
G01 X25.0736 Y21.3487 
G01 X25.0254 Y21.3487 
G01 X24.9776 Y21.3487 
G01 X24.9334 Y21.3670 
G01 X24.8890 Y21.3854 
G01 X24.8577 Y21.4167 
G01 X24.8211 Y21.4533 
G01 X24.8040 Y21.4945 
G01 X24.7843 Y21.5420 
G01 X24.7843 Y21.5902 
G01 X24.7843 Y21.6380 
G01 X24.8027 Y21.6823 
G01 X24.8211 Y21.7267 
G01 X24.8523 Y21.7579 
G01 X24.8890 Y21.7946 
G01 X24.8931 Y21.7963 
G01 X25.5704 Y22.4736 
G01 X25.5766 Y22.4798 
G01 X25.6383 Y22.5415 
G01 X25.7270 Y22.5782 
G01 X25.9108 Y22.6544 
G01 X26.1644 Y22.9080 
G01 X26.3017 Y23.2394 
G01 X26.3017 Y25.0206 
G01 X26.2011 Y25.2633 
G01 X26.1644 Y25.3520 
G01 X26.1644 Y25.4480 
G01 X26.2011 Y25.5367 
G01 X26.2690 Y25.6046 
G01 X26.3577 Y25.6413 
G01 X26.9823 Y25.6413 
G01 X27.0710 Y25.6046 
G01 X27.1389 Y25.5367 
G01 X27.1745 Y25.4505 
G01 X27.1756 Y25.3520 
G01 X27.1389 Y25.2633 
G01 X27.0383 Y25.0206 
G01 X27.0383 Y23.2394 
G01 X27.1756 Y22.9080 
G01 X27.4292 Y22.6544 
G01 X27.7606 Y22.5171 
G01 X28.1194 Y22.5171 
G01 X28.4508 Y22.6544 
G01 X28.7044 Y22.9080 
G01 X28.8417 Y23.2394 
G01 X28.8417 Y25.0206 
G01 X28.7411 Y25.2633 
G01 X28.7044 Y25.3520 
G01 X28.7044 Y25.4480 
G01 X28.7411 Y25.5367 
G01 X28.8090 Y25.6046 
G01 X28.8977 Y25.6413 
G01 X29.5007 Y25.6413 
G01 X29.5100 Y25.6443 
G01 X29.5484 Y25.6413 
G01 X29.5869 Y25.6413 
G01 X29.5960 Y25.6376 
G01 X29.6057 Y25.6368 
G01 X29.6400 Y25.6193 
G01 X29.6756 Y25.6046 
G01 X29.6825 Y25.5976 
G01 X29.6912 Y25.5932 
G01 X29.7162 Y25.5639 
G01 X29.7435 Y25.5367 
G01 X29.7472 Y25.5276 
G01 X29.7536 Y25.5202 
G01 X29.7655 Y25.4836 
G01 X29.7802 Y25.4480 
G01 X29.7802 Y25.4382 
G01 X29.7832 Y25.4289 
G01 X29.7802 Y25.3905 
G01 X29.7802 Y25.3520 
G01 X29.7765 Y25.3430 
G01 X29.7757 Y25.3332 
G01 X29.7582 Y25.2989 
G01 X29.7435 Y25.2633 
G01 X29.7366 Y25.2564 
G01 X29.6914 Y25.1678 
G01 X29.6500 Y25.0404 
G01 X29.6291 Y24.9082 
G01 X29.6291 Y24.4475 
G01 X29.6545 Y24.4475 
G01 X29.6545 Y24.9225 
G01 X29.6862 Y25.0820 
G01 X29.7484 Y25.2322 
G01 X29.8388 Y25.3674 
G01 X29.9538 Y25.4824 
G01 X30.0890 Y25.5727 
G01 X30.2392 Y25.6350 
G01 X30.3987 Y25.6667 
G01 X30.5613 Y25.6667 
G01 X30.7208 Y25.6350 
G01 X30.8710 Y25.5727 
G01 X31.0062 Y25.4824 
G01 X31.1212 Y25.3674 
G01 X31.2115 Y25.2322 
G01 X31.2738 Y25.0820 
G01 X31.3055 Y24.9225 
G01 X31.3055 Y24.4475 
G01 X31.3309 Y24.4475 
G01 X31.3309 Y24.9082 
G01 X31.3099 Y25.0404 
G01 X31.2686 Y25.1678 
G01 X31.2234 Y25.2564 
G01 X31.2165 Y25.2633 
G01 X31.2018 Y25.2989 
G01 X31.1843 Y25.3332 
G01 X31.1835 Y25.3430 
G01 X31.1798 Y25.3520 
G01 X31.1798 Y25.3905 
G01 X31.1768 Y25.4289 
G01 X31.1798 Y25.4382 
G01 X31.1798 Y25.4480 
G01 X31.1945 Y25.4836 
G01 X31.2064 Y25.5202 
G01 X31.2128 Y25.5276 
G01 X31.2165 Y25.5367 
G01 X31.2438 Y25.5639 
G01 X31.2688 Y25.5932 
G01 X31.2775 Y25.5976 
G01 X31.2844 Y25.6046 
G01 X31.3200 Y25.6193 
G01 X31.3543 Y25.6368 
G01 X31.3640 Y25.6376 
G01 X31.3731 Y25.6413 
G01 X31.4116 Y25.6413 
G01 X31.4500 Y25.6443 
G01 X31.4593 Y25.6413 
G01 X32.0623 Y25.6413 
G01 X32.1510 Y25.6046 
G01 X32.2189 Y25.5367 
G01 X32.2556 Y25.4480 
G01 X32.2556 Y25.3520 
G01 X32.2537 Y25.3475 
G01 X32.2189 Y25.2633 
G01 X32.1183 Y25.0206 
G01 X32.1183 Y23.2394 
G01 X32.2556 Y22.9080 
G01 X32.5092 Y22.6544 
G01 X32.8406 Y22.5171 
G01 X33.1994 Y22.5171 
G01 X33.5308 Y22.6544 
G01 X33.7844 Y22.9080 
G01 X33.9217 Y23.2394 
G01 X33.9217 Y25.0206 
G01 X33.8211 Y25.2633 
G01 X33.7844 Y25.3520 
G01 X33.7844 Y25.4480 
G01 X33.8211 Y25.5367 
G01 X33.8890 Y25.6046 
G01 X33.9777 Y25.6413 
G01 X34.6023 Y25.6413 
G01 X34.6910 Y25.6046 
G01 X34.7589 Y25.5367 
G01 X34.7956 Y25.4480 
G01 X34.7956 Y25.3520 
G01 X34.7937 Y25.3475 
G01 X34.7589 Y25.2633 
G01 X34.6583 Y25.0206 
G01 X34.6583 Y23.2394 
G01 X34.7956 Y22.9080 
G01 X35.0492 Y22.6544 
G01 X35.3806 Y22.5171 
G01 X35.7394 Y22.5171 
G01 X36.0708 Y22.6544 
G01 X36.3244 Y22.9080 
G01 X36.4617 Y23.2394 
G01 X36.4617 Y25.0206 
G01 X36.3244 Y25.3520 
G01 X36.0836 Y25.5927 
G01 X36.0158 Y25.6606 
G01 X35.9790 Y25.7493 
G01 X35.9790 Y25.8453 
G01 X36.0158 Y25.9340 
G01 X38.2551 Y28.1734 
G01 X38.4338 Y28.3520 
G01 X38.4937 Y28.4967 
G01 X38.4937 Y31.2867 
G01 X38.4937 Y31.3349 
G01 X38.4937 Y31.3826 
G01 X38.5064 Y31.4134 
G01 X38.5304 Y31.4713 
G01 X38.5477 Y31.4886 
G01 X38.5983 Y31.5392 
G01 X38.6108 Y31.5444 
G01 X38.8644 Y31.7980 
G01 X39.0017 Y32.1294 
G01 X39.0017 Y33.9106 
G01 X38.8644 Y34.2420 
G01 X38.6108 Y34.4956 
G01 X38.2794 Y34.6329 
G01 X37.9206 Y34.6329 
G01 X37.5892 Y34.4956 
G01 X37.3356 Y34.2420 
G01 X37.1983 Y33.9106 
G01 X37.1983 Y32.1294 
G01 X37.3356 Y31.7980 
G01 X37.5892 Y31.5444 
G01 X37.6017 Y31.5392 
G01 X37.6434 Y31.4975 
G01 X37.6695 Y31.4714 
G01 X37.6897 Y31.4227 
G01 X37.7063 Y31.3827 
G01 X37.7063 Y31.3438 
G01 X37.7063 Y31.2867 
G01 X37.7063 Y28.7900 
G01 X37.6696 Y28.7013 
G01 X35.5015 Y26.5333 
G01 X35.4337 Y26.4654 
G01 X35.3450 Y26.4287 
G01 X22.4400 Y26.4287 
G01 X22.3513 Y26.4654 
G01 X22.2835 Y26.5333 
G01 X22.2467 Y26.6220 
G01 X22.2467 Y26.7180 
G01 X22.2835 Y26.8067 
G01 X22.2943 Y26.8175 
G01 X22.3513 Y26.8746 
G01 X22.9185 Y27.4417 
G01 X22.9863 Y27.5096 
G01 X23.0750 Y27.5463 
G01 X24.8433 Y27.5463 
G01 X24.9880 Y27.6062 
G01 X25.5551 Y28.1734 
G01 X25.7338 Y28.3520 
G01 X25.7937 Y28.4967 
G01 X25.7937 Y31.2867 
G01 X25.7937 Y31.3349 
G01 X25.7937 Y31.3826 
G01 X25.8064 Y31.4134 
G01 X25.8304 Y31.4713 
G01 X25.8477 Y31.4886 
G01 X25.8983 Y31.5392 
G01 X25.9108 Y31.5444 
G01 X26.1644 Y31.7980 
G01 X26.3017 Y32.1294 
G01 X26.3017 Y33.9106 
G01 X26.1644 Y34.2420 
G01 X25.9108 Y34.4956 
G01 X25.5794 Y34.6329 
G01 X25.2206 Y34.6329 
G01 X24.8892 Y34.4956 
G01 X24.6356 Y34.2420 
G01 X24.4983 Y33.9106 
G01 X24.4983 Y32.1294 
G01 X24.6356 Y31.7980 
G01 X24.8892 Y31.5444 
G01 X24.9017 Y31.5392 
G01 X24.9528 Y31.4881 
G01 X24.9695 Y31.4714 
G01 X24.9938 Y31.4128 
G01 X25.0063 Y31.3827 
G01 X25.0063 Y31.3344 
G01 X25.0063 Y31.2867 
G01 X25.0063 Y28.7900 
G01 X24.9696 Y28.7013 
G01 X24.7065 Y28.4383 
G01 X24.6387 Y28.3704 
G01 X24.5500 Y28.3337 
G01 X22.7817 Y28.3337 
G01 X22.6370 Y28.2738 
G01 X22.4584 Y28.0951 
G01 X22.4296 Y28.0663 
G01 X22.3617 Y27.9985 
G01 X22.3087 Y27.9765 
G01 X22.2730 Y27.9617 
G01 X22.1770 Y27.9617 
G01 X22.0883 Y27.9985 
G01 X22.0204 Y28.0663 
G01 X21.9985 Y28.1193 
G01 X21.9837 Y28.1550 
G01 X21.9837 Y31.3827 
G01 X22.0204 Y31.4713 
G01 X22.0883 Y31.5392 
G01 X22.1770 Y31.5759 
G01 X22.2730 Y31.5759 
G01 X22.2756 Y31.5749 
G01 X22.3617 Y31.5392 
G01 X22.6806 Y31.4071 
G01 X23.0394 Y31.4071 
G01 X23.3708 Y31.5444 
G01 X23.6244 Y31.7980 
G01 X23.7617 Y32.1294 
G01 X23.7617 Y33.9106 
G01 X23.6244 Y34.2420 
G01 X23.3708 Y34.4956 
G01 X23.0394 Y34.6329 
G01 X22.6806 Y34.6329 
G01 X22.3470 Y34.4947 
G01 X22.2510 Y34.4947 
G01 X22.2243 Y34.5058 
G01 X22.1623 Y34.5314 
G01 X22.0945 Y34.5993 
G01 X22.0577 Y34.6880 
G01 X22.0577 Y34.7840 
G01 X22.0688 Y34.8107 
G01 X22.0945 Y34.8727 
G01 X22.1623 Y34.9406 
G01 X22.2835 Y35.0617 
G01 X22.3513 Y35.1296 
G01 X22.4400 Y35.1663 
G01 X35.6383 Y35.1663 
G01 X35.7830 Y35.2262 
G01 X38.2551 Y37.6984 
G01 X38.4338 Y37.8770 
G01 X38.4937 Y38.0217 
G01 X38.4937 Y38.9067 
G01 X38.4937 Y38.9549 
G01 X38.4937 Y39.0026 
G01 X38.5064 Y39.0334 
G01 X38.5304 Y39.0913 
G01 X38.5477 Y39.1086 
G01 X38.5983 Y39.1592 
G01 X38.6108 Y39.1644 
G01 X38.8644 Y39.4180 
G01 X39.0017 Y39.7494 
G01 X39.0017 Y41.5306 
G01 X38.8644 Y41.8620 
G01 X38.6108 Y42.1156 
G01 X38.4020 Y42.2021 
G01 X38.3133 Y42.2388 
G01 X38.2454 Y42.3067 
G01 X38.2235 Y42.3597 
G01 X38.2087 Y42.3954 
G01 X38.2087 Y42.4914 
G01 X38.2454 Y42.5801 
G01 X38.3133 Y42.6480 
G01 X38.3663 Y42.6699 
G01 X38.4020 Y42.6847 
G01 X39.7479 Y42.6847 
G01 X39.8366 Y42.6480 
G01 X40.1080 Y42.3766 
G01 X40.1447 Y42.2879 
G01 X40.1447 Y42.1830 
G01 X40.1336 Y42.1563 
G01 X40.1080 Y42.0944 
G01 X40.0401 Y42.0265 
G01 X39.8756 Y41.8620 
G01 X39.7383 Y41.5306 
G01 X39.7383 Y39.7494 
G01 X39.8756 Y39.4180 
G01 X40.0401 Y39.2535 
G01 X40.1080 Y39.1856 
G01 X40.1342 Y39.1222 
G01 X40.1447 Y39.0970 
G01 X40.1447 Y34.5630 
G01 X40.1080 Y34.4744 
G01 X39.8756 Y34.2420 
G01 X39.7383 Y33.9106 
G01 X39.7383 Y32.1294 
G01 X39.8756 Y31.7980 
G01 X40.0401 Y31.6335 
G01 X40.1080 Y31.5656 
G01 X40.1447 Y31.4769 
G01 X40.1447 Y25.6730 
G01 X40.1080 Y25.5844 
G01 X39.8756 Y25.3520 
G01 X39.7383 Y25.0206 
G01 X39.7383 Y23.2394 
G01 X39.8756 Y22.9080 
G01 X40.0401 Y22.7435 
G01 X40.1080 Y22.6756 
G01 X40.1447 Y22.5869 
G01 X40.1447 Y18.0530 
G01 X40.1080 Y17.9644 
G01 X39.8756 Y17.7320 
G01 X39.7383 Y17.4006 
G01 X39.7383 Y15.6194 
G01 X39.8756 Y15.2880 
G01 X40.0401 Y15.1235 
G01 X40.1080 Y15.0556 
G01 X40.1447 Y14.9669 
G01 X40.1447 Y14.8621 
G01 X40.1080 Y14.7734 
G01 X39.9044 Y14.5699 
G01 X39.8366 Y14.5020 
G01 X39.7479 Y14.4653 
G01 X38.4020 Y14.4653 
G01 X38.3753 Y14.4764 
G01 X38.3133 Y14.5020 
G01 X38.2454 Y14.5699 
G01 X38.2087 Y14.6586 
G01 X38.2087 Y14.7546 
G01 X38.2198 Y14.7813 
G01 X38.2454 Y14.8433 
G01 X38.3133 Y14.9112 
G01 X38.4020 Y14.9479 
G01 X38.6108 Y15.0344 
G01 X38.8644 Y15.2880 
G01 X39.0017 Y15.6194 
G01 X39.0017 Y17.4006 
G01 X38.8644 Y17.7320 
G01 X38.6108 Y17.9856 
G01 X38.5983 Y17.9908 
G01 X38.5472 Y18.0419 
G01 X38.5304 Y18.0586 
G01 X38.5062 Y18.1172 
G01 X38.4937 Y18.1473 
G01 X38.4937 Y18.1956 
G01 X38.4937 Y18.2433 
G01 X38.4937 Y18.4933 
G01 X38.4338 Y18.6380 
G01 X37.8666 Y19.2051 
G01 X37.6880 Y19.3838 
G01 X37.5433 Y19.4437 
G01 X21.5117 Y19.4437 
G01 X21.3670 Y19.3838 
G01 X20.7999 Y18.8166 
G01 X20.6212 Y18.6380 
G01 X20.5613 Y18.4933 
G01 X20.5613 Y14.1850 
G01 X20.5246 Y14.0963 
G01 X20.2615 Y13.8333 
G01 X20.1937 Y13.7654 
G01 X20.1050 Y13.7287 
G01 X15.4521 Y13.7287 
G01 X15.4364 Y13.7245 
G01 X15.4045 Y13.7287 
G01 X15.3723 Y13.7287 
G01 X15.3573 Y13.7349 
G01 X15.3412 Y13.7370 
G01 X15.3134 Y13.7531 
G01 X15.2836 Y13.7654 
G01 X15.2722 Y13.7769 
G01 X15.2581 Y13.7850 
G01 X15.2385 Y13.8106 
G01 X15.2158 Y13.8333 
G01 X15.2096 Y13.8483 
G01 X15.1997 Y13.8612 
G01 X15.1914 Y13.8923 
G01 X15.1790 Y13.9220 
G01 X15.1790 Y13.9382 
G01 X15.1748 Y13.9539 
G01 X15.1790 Y13.9858 
G01 X15.1790 Y14.0180 
G01 X15.1852 Y14.0330 
G01 X15.1874 Y14.0491 
G01 X15.2035 Y14.0769 
G01 X15.2158 Y14.1067 
G01 X15.2272 Y14.1182 
G01 X15.2354 Y14.1322 
G01 X15.2609 Y14.1518 
G01 X15.2836 Y14.1746 
G01 X15.2987 Y14.1808 
G01 X15.3115 Y14.1906 
G01 X15.3426 Y14.1990 
G01 X15.3723 Y14.2113 
G01 X15.3886 Y14.2113 
G01 X15.4129 Y14.2178 
G01 X15.4448 Y14.2362 
G01 X15.4708 Y14.2622 
G01 X15.4892 Y14.2941 
G01 X15.4987 Y14.3296 
G01 X15.4987 Y14.5337 
G01 X15.4733 Y14.5337 
G01 X15.4733 Y14.3253 
G01 X15.4559 Y14.2833 
G01 X15.4237 Y14.2511 
G01 X15.3817 Y14.2337 
G01 X14.3363 Y14.2337 
G01 X14.2943 Y14.2511 
G01 X14.2621 Y14.2833 
G01 X14.2447 Y14.3253 
G01 X14.2447 Y14.5337 
G01 X14.2193 Y14.5337 
G01 X14.2193 Y14.3296 
G01 X14.2288 Y14.2941 
G01 X14.2472 Y14.2622 
G01 X14.2732 Y14.2362 
G01 X14.3051 Y14.2178 
G01 X14.3294 Y14.2113 
G01 X14.3457 Y14.2113 
G01 X14.3754 Y14.1990 
G01 X14.4065 Y14.1906 
G01 X14.4193 Y14.1808 
G01 X14.4343 Y14.1746 
G01 X14.4571 Y14.1518 
G01 X14.4826 Y14.1322 
G01 X14.4907 Y14.1182 
G01 X14.5022 Y14.1067 
G01 X14.5145 Y14.0769 
G01 X14.5306 Y14.0491 
G01 X14.5327 Y14.0330 
G01 X14.5390 Y14.0180 
G01 X14.5390 Y13.9858 
G01 X14.5432 Y13.9539 
G01 X14.5390 Y13.9382 
G01 X14.5390 Y13.9220 
G01 X14.5266 Y13.8923 
G01 X14.5183 Y13.8612 
G01 X14.5084 Y13.8483 
G01 X14.5022 Y13.8333 
G01 X14.4795 Y13.8105 
G01 X14.4599 Y13.7850 
G01 X14.4458 Y13.7769 
G01 X14.4343 Y13.7654 
G01 X14.4046 Y13.7531 
G01 X14.3767 Y13.7370 
G01 X14.3607 Y13.7349 
G01 X14.3457 Y13.7287 
G01 X14.3135 Y13.7287 
G01 X14.2816 Y13.7245 
G01 X14.2659 Y13.7287 
G01 X12.9150 Y13.7287 
G01 X12.8263 Y13.7654 
G01 X12.5633 Y14.0285 
G01 X12.4954 Y14.0963 
G01 X12.4587 Y14.1850 
G01 X12.4587 Y18.7734 
G01 X12.4587 Y18.8219 
G01 X12.4587 Y18.8694 
G01 X12.4689 Y18.8940 
G01 X12.4954 Y18.9581 
G01 X12.5160 Y18.9786 
G01 X12.5160 Y19.0881 
G01 X12.4679 Y19.0881 
G01 X12.4259 Y19.1055 
G01 X12.3937 Y19.1377 
G01 X12.3825 Y19.1647 
G01 X12.3825 Y14.1015 
G01 X12.8315 Y13.6525 
G01 X20.1885 Y13.6525 
G01 X20.6375 Y14.1015 
G01 X20.6375 Y18.4568 
G01 X20.6591 Y18.5375 
G01 X20.7009 Y18.6099 
G01 X20.7600 Y18.6691 
G01 X21.3951 Y19.3041 
G01 X21.4674 Y19.3459 
G01 X21.5482 Y19.3675 
G01 X37.5068 Y19.3675 
G01 X37.5876 Y19.3459 
G01 X37.6599 Y19.3041 
G01 X37.7191 Y19.2449 
G01 X38.3541 Y18.6099 
G01 X38.3959 Y18.5375 
G01 X38.4175 Y18.4568 
G01 X38.4175 Y17.9832 
G01 X38.4910 Y17.9527 
G01 X38.6262 Y17.8624 
G01 X38.7412 Y17.7474 
G01 X38.8315 Y17.6122 
G01 X38.8938 Y17.4620 
G01 X38.9255 Y17.3025 
G01 X38.9255 Y15.7175 
G01 X38.8938 Y15.5580 
G01 X38.8315 Y15.4078 
G01 X38.7412 Y15.2726 
G01 X38.6262 Y15.1576 
G01 X38.4910 Y15.0672 
G01 X38.3408 Y15.0050 
G01 X38.1813 Y14.9733 
G01 X38.0187 Y14.9733 
G01 X37.8592 Y15.0050 
G01 X37.7090 Y15.0672 
G01 X37.5738 Y15.1576 
G01 X37.4588 Y15.2726 
G01 X37.3685 Y15.4078 
G01 X37.3062 Y15.5580 
G01 X37.2745 Y15.7175 
G01 X37.2745 Y17.3025 
G01 X37.3062 Y17.4620 
G01 X37.3685 Y17.6122 
G01 X37.4588 Y17.7474 
G01 X37.5738 Y17.8624 
G01 X37.7090 Y17.9527 
G01 X37.7825 Y17.9832 
G01 X37.7825 Y18.2835 
G01 X37.3335 Y18.7325 
G01 X21.7215 Y18.7325 
G01 X21.2725 Y18.2835 
G01 X21.2725 Y13.9282 
G01 X21.2509 Y13.8474 
G01 X21.2091 Y13.7751 
G01 X20.5741 Y13.1401 
G01 X20.5149 Y13.0809 
G01 X20.4426 Y13.0391 
G01 X20.3618 Y13.0175 
G01 X12.6582 Y13.0175 
G01 X12.5774 Y13.0391 
G01 X12.5051 Y13.0809 
G01 X11.8701 Y13.7159 
G01 X11.8109 Y13.7751 
G01 X11.7691 Y13.8474 
G01 X11.7475 Y13.9282 
G01 X11.7475 Y19.0881 
G01 X11.6679 Y19.0881 
G01 X11.6259 Y19.1055 
G01 X11.5937 Y19.1377 
G01 X11.5763 Y19.1797 
G01 X11.5763 Y20.4951 
G01 X11.5937 Y20.5371 
G01 X11.6259 Y20.5693 
G01 X11.6679 Y20.5867 
G01 X12.2721 Y20.5867 
G01 X12.3141 Y20.5693 
G01 X12.3463 Y20.5371 
G01 X12.3637 Y20.4951 
G01 X12.3637 Y19.8544 
G01 X12.3763 Y19.8073 
G01 X12.3763 Y20.4951 
G01 X12.3937 Y20.5371 
G01 X12.4259 Y20.5693 
G01 X12.4679 Y20.5867 
G01 X12.5160 Y20.5867 
G01 X12.5160 Y20.6121 
G01 X12.4311 Y20.6121 
G01 X12.3424 Y20.6488 
G01 X12.3283 Y20.6629 
G01 X10.7001 Y20.6629 
G01 X10.7001 Y19.1235 
G01 X10.7396 Y19.0840 
G01 X10.7763 Y18.9953 
G01 X10.7763 Y13.5167 
G01 X10.8362 Y13.3720 
G01 X10.9470 Y13.2612 
G01 X11.8420 Y12.3662 
G01 X11.9867 Y12.3063 
G01 X21.0333 Y12.3063 
G01 X21.1780 Y12.3662 
G01 X21.2888 Y12.4770 
G01 X21.9238 Y13.1120 
G01 X21.9837 Y13.2567 
G01 X21.9837 Y14.1652 
G01 X21.9837 Y14.2135 
G01 X21.9837 Y14.2612 
G01 X21.9980 Y14.2957 
G01 X22.0204 Y14.3499 
G01 X22.0478 Y14.3773 
G01 X22.0883 Y14.4178 
G01 X22.1292 Y14.4347 
G01 X22.1770 Y14.4545 
G01 X22.2253 Y14.4545 
G01 X22.2730 Y14.4545 
G01 X22.3074 Y14.4402 
G01 X22.3617 Y14.4178 
G01 X22.3891 Y14.3904 
G01 X22.4296 Y14.3499 
G01 X22.4401 Y14.3244 
G01 X23.0072 Y13.7573 
G01 X23.2144 Y13.5501 
G01 X23.3965 Y13.4747 
G01 X39.7581 Y13.4747 
G01 X39.7817 Y13.4794 
G01 X39.8056 Y13.4747 
G01 X39.8300 Y13.4747 
G01 X39.8522 Y13.4655 
G01 X39.8759 Y13.4608 
G01 X39.8961 Y13.4473 
G01 X39.9187 Y13.4380 
G01 X39.9357 Y13.4209 
G01 X41.2876 Y12.5197 
G01 X41.3101 Y12.5103 
G01 X41.3271 Y12.4933 
G01 X41.3472 Y12.4799 
G01 X41.3607 Y12.4597 
G01 X41.3780 Y12.4425 
G01 X41.3872 Y12.4202 
G01 X41.4006 Y12.4002 
G01 X41.4054 Y12.3763 
G01 X41.4147 Y12.3538 
G01 X41.4147 Y12.3297 
G01 X41.4194 Y12.3060 
G01 X41.4147 Y12.2821 
G01 X41.4147 Y8.8645 
G01 X41.3780 Y8.7758 
G01 X41.1655 Y8.5634 
G01 X41.1655 Y7.9466 
G01 X41.6016 Y7.5105 
G01 X42.2184 Y7.5105 
G01 X42.6545 Y7.9466 
G01 X42.6545 Y8.5634 
G01 X42.5099 Y8.7080 
G01 X42.4420 Y8.7758 
G01 X42.4053 Y8.8645 
G01 X42.4053 Y12.6039 
G01 X42.4006 Y12.6276 
G01 X42.4053 Y12.6515 
G01 X42.4053 Y12.6758 
G01 X42.4145 Y12.6981 
G01 X42.4146 Y12.7024 
G01 X42.4053 Y12.7249 
G01 X42.4053 Y12.7490 
G01 X42.4006 Y12.7727 
G01 X42.4053 Y12.7966 
G01 X42.4044 Y12.8008 
G01 X42.3909 Y12.8208 
G01 X42.3862 Y12.8447 
G01 X42.3768 Y12.8672 
G01 X42.3768 Y12.8913 
G01 X42.3753 Y12.8954 
G01 X42.3580 Y12.9126 
G01 X42.3488 Y12.9348 
G01 X42.3354 Y12.9549 
G01 X42.3306 Y12.9788 
G01 X42.3281 Y12.9823 
G01 X42.3081 Y12.9957 
G01 X42.2945 Y13.0159 
G01 X42.2773 Y13.0331 
G01 X42.2681 Y13.0554 
G01 X42.2651 Y13.0585 
G01 X42.2426 Y13.0679 
G01 X42.2256 Y13.0849 
G01 X42.2055 Y13.0983 
G01 X42.1919 Y13.1185 
G01 X42.1883 Y13.1208 
G01 X42.1646 Y13.1255 
G01 X42.1444 Y13.1390 
G01 X42.1219 Y13.1484 
G01 X42.1048 Y13.1654 
G01 X41.0470 Y13.8706 
G01 X41.0245 Y13.8799 
G01 X41.0075 Y13.8970 
G01 X40.9874 Y13.9103 
G01 X40.9738 Y13.9306 
G01 X40.9566 Y13.9478 
G01 X40.9474 Y13.9701 
G01 X40.9340 Y13.9901 
G01 X40.9292 Y14.0140 
G01 X40.9199 Y14.0365 
G01 X40.9199 Y14.0606 
G01 X40.9152 Y14.0842 
G01 X40.9199 Y14.1081 
G01 X40.9199 Y14.1325 
G01 X40.9291 Y14.1548 
G01 X40.9338 Y14.1784 
G01 X40.9473 Y14.1987 
G01 X40.9566 Y14.2212 
G01 X40.9737 Y14.2382 
G01 X40.9870 Y14.2583 
G01 X41.0073 Y14.2718 
G01 X41.0599 Y14.3244 
G01 X41.1353 Y14.5065 
G01 X41.1353 Y14.9669 
G01 X41.1720 Y15.0556 
G01 X41.4044 Y15.2880 
G01 X41.5417 Y15.6194 
G01 X41.5417 Y17.4006 
G01 X41.4044 Y17.7320 
G01 X41.2399 Y17.8965 
G01 X41.1720 Y17.9644 
G01 X41.1353 Y18.0530 
G01 X41.1353 Y22.5869 
G01 X41.1720 Y22.6756 
G01 X41.4044 Y22.9080 
G01 X41.5417 Y23.2394 
G01 X41.5417 Y25.0206 
G01 X41.4044 Y25.3520 
G01 X41.2399 Y25.5165 
G01 X41.1720 Y25.5844 
G01 X41.1353 Y25.6730 
G01 X41.1353 Y31.4769 
G01 X41.1720 Y31.5656 
G01 X41.4044 Y31.7980 
G01 X41.5417 Y32.1294 
G01 X41.5417 Y33.9106 
G01 X41.4044 Y34.2420 
G01 X41.2399 Y34.4065 
G01 X41.1720 Y34.4744 
G01 X41.1353 Y34.5630 
G01 X41.1353 Y39.0970 
G01 X41.1464 Y39.1237 
G01 X41.1720 Y39.1856 
G01 X41.2399 Y39.2535 
G01 X41.4044 Y39.4180 
G01 X41.5417 Y39.7494 
G01 X41.5417 Y41.5306 
G01 X41.4044 Y41.8620 
G01 X41.2399 Y42.0265 
G01 X41.1720 Y42.0944 
G01 X41.1457 Y42.1578 
G01 X41.1353 Y42.1830 
G01 X41.1353 Y42.6435 
G01 X41.0599 Y42.8256 
G01 X40.9206 Y42.9649 
G01 X40.2856 Y43.5999 
G01 X40.1035 Y43.6753 
G01 X14.3712 Y43.6753 
G01 X14.2825 Y43.7120 
G01 X14.2146 Y43.7799 
G01 X14.1779 Y43.8686 
G01 X14.1779 Y43.9646 
G01 X14.2146 Y44.0533 
G01 X14.2825 Y44.1212 
G01 X14.3712 Y44.1579 
G01 X44.1889 Y44.1579 
G01 X44.2149 Y44.1626 
G01 X44.2365 Y44.1579 
G01 X44.2585 Y44.1579 
G01 X44.2829 Y44.1478 
G01 X44.3087 Y44.1422 
G01 X44.3268 Y44.1296 
G01 X44.3472 Y44.1212 
G01 X44.3659 Y44.1025 
G01 X44.3876 Y44.0874 
G01 X44.3995 Y44.0689 
G01 X44.4151 Y44.0533 
G01 X44.4252 Y44.0289 
G01 X44.4395 Y44.0067 
G01 X44.4434 Y43.9850 
G01 X44.4518 Y43.9646 
G01 X44.4518 Y43.9382 
G01 X44.4565 Y43.9122 
G01 X44.4518 Y43.8907 
G01 X44.4518 Y43.8686 
G01 X44.4417 Y43.8442 
G01 X44.4361 Y43.8184 
G01 X44.4235 Y43.8003 
G01 X44.4151 Y43.7799 
G01 X44.3964 Y43.7612 
G01 X44.3814 Y43.7396 
G01 X44.3628 Y43.7276 
G01 X44.3472 Y43.7120 
G01 X44.3228 Y43.7019 
G01 X43.5705 Y43.2185 
G01 X42.7809 Y42.3072 
G01 X42.7775 Y42.2989 
G01 X42.7743 Y42.2958 
G01 X42.2752 Y41.2029 
G01 X42.1030 Y40.0050 
G01 X42.2752 Y38.8071 
G01 X42.7743 Y37.7142 
G01 X42.7775 Y37.7111 
G01 X42.7809 Y37.7028 
G01 X43.5705 Y36.7915 
G01 X44.5887 Y36.1372 
G01 X44.7411 Y36.0925 
G01 X44.7544 Y36.0925 
G01 X44.7868 Y36.0790 
G01 X44.8205 Y36.0692 
G01 X44.8308 Y36.0608 
G01 X44.8431 Y36.0557 
G01 X44.8679 Y36.0309 
G01 X44.8952 Y36.0089 
G01 X44.9016 Y35.9972 
G01 X44.9110 Y35.9878 
G01 X44.9244 Y35.9554 
G01 X44.9412 Y35.9247 
G01 X44.9426 Y35.9114 
G01 X44.9477 Y35.8991 
G01 X44.9477 Y35.8641 
G01 X44.9515 Y35.8292 
G01 X44.9477 Y35.8165 
G01 X44.9477 Y35.8032 
G01 X44.9343 Y35.7708 
G01 X44.9244 Y35.7371 
G01 X44.9161 Y35.7268 
G01 X44.9110 Y35.7145 
G01 X44.8862 Y35.6897 
G01 X44.8642 Y35.6624 
G01 X44.8525 Y35.6560 
G01 X44.7618 Y35.5653 
G01 X44.5897 Y35.1498 
G01 X44.5897 Y34.7002 
G01 X44.7618 Y34.2847 
G01 X45.0797 Y33.9668 
G01 X45.2499 Y33.8963 
G01 X45.2592 Y33.8924 
G01 X45.3386 Y33.8596 
G01 X45.4065 Y33.7917 
G01 X45.4432 Y33.7030 
G01 X45.4432 Y33.6070 
G01 X45.4321 Y33.5803 
G01 X45.4065 Y33.5183 
G01 X45.3386 Y33.4504 
G01 X45.2499 Y33.4137 
G01 X45.0797 Y33.3432 
G01 X44.7618 Y33.0253 
G01 X44.5897 Y32.6098 
G01 X44.5897 Y32.1602 
G01 X44.7618 Y31.7447 
G01 X45.0797 Y31.4268 
G01 X45.2499 Y31.3563 
G01 X45.2592 Y31.3524 
G01 X45.3386 Y31.3196 
G01 X45.4065 Y31.2517 
G01 X45.4432 Y31.1630 
G01 X45.4432 Y31.0670 
G01 X45.4321 Y31.0403 
G01 X45.4065 Y30.9783 
G01 X45.3386 Y30.9104 
G01 X45.2499 Y30.8737 
G01 X45.0797 Y30.8032 
G01 X44.7618 Y30.4853 
G01 X44.5897 Y30.0698 
G01 X44.5897 Y29.6202 
G01 X44.7618 Y29.2047 
G01 X45.0797 Y28.8868 
G01 X45.2499 Y28.8163 
G01 X45.2592 Y28.8124 
G01 X45.3386 Y28.7796 
G01 X45.4065 Y28.7117 
G01 X45.4432 Y28.6230 
G01 X45.4432 Y28.5270 
G01 X45.4321 Y28.5003 
G01 X45.4065 Y28.4383 
G01 X45.3386 Y28.3704 
G01 X45.2499 Y28.3337 
G01 X45.0797 Y28.2632 
G01 X44.7618 Y27.9453 
G01 X44.5897 Y27.5298 
G01 X44.5897 Y27.0802 
G01 X44.7618 Y26.6647 
G01 X45.0797 Y26.3468 
G01 X45.4952 Y26.1747 
G01 X45.9448 Y26.1747 
G01 X46.3603 Y26.3468 
G01 X46.6782 Y26.6647 
G01 X46.8503 Y27.0802 
G01 X46.8503 Y27.5298 
G01 X46.6782 Y27.9453 
G01 X46.3603 Y28.2632 
G01 X46.1901 Y28.3337 
G01 X46.1014 Y28.3704 
G01 X46.0335 Y28.4383 
G01 X46.0073 Y28.5018 
G01 X45.9968 Y28.5270 
G01 X45.9968 Y28.6230 
G01 X46.0335 Y28.7117 
G01 X46.1014 Y28.7796 
G01 X46.1827 Y28.8132 
G01 X46.1901 Y28.8163 
G01 X46.3603 Y28.8868 
G01 X46.6782 Y29.2047 
G01 X46.8503 Y29.6202 
G01 X46.8503 Y30.0698 
G01 X46.6782 Y30.4853 
G01 X46.3603 Y30.8032 
G01 X46.1901 Y30.8737 
G01 X46.1014 Y30.9104 
G01 X46.0335 Y30.9783 
G01 X46.0073 Y31.0418 
G01 X45.9968 Y31.0670 
G01 X45.9968 Y31.1630 
G01 X46.0335 Y31.2517 
G01 X46.1014 Y31.3196 
G01 X46.1827 Y31.3532 
G01 X46.1901 Y31.3563 
G01 X46.3603 Y31.4268 
G01 X46.6782 Y31.7447 
G01 X46.8503 Y32.1602 
G01 X46.8503 Y32.6098 
G01 X46.6782 Y33.0253 
G01 X46.3603 Y33.3432 
G01 X46.1901 Y33.4137 
G01 X46.1014 Y33.4504 
G01 X46.0335 Y33.5183 
G01 X46.0073 Y33.5818 
G01 X45.9968 Y33.6070 
G01 X45.9968 Y33.7030 
G01 X46.0335 Y33.7917 
G01 X46.1014 Y33.8596 
G01 X46.1827 Y33.8932 
G01 X46.1901 Y33.8963 
G01 X46.3603 Y33.9668 
G01 X46.6782 Y34.2847 
G01 X46.8503 Y34.7002 
G01 X46.8503 Y35.1498 
G01 X46.7391 Y35.4183 
G01 X46.7220 Y35.4597 
G01 X46.7024 Y35.5070 
G01 X46.7024 Y35.6030 
G01 X46.7391 Y35.6916 
G01 X46.8070 Y35.7595 
G01 X46.8704 Y35.7858 
G01 X46.8957 Y35.7963 
G01 X46.9601 Y35.7963 
G01 X48.1213 Y36.1372 
G01 X49.1395 Y36.7915 
G01 X49.9291 Y37.7028 
G01 X49.9325 Y37.7111 
G01 X49.9357 Y37.7142 
G01 X50.0453 Y37.9542 
G01 X50.0620 Y37.9946 
G01 X50.0652 Y37.9978 
G01 X50.0670 Y38.0018 
G01 X50.0990 Y38.0316 
G01 X50.1299 Y38.0625 
G01 X50.1340 Y38.0642 
G01 X50.1373 Y38.0673 
G01 X50.1782 Y38.0825 
G01 X50.2186 Y38.0992 
G01 X50.2231 Y38.0992 
G01 X50.2272 Y38.1008 
G01 X50.2709 Y38.0992 
G01 X50.3146 Y38.0992 
G01 X50.3187 Y38.0975 
G01 X50.3232 Y38.0974 
G01 X50.3629 Y38.0792 
G01 X50.4033 Y38.0625 
G01 X50.4064 Y38.0593 
G01 X50.4105 Y38.0575 
G01 X50.4402 Y38.0255 
G01 X50.4712 Y37.9946 
G01 X50.4729 Y37.9905 
G01 X50.4759 Y37.9872 
G01 X50.4912 Y37.9463 
G01 X50.5079 Y37.9059 
G01 X50.5079 Y37.9015 
G01 X50.5095 Y37.8973 
G01 X50.5079 Y37.8536 
G01 X50.5079 Y6.5964 
G01 X50.5095 Y6.5527 
G01 X50.5079 Y6.5485 
G01 X50.5079 Y6.5441 
G01 X50.4912 Y6.5037 
G01 X50.4759 Y6.4628 
G01 X50.4729 Y6.4595 
G01 X50.4712 Y6.4554 
G01 X50.4402 Y6.4245 
G01 X50.4105 Y6.3925 
G01 X50.4064 Y6.3906 
G01 X50.4033 Y6.3875 
G01 X50.3629 Y6.3708 
G01 X50.3232 Y6.3526 
G01 X50.3187 Y6.3525 
G01 X50.3146 Y6.3508 
G01 X50.2709 Y6.3508 
G01 X50.2272 Y6.3492 
G01 X50.2231 Y6.3508 
G01 X50.2186 Y6.3508 
G01 X50.1782 Y6.3675 
G01 X50.1373 Y6.3827 
G01 X50.1340 Y6.3858 
G01 X50.1299 Y6.3875 
G01 X50.0990 Y6.4184 
G01 X50.0670 Y6.4482 
G01 X50.0652 Y6.4522 
G01 X50.0620 Y6.4554 
G01 X50.0453 Y6.4958 
G01 X49.9357 Y6.7358 
G01 X49.9325 Y6.7389 
G01 X49.9291 Y6.7472 
G01 X49.1395 Y7.6585 
G01 X48.1213 Y8.3128 
G01 X46.9601 Y8.6537 
G01 X45.7499 Y8.6537 
G01 X44.5887 Y8.3128 
G01 X43.5705 Y7.6585 
G01 X42.7809 Y6.7472 
G01 X42.7775 Y6.7389 
G01 X42.7743 Y6.7358 
G01 X42.2752 Y5.6429 
G01 X42.1030 Y4.4450 
G01 X42.2752 Y3.2471 
G01 X42.7743 Y2.1542 
G01 X42.7775 Y2.1511 
G01 X42.7809 Y2.1428 
G01 X43.5705 Y1.2315 
G01 X44.3228 Y0.7481 
G01 X44.3472 Y0.7380 
G01 X44.3628 Y0.7224 
G01 X44.3814 Y0.7104 
G01 X44.3964 Y0.6888 
G01 X44.4151 Y0.6701 
G01 X44.4235 Y0.6497 
G01 X44.4361 Y0.6316 
G01 X44.4417 Y0.6058 
G01 X44.4518 Y0.5814 
G01 X44.4518 Y0.5593 
G01 X44.4565 Y0.5378 
G01 X44.4518 Y0.5118 
G01 X44.4518 Y0.4854 
G01 X44.4434 Y0.4650 
G01 X44.4395 Y0.4433 
G01 X44.4252 Y0.4211 
G01 X44.4151 Y0.3967 
G01 X44.3995 Y0.3811 
G01 X44.3876 Y0.3626 
G01 X44.3659 Y0.3475 
G01 X44.3472 Y0.3288 
G01 X44.3268 Y0.3204 
G01 X44.3087 Y0.3078 
G01 X44.2829 Y0.3022 
G01 X44.2585 Y0.2921 
G01 X44.2365 Y0.2921 
G01 X44.2149 Y0.2874 
G01 X44.1889 Y0.2921 
G01 X6.6111 Y0.2921 
G01 X6.5851 Y0.2874 
G01 X6.5635 Y0.2921 
G01 X6.5415 Y0.2921 
G01 X6.5171 Y0.3022 
G01 X6.4913 Y0.3078 
G01 X6.4732 Y0.3204 
G01 X6.4528 Y0.3288 
G01 X6.4341 Y0.3475 
G01 X6.4124 Y0.3626 
G00 Z2.5400 
G00 X5.1367 Y9.1313 
G01 Z-0.1778 F254.00 
G01 X17.5650 Y9.1313 F508.00 
G01 X17.6537 Y9.0946 
G01 X17.9167 Y8.8315 
G01 X17.9846 Y8.7637 
G01 X18.0213 Y8.6750 
G01 X18.0213 Y8.3311 
G01 X17.9846 Y8.2424 
G01 X17.6705 Y7.9284 
G01 X17.6705 Y7.3116 
G01 X18.1066 Y6.8755 
G01 X18.7234 Y6.8755 
G01 X18.9160 Y7.0681 
G01 X18.9839 Y7.1360 
G01 X19.0369 Y7.1580 
G01 X19.0726 Y7.1728 
G01 X19.1686 Y7.1728 
G01 X19.2064 Y7.1571 
G01 X19.2573 Y7.1360 
G01 X19.3252 Y7.0681 
G01 X19.3475 Y7.0142 
G01 X19.3618 Y6.9797 
G01 X19.6797 Y6.6618 
G01 X19.9260 Y6.5598 
G01 X19.9358 Y6.5590 
G01 X19.9701 Y6.5415 
G01 X20.0056 Y6.5268 
G01 X20.0126 Y6.5199 
G01 X20.0213 Y6.5154 
G01 X20.0463 Y6.4861 
G01 X20.0735 Y6.4589 
G01 X20.0773 Y6.4499 
G01 X20.0836 Y6.4424 
G01 X20.0955 Y6.4058 
G01 X20.1103 Y6.3702 
G01 X20.1103 Y6.3604 
G01 X20.1133 Y6.3511 
G01 X20.1103 Y6.3127 
G01 X20.1103 Y6.2742 
G01 X20.1065 Y6.2652 
G01 X20.1057 Y6.2554 
G01 X20.0883 Y6.2211 
G01 X20.0735 Y6.1855 
G01 X20.0666 Y6.1786 
G01 X20.0622 Y6.1699 
G01 X20.0329 Y6.1449 
G01 X20.0056 Y6.1177 
G01 X19.9966 Y6.1139 
G01 X19.9892 Y6.1076 
G01 X19.9526 Y6.0957 
G01 X19.9170 Y6.0809 
G01 X19.9072 Y6.0809 
G01 X19.7542 Y6.0033 
G01 X19.6168 Y5.9034 
G01 X19.4966 Y5.7832 
G01 X19.3967 Y5.6458 
G01 X19.3196 Y5.4944 
G01 X19.3046 Y5.4483 
G01 X19.3313 Y5.4483 
G01 X19.3431 Y5.4846 
G01 X19.4185 Y5.6325 
G01 X19.5160 Y5.7667 
G01 X19.6333 Y5.8840 
G01 X19.7675 Y5.9815 
G01 X19.9154 Y6.0569 
G01 X20.0732 Y6.1081 
G01 X20.2370 Y6.1341 
G01 X20.4030 Y6.1341 
G01 X20.5668 Y6.1081 
G01 X20.7246 Y6.0569 
G01 X20.8725 Y5.9815 
G01 X21.0067 Y5.8840 
G01 X21.1240 Y5.7667 
G01 X21.2215 Y5.6325 
G01 X21.2969 Y5.4846 
G01 X21.3087 Y5.4483 
G01 X21.3354 Y5.4483 
G01 X21.3204 Y5.4944 
G01 X21.2433 Y5.6458 
G01 X21.1434 Y5.7832 
G01 X21.0232 Y5.9034 
G01 X20.8858 Y6.0033 
G01 X20.7344 Y6.0804 
G01 X20.7230 Y6.0809 
G01 X20.6874 Y6.0957 
G01 X20.6508 Y6.1076 
G01 X20.6434 Y6.1139 
G01 X20.6343 Y6.1177 
G01 X20.6071 Y6.1449 
G01 X20.5778 Y6.1699 
G01 X20.5734 Y6.1786 
G01 X20.5665 Y6.1855 
G01 X20.5517 Y6.2211 
G01 X20.5342 Y6.2554 
G01 X20.5335 Y6.2652 
G01 X20.5297 Y6.2742 
G01 X20.5297 Y6.3127 
G01 X20.5267 Y6.3511 
G01 X20.5297 Y6.3604 
G01 X20.5297 Y6.3702 
G01 X20.5445 Y6.4058 
G01 X20.5564 Y6.4424 
G01 X20.5627 Y6.4499 
G01 X20.5665 Y6.4589 
G01 X20.5937 Y6.4861 
G01 X20.6187 Y6.5154 
G01 X20.6274 Y6.5199 
G01 X20.6343 Y6.5268 
G01 X20.6699 Y6.5415 
G01 X20.7042 Y6.5590 
G01 X20.7140 Y6.5598 
G01 X20.9603 Y6.6618 
G01 X21.2782 Y6.9797 
G01 X21.4503 Y7.3952 
G01 X21.4503 Y7.8448 
G01 X21.2782 Y8.2603 
G01 X20.9603 Y8.5782 
G01 X20.5448 Y8.7503 
G01 X20.0952 Y8.7503 
G01 X19.6797 Y8.5782 
G01 X19.3618 Y8.2603 
G01 X19.3294 Y8.1820 
G01 X19.3252 Y8.1718 
G01 X19.2573 Y8.1040 
G01 X19.2138 Y8.0860 
G01 X19.1686 Y8.0672 
G01 X19.0726 Y8.0672 
G01 X18.9939 Y8.0998 
G01 X18.9839 Y8.1040 
G01 X18.9133 Y8.1746 
G01 X18.8454 Y8.2424 
G01 X18.8396 Y8.2566 
G01 X18.8087 Y8.3311 
G01 X18.8087 Y8.9683 
G01 X18.7488 Y9.1130 
G01 X18.5413 Y9.3204 
G01 X18.4735 Y9.3883 
G01 X18.4367 Y9.4770 
G01 X18.4367 Y9.5730 
G01 X18.4735 Y9.6617 
G01 X18.5413 Y9.7296 
G01 X18.6300 Y9.7663 
G01 X22.0100 Y9.7663 
G01 X22.0987 Y9.7296 
G01 X22.3617 Y9.4665 
G01 X22.4296 Y9.3987 
G01 X22.4663 Y9.3100 
G01 X22.4663 Y8.3311 
G01 X22.4296 Y8.2424 
G01 X22.1155 Y7.9284 
G01 X22.1155 Y7.3116 
G01 X22.5516 Y6.8755 
G01 X23.1684 Y6.8755 
G01 X23.3610 Y7.0681 
G01 X23.4289 Y7.1360 
G01 X23.4819 Y7.1580 
G01 X23.5176 Y7.1728 
G01 X23.6136 Y7.1728 
G01 X23.6514 Y7.1571 
G01 X23.7023 Y7.1360 
G01 X23.7702 Y7.0681 
G01 X23.7925 Y7.0142 
G01 X23.8068 Y6.9797 
G01 X24.1247 Y6.6618 
G01 X24.3710 Y6.5598 
G01 X24.3808 Y6.5590 
G01 X24.4151 Y6.5415 
G01 X24.4506 Y6.5268 
G01 X24.4576 Y6.5199 
G01 X24.4663 Y6.5154 
G01 X24.4913 Y6.4861 
G01 X24.5185 Y6.4589 
G01 X24.5223 Y6.4499 
G01 X24.5286 Y6.4424 
G01 X24.5405 Y6.4058 
G01 X24.5553 Y6.3702 
G01 X24.5553 Y6.3604 
G01 X24.5583 Y6.3511 
G01 X24.5553 Y6.3127 
G01 X24.5553 Y6.2742 
G01 X24.5515 Y6.2652 
G01 X24.5507 Y6.2554 
G01 X24.5333 Y6.2211 
G01 X24.5185 Y6.1855 
G01 X24.5116 Y6.1786 
G01 X24.5072 Y6.1699 
G01 X24.4779 Y6.1449 
G01 X24.4506 Y6.1177 
G01 X24.4416 Y6.1139 
G01 X24.4342 Y6.1076 
G01 X24.3976 Y6.0957 
G01 X24.3620 Y6.0809 
G01 X24.3522 Y6.0809 
G01 X24.1992 Y6.0033 
G01 X24.0618 Y5.9034 
G01 X23.9416 Y5.7832 
G01 X23.8417 Y5.6458 
G01 X23.7646 Y5.4944 
G01 X23.7496 Y5.4483 
G01 X23.7763 Y5.4483 
G01 X23.7881 Y5.4846 
G01 X23.8635 Y5.6325 
G01 X23.9610 Y5.7667 
G01 X24.0783 Y5.8840 
G01 X24.2125 Y5.9815 
G01 X24.3604 Y6.0569 
G01 X24.5182 Y6.1081 
G01 X24.6820 Y6.1341 
G01 X24.8480 Y6.1341 
G01 X25.0118 Y6.1081 
G01 X25.1696 Y6.0569 
G01 X25.3175 Y5.9815 
G01 X25.4517 Y5.8840 
G01 X25.5690 Y5.7667 
G01 X25.6665 Y5.6325 
G01 X25.7419 Y5.4846 
G01 X25.7537 Y5.4483 
G01 X25.7804 Y5.4483 
G01 X25.7654 Y5.4944 
G01 X25.6883 Y5.6458 
G01 X25.5884 Y5.7832 
G01 X25.4682 Y5.9034 
G01 X25.3308 Y6.0033 
G01 X25.1794 Y6.0804 
G01 X25.1680 Y6.0809 
G01 X25.1324 Y6.0957 
G01 X25.0958 Y6.1076 
G01 X25.0884 Y6.1139 
G01 X25.0793 Y6.1177 
G01 X25.0521 Y6.1449 
G01 X25.0228 Y6.1699 
G01 X25.0184 Y6.1786 
G01 X25.0115 Y6.1855 
G01 X24.9967 Y6.2211 
G01 X24.9792 Y6.2554 
G01 X24.9785 Y6.2652 
G01 X24.9747 Y6.2742 
G01 X24.9747 Y6.3127 
G01 X24.9717 Y6.3511 
G01 X24.9747 Y6.3604 
G01 X24.9747 Y6.3702 
G01 X24.9895 Y6.4058 
G01 X25.0014 Y6.4424 
G01 X25.0077 Y6.4499 
G01 X25.0115 Y6.4589 
G01 X25.0387 Y6.4861 
G01 X25.0637 Y6.5154 
G01 X25.0724 Y6.5199 
G01 X25.0793 Y6.5268 
G01 X25.1149 Y6.5415 
G01 X25.1492 Y6.5590 
G01 X25.1590 Y6.5598 
G01 X25.4053 Y6.6618 
G01 X25.7232 Y6.9797 
G01 X25.8953 Y7.3952 
G01 X25.8953 Y7.8448 
G01 X25.7232 Y8.2603 
G01 X25.4053 Y8.5782 
G01 X24.9898 Y8.7503 
G01 X24.5402 Y8.7503 
G01 X24.1247 Y8.5782 
G01 X23.8068 Y8.2603 
G01 X23.7744 Y8.1820 
G01 X23.7702 Y8.1718 
G01 X23.7023 Y8.1040 
G01 X23.6588 Y8.0860 
G01 X23.6136 Y8.0672 
G01 X23.5176 Y8.0672 
G01 X23.4389 Y8.0998 
G01 X23.4289 Y8.1040 
G01 X23.3583 Y8.1746 
G01 X23.2904 Y8.2424 
G01 X23.2846 Y8.2566 
G01 X23.2537 Y8.3311 
G01 X23.2537 Y9.6033 
G01 X23.1938 Y9.7480 
G01 X22.6266 Y10.3151 
G01 X22.4480 Y10.4938 
G01 X22.3033 Y10.5537 
G01 X5.9300 Y10.5537 
G01 X5.8413 Y10.5904 
G01 X5.5783 Y10.8535 
G01 X5.5104 Y10.9213 
G01 X5.4737 Y11.0100 
G01 X5.4737 Y21.5139 
G01 X5.4848 Y21.5406 
G01 X5.5104 Y21.6026 
G01 X5.5783 Y21.6704 
G01 X5.6670 Y21.7072 
G01 X5.7630 Y21.7072 
G01 X5.7897 Y21.6961 
G01 X5.8517 Y21.6704 
G01 X5.9196 Y21.6026 
G01 X6.0416 Y21.4805 
G01 X6.6822 Y21.4805 
G01 X6.7709 Y21.4438 
G01 X6.8388 Y21.3759 
G01 X6.8755 Y21.2872 
G01 X6.8755 Y20.6466 
G01 X7.3116 Y20.2105 
G01 X7.9284 Y20.2105 
G01 X8.3645 Y20.6466 
G01 X8.3645 Y21.0426 
G01 X8.3645 Y21.0907 
G01 X8.3836 Y21.1370 
G01 X8.4012 Y21.1794 
G01 X8.4060 Y21.1843 
G01 X8.4449 Y21.2231 
G01 X8.4738 Y21.2521 
G01 X8.5219 Y21.2720 
G01 X8.5625 Y21.2889 
G01 X8.6106 Y21.2889 
G01 X8.6585 Y21.2889 
G01 X8.7050 Y21.2697 
G01 X8.7472 Y21.2522 
G01 X8.7861 Y21.2133 
G01 X8.8151 Y21.1843 
G01 X8.8350 Y21.1363 
G01 X8.8519 Y21.0957 
G01 X8.8519 Y21.0476 
G01 X8.8519 Y20.9997 
G01 X8.8519 Y20.9717 
G01 X8.9635 Y20.8601 
G01 X10.5029 Y20.8601 
G01 X10.5029 Y27.4038 
G01 X10.5396 Y27.4925 
G01 X10.6075 Y27.5604 
G01 X10.6962 Y27.5971 
G01 X13.1283 Y27.5971 
G01 X13.1424 Y27.6112 
G01 X13.1765 Y27.6253 
G01 X13.2310 Y27.6479 
G01 X13.3160 Y27.6479 
G01 X13.3160 Y27.6733 
G01 X13.2679 Y27.6733 
G01 X13.2259 Y27.6907 
G01 X13.1937 Y27.7229 
G01 X13.1763 Y27.7649 
G01 X13.1763 Y29.0803 
G01 X13.1937 Y29.1223 
G01 X13.2259 Y29.1545 
G01 X13.2679 Y29.1719 
G01 X13.3160 Y29.1719 
G01 X13.3160 Y29.1973 
G01 X13.2311 Y29.1973 
G01 X13.1424 Y29.2340 
G01 X13.1283 Y29.2481 
G01 X12.5570 Y29.2481 
G01 X12.4683 Y29.2848 
G01 X12.4004 Y29.3527 
G01 X12.3637 Y29.4414 
G01 X12.3637 Y30.6533 
G01 X12.3038 Y30.7980 
G01 X11.9547 Y31.1470 
G01 X11.8869 Y31.2149 
G01 X11.8501 Y31.3036 
G01 X11.8501 Y31.3996 
G01 X11.8869 Y31.4883 
G01 X11.9547 Y31.5562 
G01 X12.0191 Y31.5828 
G01 X12.0191 Y31.6183 
G01 X11.8107 Y31.6183 
G01 X11.7687 Y31.6357 
G01 X11.7365 Y31.6679 
G01 X11.7191 Y31.7099 
G01 X11.7191 Y32.7553 
G01 X11.7365 Y32.7973 
G01 X11.7687 Y32.8295 
G01 X11.8107 Y32.8469 
G01 X12.0191 Y32.8469 
G01 X12.0191 Y32.8723 
G01 X11.8150 Y32.8723 
G01 X11.7795 Y32.8628 
G01 X11.7476 Y32.8444 
G01 X11.7216 Y32.8184 
G01 X11.7032 Y32.7865 
G01 X11.6937 Y32.7510 
G01 X11.6937 Y32.4387 
G01 X11.6826 Y32.4120 
G01 X11.6570 Y32.3500 
G01 X11.5891 Y32.2822 
G01 X11.5029 Y32.2465 
G01 X11.4044 Y32.2454 
G01 X11.3777 Y32.2565 
G01 X11.3157 Y32.2822 
G01 X11.2478 Y32.3500 
G01 X11.1034 Y32.4945 
G01 X10.4866 Y32.4945 
G01 X10.0505 Y32.0584 
G01 X10.0505 Y31.4416 
G01 X10.4901 Y31.0021 
G01 X10.5579 Y30.9342 
G01 X10.5947 Y30.8455 
G01 X10.5947 Y30.7495 
G01 X10.5579 Y30.6608 
G01 X10.5485 Y30.6514 
G01 X10.4901 Y30.5929 
G01 X10.0505 Y30.1534 
G01 X10.0505 Y29.6369 
G01 X10.0138 Y29.5482 
G01 X9.9459 Y29.4804 
G01 X9.8572 Y29.4436 
G01 X9.7612 Y29.4436 
G01 X9.6725 Y29.4804 
G01 X9.6636 Y29.4893 
G01 X9.6046 Y29.5482 
G01 X9.1984 Y29.9545 
G01 X8.5816 Y29.9545 
G01 X8.1455 Y29.5184 
G01 X8.1455 Y28.9016 
G01 X8.5816 Y28.4655 
G01 X9.0258 Y28.4655 
G01 X9.1145 Y28.4288 
G01 X9.1791 Y28.3641 
G01 X9.2470 Y28.2963 
G01 X9.2837 Y28.2076 
G01 X9.2837 Y27.5932 
G01 X9.2470 Y27.5045 
G01 X9.1791 Y27.4366 
G01 X9.0904 Y27.3999 
G01 X8.9635 Y27.3999 
G01 X8.8519 Y27.2883 
G01 X8.8519 Y26.7170 
G01 X8.8152 Y26.6283 
G01 X8.7473 Y26.5604 
G01 X8.6586 Y26.5237 
G01 X5.0967 Y26.5237 
G01 X4.9520 Y26.4638 
G01 X4.2899 Y25.8016 
G01 X4.1112 Y25.6230 
G01 X4.0513 Y25.4783 
G01 X4.0513 Y24.6001 
G01 X4.0402 Y24.5734 
G01 X4.0146 Y24.5114 
G01 X3.9467 Y24.4435 
G01 X3.8580 Y24.4068 
G01 X3.7620 Y24.4068 
G01 X3.7353 Y24.4179 
G01 X3.6733 Y24.4435 
G01 X3.6054 Y24.5114 
G01 X3.5687 Y24.6001 
G01 X3.4982 Y24.7703 
G01 X3.1803 Y25.0882 
G01 X3.0101 Y25.1587 
G01 X3.0008 Y25.1625 
G01 X2.9214 Y25.1954 
G01 X2.8535 Y25.2633 
G01 X2.8168 Y25.3520 
G01 X2.8168 Y25.4480 
G01 X2.8279 Y25.4747 
G01 X2.8535 Y25.5367 
G01 X2.9214 Y25.6046 
G01 X3.0101 Y25.6413 
G01 X3.1803 Y25.7118 
G01 X3.4982 Y26.0297 
G01 X3.6703 Y26.4452 
G01 X3.6703 Y26.8948 
G01 X3.4982 Y27.3103 
G01 X3.1803 Y27.6282 
G01 X3.0101 Y27.6987 
G01 X3.0008 Y27.7025 
G01 X2.9214 Y27.7354 
G01 X2.8535 Y27.8033 
G01 X2.8168 Y27.8920 
G01 X2.8168 Y27.9880 
G01 X2.8279 Y28.0147 
G01 X2.8535 Y28.0767 
G01 X2.9214 Y28.1446 
G01 X3.0101 Y28.1813 
G01 X3.1803 Y28.2518 
G01 X3.4982 Y28.5697 
G01 X3.6703 Y28.9852 
G01 X3.6703 Y29.4348 
G01 X3.4982 Y29.8503 
G01 X3.1803 Y30.1682 
G01 X3.0101 Y30.2387 
G01 X3.0008 Y30.2425 
G01 X2.9214 Y30.2754 
G01 X2.8535 Y30.3433 
G01 X2.8168 Y30.4320 
G01 X2.8168 Y30.5280 
G01 X2.8279 Y30.5547 
G01 X2.8535 Y30.6167 
G01 X2.9214 Y30.6846 
G01 X3.0101 Y30.7213 
G01 X3.1803 Y30.7918 
G01 X3.4982 Y31.1097 
G01 X3.6703 Y31.5252 
G01 X3.6703 Y31.9748 
G01 X3.4982 Y32.3903 
G01 X3.1803 Y32.7082 
G01 X2.7648 Y32.8803 
G01 X2.3152 Y32.8803 
G01 X1.8997 Y32.7082 
G01 X1.5818 Y32.3903 
G01 X1.4097 Y31.9748 
G01 X1.4097 Y31.5252 
G01 X1.5818 Y31.1097 
G01 X1.8997 Y30.7918 
G01 X2.0699 Y30.7213 
G01 X2.1586 Y30.6846 
G01 X2.2265 Y30.6167 
G01 X2.2527 Y30.5532 
G01 X2.2632 Y30.5280 
G01 X2.2632 Y30.4320 
G01 X2.2265 Y30.3433 
G01 X2.1586 Y30.2754 
G01 X2.0773 Y30.2418 
G01 X2.0699 Y30.2387 
G01 X1.8997 Y30.1682 
G01 X1.5818 Y29.8503 
G01 X1.4097 Y29.4348 
G01 X1.4097 Y28.9852 
G01 X1.5818 Y28.5697 
G01 X1.8997 Y28.2518 
G01 X2.0699 Y28.1813 
G01 X2.1586 Y28.1446 
G01 X2.2265 Y28.0767 
G01 X2.2527 Y28.0132 
G01 X2.2632 Y27.9880 
G01 X2.2632 Y27.8920 
G01 X2.2265 Y27.8033 
G01 X2.1586 Y27.7354 
G01 X2.0773 Y27.7018 
G01 X2.0699 Y27.6987 
G01 X1.8997 Y27.6282 
G01 X1.5818 Y27.3103 
G01 X1.4097 Y26.8948 
G01 X1.4097 Y26.4452 
G01 X1.5818 Y26.0297 
G01 X1.8997 Y25.7118 
G01 X2.0699 Y25.6413 
G01 X2.1586 Y25.6046 
G01 X2.2265 Y25.5367 
G01 X2.2527 Y25.4732 
G01 X2.2632 Y25.4480 
G01 X2.2632 Y25.3520 
G01 X2.2265 Y25.2633 
G01 X2.1586 Y25.1954 
G01 X2.0773 Y25.1618 
G01 X2.0699 Y25.1587 
G01 X1.8997 Y25.0882 
G01 X1.5818 Y24.7703 
G01 X1.4097 Y24.3548 
G01 X1.4097 Y23.9052 
G01 X1.5818 Y23.4897 
G01 X1.8997 Y23.1718 
G01 X2.1460 Y23.0698 
G01 X2.1558 Y23.0690 
G01 X2.1901 Y23.0515 
G01 X2.2256 Y23.0368 
G01 X2.2326 Y23.0299 
G01 X2.2413 Y23.0254 
G01 X2.2663 Y22.9961 
G01 X2.2935 Y22.9689 
G01 X2.2973 Y22.9599 
G01 X2.3036 Y22.9524 
G01 X2.3155 Y22.9158 
G01 X2.3303 Y22.8802 
G01 X2.3303 Y22.8704 
G01 X2.3333 Y22.8611 
G01 X2.3303 Y22.8227 
G01 X2.3303 Y22.7842 
G01 X2.3265 Y22.7752 
G01 X2.3257 Y22.7654 
G01 X2.3083 Y22.7311 
G01 X2.2935 Y22.6955 
G01 X2.2866 Y22.6886 
G01 X2.2822 Y22.6799 
G01 X2.2529 Y22.6549 
G01 X2.2256 Y22.6276 
G01 X2.2166 Y22.6239 
G01 X2.2092 Y22.6176 
G01 X2.1726 Y22.6057 
G01 X2.1370 Y22.5909 
G01 X2.1272 Y22.5909 
G01 X1.9742 Y22.5133 
G01 X1.8368 Y22.4134 
G01 X1.7166 Y22.2932 
G01 X1.6167 Y22.1558 
G01 X1.5396 Y22.0044 
G01 X1.5246 Y21.9583 
G01 X1.5513 Y21.9583 
G01 X1.5631 Y21.9946 
G01 X1.6385 Y22.1425 
G01 X1.7360 Y22.2767 
G01 X1.8533 Y22.3940 
G01 X1.9875 Y22.4915 
G01 X2.1354 Y22.5669 
G01 X2.2932 Y22.6181 
G01 X2.4570 Y22.6441 
G01 X2.6230 Y22.6441 
G01 X2.7868 Y22.6181 
G01 X2.9446 Y22.5669 
G01 X3.0925 Y22.4915 
G01 X3.2267 Y22.3940 
G01 X3.3440 Y22.2767 
G01 X3.4415 Y22.1425 
G01 X3.5169 Y21.9946 
G01 X3.5681 Y21.8368 
G01 X3.5941 Y21.6730 
G01 X3.5941 Y21.5070 
G01 X3.5681 Y21.3432 
G01 X3.5169 Y21.1854 
G01 X3.4415 Y21.0375 
G01 X3.3440 Y20.9033 
G01 X3.2267 Y20.7860 
G01 X3.0925 Y20.6885 
G01 X2.9446 Y20.6131 
G01 X2.9083 Y20.6013 
G01 X2.9083 Y20.0387 
G01 X2.9446 Y20.0269 
G01 X3.0925 Y19.9515 
G01 X3.2267 Y19.8540 
G01 X3.3440 Y19.7367 
G01 X3.4415 Y19.6025 
G01 X3.5169 Y19.4546 
G01 X3.5681 Y19.2968 
G01 X3.5941 Y19.1330 
G01 X3.5941 Y18.9670 
G01 X3.5681 Y18.8032 
G01 X3.5169 Y18.6454 
G01 X3.4415 Y18.4975 
G01 X3.3440 Y18.3633 
G01 X3.2267 Y18.2460 
G01 X3.0925 Y18.1485 
G01 X2.9446 Y18.0731 
G01 X2.9083 Y18.0613 
G01 X2.9083 Y18.0346 
G01 X2.9544 Y18.0496 
G01 X3.1058 Y18.1267 
G01 X3.2432 Y18.2266 
G01 X3.3634 Y18.3468 
G01 X3.4633 Y18.4842 
G01 X3.5404 Y18.6356 
G01 X3.5687 Y18.7227 
G01 X3.5687 Y18.7325 
G01 X3.5834 Y18.7681 
G01 X3.5953 Y18.8047 
G01 X3.6017 Y18.8121 
G01 X3.6054 Y18.8212 
G01 X3.6327 Y18.8484 
G01 X3.6577 Y18.8777 
G01 X3.6664 Y18.8821 
G01 X3.6733 Y18.8890 
G01 X3.7089 Y18.9038 
G01 X3.7432 Y18.9213 
G01 X3.7530 Y18.9220 
G01 X3.7620 Y18.9258 
G01 X3.8005 Y18.9258 
G01 X3.8389 Y18.9288 
G01 X3.8482 Y18.9258 
G01 X3.8580 Y18.9258 
G01 X3.8936 Y18.9110 
G01 X3.9302 Y18.8991 
G01 X3.9376 Y18.8928 
G01 X3.9467 Y18.8890 
G01 X3.9739 Y18.8618 
G01 X4.0032 Y18.8368 
G01 X4.0076 Y18.8281 
G01 X4.0146 Y18.8212 
G01 X4.0293 Y18.7856 
G01 X4.0468 Y18.7513 
G01 X4.0476 Y18.7415 
G01 X4.0513 Y18.7325 
G01 X4.0513 Y18.6940 
G01 X4.0543 Y18.6556 
G01 X4.0513 Y18.6463 
G01 X4.0513 Y10.0817 
G01 X4.1112 Y9.9370 
G01 X4.8570 Y9.1912 
G01 X4.9895 Y9.1363 
G01 X5.0237 Y9.1222 
G01 X5.0284 Y9.1248 
G01 X5.0417 Y9.1262 
G01 X5.0540 Y9.1313 
G01 X5.0890 Y9.1313 
G01 X5.1239 Y9.1350 
G01 X5.1367 Y9.1313 
G00 Z2.5400 
G00 X5.0382 Y9.2075 
G01 Z-0.1778 F254.00 
G01 X4.9574 Y9.2291 F508.00 
G01 X4.8850 Y9.2709 
G01 X4.1909 Y9.9650 
G01 X4.1491 Y10.0374 
G01 X4.1275 Y10.1182 
G01 X4.1275 Y25.4418 
G01 X4.1491 Y25.5225 
G01 X4.1909 Y25.5949 
G01 X4.2500 Y25.6541 
G01 X4.9801 Y26.3841 
G01 X5.0524 Y26.4259 
G01 X5.1332 Y26.4475 
G01 X8.9345 Y26.4475 
G01 X8.9455 Y26.4741 
G01 X8.9777 Y26.5063 
G01 X9.0197 Y26.5237 
G01 X10.3351 Y26.5237 
G01 X10.3771 Y26.5063 
G01 X10.4093 Y26.4741 
G01 X10.4267 Y26.4321 
G01 X10.4267 Y25.8279 
G01 X10.4093 Y25.7859 
G01 X10.3771 Y25.7537 
G01 X10.3351 Y25.7363 
G01 X9.0197 Y25.7363 
G01 X8.9777 Y25.7537 
G01 X8.9455 Y25.7859 
G01 X8.9345 Y25.8125 
G01 X5.3065 Y25.8125 
G01 X4.7625 Y25.2685 
G01 X4.7625 Y10.2915 
G01 X5.2115 Y9.8425 
G01 X17.8218 Y9.8425 
G01 X17.9026 Y9.8209 
G01 X17.9749 Y9.7791 
G01 X18.0341 Y9.7199 
G01 X18.6691 Y9.0849 
G01 X18.7109 Y9.0125 
G01 X18.7325 Y8.9318 
G01 X18.7325 Y8.2476 
G01 X19.0833 Y7.8968 
G01 X19.0833 Y7.3432 
G01 X18.6918 Y6.9517 
G01 X18.1382 Y6.9517 
G01 X17.7467 Y7.3432 
G01 X17.7467 Y7.8968 
G01 X18.0975 Y8.2476 
G01 X18.0975 Y8.7585 
G01 X17.6485 Y9.2075 
G01 X5.0382 Y9.2075 
G00 Z2.5400 
G00 X5.4609 Y9.9650 
G01 Z-0.1778 F254.00 
G01 X5.4609 Y9.9651 F508.00 
G01 X4.8851 Y10.5409 
G01 X4.8259 Y10.6000 
G01 X4.7841 Y10.6724 
G01 X4.7625 Y10.7532 
G01 X4.7625 Y24.8068 
G01 X4.7841 Y24.8876 
G01 X4.8259 Y24.9599 
G01 X4.8850 Y25.0191 
G01 X5.4501 Y25.5841 
G01 X5.5224 Y25.6259 
G01 X5.6032 Y25.6475 
G01 X8.9345 Y25.6475 
G01 X8.9455 Y25.6741 
G01 X8.9777 Y25.7063 
G01 X9.0197 Y25.7237 
G01 X10.3351 Y25.7237 
G01 X10.3771 Y25.7063 
G01 X10.4093 Y25.6741 
G01 X10.4267 Y25.6321 
G01 X10.4267 Y25.0279 
G01 X10.4093 Y24.9859 
G01 X10.3771 Y24.9537 
G01 X10.3351 Y24.9363 
G01 X9.0197 Y24.9363 
G01 X8.9777 Y24.9537 
G01 X8.9455 Y24.9859 
G01 X8.9345 Y25.0125 
G01 X5.7765 Y25.0125 
G01 X5.3975 Y24.6335 
G01 X5.3975 Y10.9265 
G01 X5.8465 Y10.4775 
G01 X22.2668 Y10.4775 
G01 X22.3475 Y10.4559 
G01 X22.4199 Y10.4141 
G01 X22.4791 Y10.3549 
G01 X23.1141 Y9.7199 
G01 X23.1559 Y9.6476 
G01 X23.1775 Y9.5668 
G01 X23.1775 Y8.2476 
G01 X23.5283 Y7.8968 
G01 X23.5283 Y7.3432 
G01 X23.1368 Y6.9517 
G01 X22.5832 Y6.9517 
G01 X22.1917 Y7.3432 
G01 X22.1917 Y7.8968 
G01 X22.5425 Y8.2476 
G01 X22.5425 Y9.3935 
G01 X22.0935 Y9.8425 
G01 X5.6732 Y9.8425 
G01 X5.5924 Y9.8641 
G01 X5.5201 Y9.9059 
G01 X5.4609 Y9.9650 
G00 Z2.5400 
G00 X10.9159 Y13.4001 
G01 Z-0.1778 F254.00 
G01 X10.8741 Y13.4724 F508.00 
G01 X10.8525 Y13.5532 
G01 X10.8525 Y19.0945 
G01 X10.8259 Y19.1055 
G01 X10.7937 Y19.1377 
G01 X10.7763 Y19.1797 
G01 X10.7763 Y20.4951 
G01 X10.7937 Y20.5371 
G01 X10.8259 Y20.5693 
G01 X10.8679 Y20.5867 
G01 X11.4721 Y20.5867 
G01 X11.5141 Y20.5693 
G01 X11.5463 Y20.5371 
G01 X11.5637 Y20.4951 
G01 X11.5637 Y19.1797 
G01 X11.5463 Y19.1377 
G01 X11.5141 Y19.1055 
G01 X11.4875 Y19.0945 
G01 X11.4875 Y13.7265 
G01 X12.1965 Y13.0175 
G01 X20.8235 Y13.0175 
G01 X21.2725 Y13.4665 
G01 X21.2725 Y17.8218 
G01 X21.2941 Y17.9026 
G01 X21.3359 Y17.9749 
G01 X21.3951 Y18.0341 
G01 X22.0300 Y18.6691 
G01 X22.1024 Y18.7109 
G01 X22.1832 Y18.7325 
G01 X24.8068 Y18.7325 
G01 X24.8876 Y18.7109 
G01 X24.9599 Y18.6691 
G01 X25.0191 Y18.6099 
G01 X25.6074 Y18.0216 
G01 X25.6408 Y18.0150 
G01 X25.7910 Y17.9527 
G01 X25.9262 Y17.8624 
G01 X26.0412 Y17.7474 
G01 X26.1315 Y17.6122 
G01 X26.1938 Y17.4620 
G01 X26.2255 Y17.3025 
G01 X26.2255 Y15.7175 
G01 X26.1938 Y15.5580 
G01 X26.1315 Y15.4078 
G01 X26.0412 Y15.2726 
G01 X25.9262 Y15.1576 
G01 X25.7910 Y15.0672 
G01 X25.6408 Y15.0050 
G01 X25.4813 Y14.9733 
G01 X25.3187 Y14.9733 
G01 X25.1592 Y15.0050 
G01 X25.0090 Y15.0672 
G01 X24.8738 Y15.1576 
G01 X24.7588 Y15.2726 
G01 X24.6684 Y15.4078 
G01 X24.6062 Y15.5580 
G01 X24.5745 Y15.7175 
G01 X24.5745 Y17.3025 
G01 X24.6062 Y17.4620 
G01 X24.6684 Y17.6122 
G01 X24.7588 Y17.7474 
G01 X24.8712 Y17.8598 
G01 X24.6335 Y18.0975 
G01 X22.3565 Y18.0975 
G01 X21.9075 Y17.6485 
G01 X21.9075 Y13.2932 
G01 X21.8859 Y13.2124 
G01 X21.8441 Y13.1401 
G01 X21.2091 Y12.5051 
G01 X21.1499 Y12.4459 
G01 X21.0775 Y12.4041 
G01 X20.9968 Y12.3825 
G01 X12.0232 Y12.3825 
G01 X11.9424 Y12.4041 
G01 X11.8701 Y12.4459 
G01 X10.9750 Y13.3409 
G01 X10.9159 Y13.4001 
G00 Z2.5400 
G00 X13.3349 Y16.6960 
G01 Z-0.1778 F254.00 
G01 X13.2931 Y16.7684 F508.00 
G01 X13.2715 Y16.8492 
G01 X13.2715 Y19.0881 
G01 X13.2679 Y19.0881 
G01 X13.2259 Y19.1055 
G01 X13.1937 Y19.1377 
G01 X13.1763 Y19.1797 
G01 X13.1763 Y20.4951 
G01 X13.1937 Y20.5371 
G01 X13.2259 Y20.5693 
G01 X13.2525 Y20.5803 
G01 X13.2525 Y21.2318 
G01 X13.2741 Y21.3126 
G01 X13.3159 Y21.3849 
G01 X13.6525 Y21.7215 
G01 X13.6525 Y24.1718 
G01 X13.6741 Y24.2525 
G01 X13.7159 Y24.3249 
G01 X13.7751 Y24.3841 
G01 X15.6525 Y26.2615 
G01 X15.6525 Y27.6797 
G01 X15.6259 Y27.6907 
G01 X15.5937 Y27.7229 
G01 X15.5763 Y27.7649 
G01 X15.5763 Y29.0803 
G01 X15.5937 Y29.1223 
G01 X15.6259 Y29.1545 
G01 X15.6525 Y29.1655 
G01 X15.6525 Y31.0341 
G01 X15.5191 Y31.0341 
G01 X15.4771 Y31.0515 
G01 X15.4449 Y31.0837 
G01 X15.4275 Y31.1257 
G01 X15.4275 Y32.1711 
G01 X15.4449 Y32.2131 
G01 X15.4771 Y32.2453 
G01 X15.5191 Y32.2627 
G01 X15.7743 Y32.2627 
G01 X15.7743 Y32.6436 
G01 X15.7959 Y32.7244 
G01 X15.8377 Y32.7967 
G01 X16.4767 Y33.4357 
G01 X16.4767 Y33.9318 
G01 X16.8682 Y34.3233 
G01 X17.4218 Y34.3233 
G01 X17.8133 Y33.9318 
G01 X17.8133 Y33.3782 
G01 X17.4218 Y32.9867 
G01 X16.9257 Y32.9867 
G01 X16.4093 Y32.4703 
G01 X16.4093 Y32.2627 
G01 X16.6645 Y32.2627 
G01 X16.7065 Y32.2453 
G01 X16.7387 Y32.2131 
G01 X16.7561 Y32.1711 
G01 X16.7561 Y31.1257 
G01 X16.7387 Y31.0837 
G01 X16.7065 Y31.0515 
G01 X16.6645 Y31.0341 
G01 X16.2875 Y31.0341 
G01 X16.2875 Y29.1655 
G01 X16.3141 Y29.1545 
G01 X16.3463 Y29.1223 
G01 X16.3637 Y29.0803 
G01 X16.3637 Y27.7649 
G01 X16.3463 Y27.7229 
G01 X16.3141 Y27.6907 
G01 X16.2875 Y27.6797 
G01 X16.2875 Y26.0882 
G01 X16.2659 Y26.0074 
G01 X16.2241 Y25.9351 
G01 X14.2875 Y23.9985 
G01 X14.2875 Y21.9075 
G01 X14.6468 Y21.9075 
G01 X14.7276 Y21.8859 
G01 X14.7999 Y21.8441 
G01 X14.8591 Y21.7849 
G01 X15.4241 Y21.2199 
G01 X15.4659 Y21.1475 
G01 X15.4875 Y21.0668 
G01 X15.4875 Y20.5803 
G01 X15.5141 Y20.5693 
G01 X15.5463 Y20.5371 
G01 X15.5637 Y20.4951 
G01 X15.5637 Y19.8073 
G01 X15.5763 Y19.8544 
G01 X15.5763 Y20.4951 
G01 X15.5937 Y20.5371 
G01 X15.6259 Y20.5693 
G01 X15.6679 Y20.5867 
G01 X16.2721 Y20.5867 
G01 X16.3141 Y20.5693 
G01 X16.3463 Y20.5371 
G01 X16.3637 Y20.4951 
G01 X16.3637 Y19.1797 
G01 X16.3463 Y19.1377 
G01 X16.3141 Y19.1055 
G01 X16.2819 Y19.0921 
G01 X16.8595 Y18.5145 
G01 X16.9013 Y18.4422 
G01 X16.9229 Y18.3614 
G01 X16.9229 Y17.9160 
G01 X16.9013 Y17.8354 
G01 X16.9216 Y17.8003 
G01 X16.9447 Y17.7140 
G01 X16.9447 Y16.1696 
G01 X16.9216 Y16.0833 
G01 X16.8769 Y16.0060 
G01 X16.8467 Y15.9758 
G01 X16.8467 Y15.8778 
G01 X16.8100 Y15.7891 
G01 X16.7421 Y15.7212 
G01 X16.6534 Y15.6845 
G01 X16.5574 Y15.6845 
G01 X16.4687 Y15.7212 
G01 X16.4008 Y15.7891 
G01 X16.3641 Y15.8778 
G01 X16.3641 Y15.9758 
G01 X16.3339 Y16.0060 
G01 X16.2892 Y16.0833 
G01 X16.2661 Y16.1696 
G01 X16.2661 Y17.7140 
G01 X16.2892 Y17.8003 
G01 X16.3095 Y17.8354 
G01 X16.2879 Y17.9160 
G01 X16.2879 Y18.1881 
G01 X15.6800 Y18.7959 
G01 X15.6209 Y18.8550 
G01 X15.5791 Y18.9274 
G01 X15.5575 Y19.0082 
G01 X15.5575 Y19.1647 
G01 X15.5463 Y19.1377 
G01 X15.5141 Y19.1055 
G01 X15.4721 Y19.0881 
G01 X14.8679 Y19.0881 
G01 X14.8259 Y19.1055 
G01 X14.7937 Y19.1377 
G01 X14.7763 Y19.1797 
G01 X14.7763 Y20.4951 
G01 X14.7937 Y20.5371 
G01 X14.8259 Y20.5693 
G01 X14.8525 Y20.5803 
G01 X14.8525 Y20.8935 
G01 X14.4735 Y21.2725 
G01 X14.1015 Y21.2725 
G01 X13.8875 Y21.0585 
G01 X13.8875 Y20.5803 
G01 X13.9141 Y20.5693 
G01 X13.9463 Y20.5371 
G01 X13.9637 Y20.4951 
G01 X13.9637 Y19.1797 
G01 X13.9463 Y19.1377 
G01 X13.9141 Y19.1055 
G01 X13.9065 Y19.1023 
G01 X13.9065 Y17.0225 
G01 X14.1015 Y16.8275 
G01 X14.2447 Y16.8275 
G01 X14.2447 Y17.1707 
G01 X14.2621 Y17.2127 
G01 X14.2943 Y17.2449 
G01 X14.3363 Y17.2623 
G01 X15.3817 Y17.2623 
G01 X15.4237 Y17.2449 
G01 X15.4559 Y17.2127 
G01 X15.4733 Y17.1707 
G01 X15.4733 Y16.0253 
G01 X15.4559 Y15.9833 
G01 X15.4237 Y15.9511 
G01 X15.3817 Y15.9337 
G01 X14.3363 Y15.9337 
G01 X14.2943 Y15.9511 
G01 X14.2621 Y15.9833 
G01 X14.2447 Y16.0253 
G01 X14.2447 Y16.1925 
G01 X13.9282 Y16.1925 
G01 X13.8474 Y16.2141 
G01 X13.7751 Y16.2559 
G01 X13.7159 Y16.3150 
G01 X13.3349 Y16.6960 
G00 Z2.5400 
G00 X16.3937 Y19.1377 
G01 Z-0.1778 F254.00 
G01 X16.3763 Y19.1797 F508.00 
G01 X16.3763 Y20.4951 
G01 X16.3937 Y20.5371 
G01 X16.4259 Y20.5693 
G01 X16.4679 Y20.5867 
G01 X17.0721 Y20.5867 
G01 X17.1141 Y20.5693 
G01 X17.1463 Y20.5371 
G01 X17.1637 Y20.4951 
G01 X17.1637 Y20.1549 
G01 X18.9394 Y20.1549 
G01 X19.0202 Y20.1333 
G01 X19.0925 Y20.0915 
G01 X19.2449 Y19.9391 
G01 X19.3041 Y19.8799 
G01 X19.3459 Y19.8075 
G01 X19.3675 Y19.7268 
G01 X19.3675 Y17.9606 
G01 X19.3459 Y17.8798 
G01 X19.3107 Y17.8190 
G01 X19.3216 Y17.8003 
G01 X19.3447 Y17.7140 
G01 X19.3447 Y16.1696 
G01 X19.3216 Y16.0833 
G01 X19.2769 Y16.0060 
G01 X19.2467 Y15.9758 
G01 X19.2467 Y15.8778 
G01 X19.2100 Y15.7891 
G01 X19.1421 Y15.7212 
G01 X19.0534 Y15.6845 
G01 X18.9574 Y15.6845 
G01 X18.8687 Y15.7212 
G01 X18.8008 Y15.7891 
G01 X18.7641 Y15.8778 
G01 X18.7641 Y15.9758 
G01 X18.7339 Y16.0060 
G01 X18.6892 Y16.0833 
G01 X18.6661 Y16.1696 
G01 X18.6661 Y17.7140 
G01 X18.6892 Y17.8003 
G01 X18.7095 Y17.8354 
G01 X18.6879 Y17.9160 
G01 X18.6879 Y17.9996 
G01 X18.7095 Y18.0803 
G01 X18.7325 Y18.1201 
G01 X18.7325 Y19.5199 
G01 X17.1637 Y19.5199 
G01 X17.1637 Y19.1797 
G01 X17.1463 Y19.1377 
G01 X17.1141 Y19.1055 
G01 X17.0721 Y19.0881 
G01 X16.4679 Y19.0881 
G01 X16.4259 Y19.1055 
G01 X16.3937 Y19.1377 
G00 Z2.5400 
G00 X17.5307 Y20.9859 
G01 Z-0.1778 F254.00 
G01 X17.5133 Y21.0279 F508.00 
G01 X17.5133 Y21.6321 
G01 X17.5307 Y21.6741 
G01 X17.5629 Y21.7063 
G01 X17.6049 Y21.7237 
G01 X18.9203 Y21.7237 
G01 X18.9623 Y21.7063 
G01 X18.9945 Y21.6741 
G01 X19.0055 Y21.6475 
G01 X19.9868 Y21.6475 
G01 X20.0676 Y21.6259 
G01 X20.1399 Y21.5841 
G01 X20.4515 Y21.2725 
G01 X37.3335 Y21.2725 
G01 X37.7825 Y21.7215 
G01 X37.7825 Y22.6568 
G01 X37.7090 Y22.6872 
G01 X37.5738 Y22.7776 
G01 X37.4588 Y22.8926 
G01 X37.3685 Y23.0278 
G01 X37.3062 Y23.1780 
G01 X37.2745 Y23.3375 
G01 X37.2745 Y24.9225 
G01 X37.3062 Y25.0820 
G01 X37.3685 Y25.2322 
G01 X37.4588 Y25.3674 
G01 X37.5738 Y25.4824 
G01 X37.7090 Y25.5727 
G01 X37.8592 Y25.6350 
G01 X38.0187 Y25.6667 
G01 X38.1813 Y25.6667 
G01 X38.3408 Y25.6350 
G01 X38.4910 Y25.5727 
G01 X38.6262 Y25.4824 
G01 X38.7412 Y25.3674 
G01 X38.8315 Y25.2322 
G01 X38.8938 Y25.0820 
G01 X38.9255 Y24.9225 
G01 X38.9255 Y23.3375 
G01 X38.8938 Y23.1780 
G01 X38.8315 Y23.0278 
G01 X38.7412 Y22.8926 
G01 X38.6262 Y22.7776 
G01 X38.4910 Y22.6872 
G01 X38.4175 Y22.6568 
G01 X38.4175 Y21.5482 
G01 X38.3959 Y21.4674 
G01 X38.3541 Y21.3951 
G01 X38.2949 Y21.3359 
G01 X37.6599 Y20.7009 
G01 X37.5876 Y20.6591 
G01 X37.5068 Y20.6375 
G01 X20.2782 Y20.6375 
G01 X20.1974 Y20.6591 
G01 X20.1251 Y20.7009 
G01 X20.0659 Y20.7600 
G01 X19.8135 Y21.0125 
G01 X19.0055 Y21.0125 
G01 X18.9945 Y20.9859 
G01 X18.9623 Y20.9537 
G01 X18.9203 Y20.9363 
G01 X17.6049 Y20.9363 
G01 X17.5629 Y20.9537 
G01 X17.5307 Y20.9859 
G00 Z2.5400 
G00 X17.5307 Y21.7859 
G01 Z-0.1778 F254.00 
G01 X17.5133 Y21.8279 F508.00 
G01 X17.5133 Y22.4321 
G01 X17.5307 Y22.4741 
G01 X17.5629 Y22.5063 
G01 X17.6049 Y22.5237 
G01 X18.9203 Y22.5237 
G01 X18.9623 Y22.5063 
G01 X18.9945 Y22.4741 
G01 X19.0055 Y22.4475 
G01 X24.5385 Y22.4475 
G01 X24.8712 Y22.7802 
G01 X24.7588 Y22.8926 
G01 X24.6684 Y23.0278 
G01 X24.6062 Y23.1780 
G01 X24.5745 Y23.3375 
G01 X24.5745 Y24.9225 
G01 X24.6062 Y25.0820 
G01 X24.6684 Y25.2322 
G01 X24.7588 Y25.3674 
G01 X24.8738 Y25.4824 
G01 X25.0090 Y25.5727 
G01 X25.1592 Y25.6350 
G01 X25.3187 Y25.6667 
G01 X25.4813 Y25.6667 
G01 X25.6408 Y25.6350 
G01 X25.7910 Y25.5727 
G01 X25.9262 Y25.4824 
G01 X26.0412 Y25.3674 
G01 X26.1315 Y25.2322 
G01 X26.1938 Y25.0820 
G01 X26.2255 Y24.9225 
G01 X26.2255 Y23.3375 
G01 X26.1938 Y23.1780 
G01 X26.1315 Y23.0278 
G01 X26.0412 Y22.8926 
G01 X25.9262 Y22.7776 
G01 X25.7910 Y22.6872 
G01 X25.6408 Y22.6250 
G01 X25.6074 Y22.6184 
G01 X24.8649 Y21.8759 
G01 X24.7925 Y21.8341 
G01 X24.7118 Y21.8125 
G01 X19.0055 Y21.8125 
G01 X18.9945 Y21.7859 
G01 X18.9623 Y21.7537 
G01 X18.9203 Y21.7363 
G01 X17.6049 Y21.7363 
G01 X17.5629 Y21.7537 
G01 X17.5307 Y21.7859 
G00 Z2.5400 
G00 X17.5307 Y22.5859 
G01 Z-0.1778 F254.00 
G01 X17.5133 Y22.6279 F508.00 
G01 X17.5133 Y23.2321 
G01 X17.5307 Y23.2741 
G01 X17.5629 Y23.3063 
G01 X17.6049 Y23.3237 
G01 X18.9203 Y23.3237 
G01 X18.9623 Y23.3063 
G01 X18.9945 Y23.2741 
G01 X19.0055 Y23.2475 
G01 X20.8935 Y23.2475 
G01 X21.2725 Y23.6265 
G01 X21.2725 Y25.4418 
G01 X21.2941 Y25.5225 
G01 X21.3359 Y25.5949 
G01 X21.3951 Y25.6541 
G01 X21.9709 Y26.2299 
G01 X22.0300 Y26.2891 
G01 X22.1024 Y26.3309 
G01 X22.1832 Y26.3525 
G01 X35.4285 Y26.3525 
G01 X37.7825 Y28.7065 
G01 X37.7825 Y31.5468 
G01 X37.7090 Y31.5772 
G01 X37.5738 Y31.6676 
G01 X37.4588 Y31.7826 
G01 X37.3685 Y31.9178 
G01 X37.3062 Y32.0680 
G01 X37.2745 Y32.2275 
G01 X37.2745 Y33.8125 
G01 X37.3062 Y33.9720 
G01 X37.3685 Y34.1222 
G01 X37.4588 Y34.2574 
G01 X37.5738 Y34.3724 
G01 X37.7090 Y34.4627 
G01 X37.8592 Y34.5250 
G01 X38.0187 Y34.5567 
G01 X38.1813 Y34.5567 
G01 X38.3408 Y34.5250 
G01 X38.4910 Y34.4627 
G01 X38.6262 Y34.3724 
G01 X38.7412 Y34.2574 
G01 X38.8315 Y34.1222 
G01 X38.8938 Y33.9720 
G01 X38.9255 Y33.8125 
G01 X38.9255 Y32.2275 
G01 X38.8938 Y32.0680 
G01 X38.8315 Y31.9178 
G01 X38.7412 Y31.7826 
G01 X38.6262 Y31.6676 
G01 X38.4910 Y31.5772 
G01 X38.4175 Y31.5468 
G01 X38.4175 Y28.5332 
G01 X38.3959 Y28.4524 
G01 X38.3541 Y28.3801 
G01 X38.2949 Y28.3209 
G01 X35.7549 Y25.7809 
G01 X35.6825 Y25.7391 
G01 X35.6018 Y25.7175 
G01 X22.3565 Y25.7175 
G01 X21.9075 Y25.2685 
G01 X21.9075 Y23.4532 
G01 X21.8859 Y23.3724 
G01 X21.8441 Y23.3000 
G01 X21.7849 Y23.2409 
G01 X21.2199 Y22.6759 
G01 X21.1475 Y22.6341 
G01 X21.0668 Y22.6125 
G01 X19.0055 Y22.6125 
G01 X18.9945 Y22.5859 
G01 X18.9623 Y22.5537 
G01 X18.9203 Y22.5363 
G01 X17.6049 Y22.5363 
G01 X17.5629 Y22.5537 
G01 X17.5307 Y22.5859 
G00 Z2.5400 
G00 X17.5307 Y23.3859 
G01 Z-0.1778 F254.00 
G01 X17.5133 Y23.4279 F508.00 
G01 X17.5133 Y24.0321 
G01 X17.5307 Y24.0741 
G01 X17.5629 Y24.1063 
G01 X17.6049 Y24.1237 
G01 X18.9203 Y24.1237 
G01 X18.9623 Y24.1063 
G01 X18.9945 Y24.0741 
G01 X19.0055 Y24.0475 
G01 X20.4235 Y24.0475 
G01 X20.6375 Y24.2615 
G01 X20.6375 Y26.0768 
G01 X20.6591 Y26.1576 
G01 X20.7009 Y26.2299 
G01 X22.6059 Y28.1349 
G01 X22.6651 Y28.1941 
G01 X22.7374 Y28.2359 
G01 X22.8182 Y28.2575 
G01 X24.6335 Y28.2575 
G01 X25.0825 Y28.7065 
G01 X25.0825 Y31.5468 
G01 X25.0090 Y31.5772 
G01 X24.8738 Y31.6676 
G01 X24.7588 Y31.7826 
G01 X24.6684 Y31.9178 
G01 X24.6062 Y32.0680 
G01 X24.5745 Y32.2275 
G01 X24.5745 Y33.8125 
G01 X24.6062 Y33.9720 
G01 X24.6684 Y34.1222 
G01 X24.7588 Y34.2574 
G01 X24.8738 Y34.3724 
G01 X25.0090 Y34.4627 
G01 X25.1592 Y34.5250 
G01 X25.3187 Y34.5567 
G01 X25.4813 Y34.5567 
G01 X25.6408 Y34.5250 
G01 X25.7910 Y34.4627 
G01 X25.9262 Y34.3724 
G01 X26.0412 Y34.2574 
G01 X26.1315 Y34.1222 
G01 X26.1938 Y33.9720 
G01 X26.2255 Y33.8125 
G01 X26.2255 Y32.2275 
G01 X26.1938 Y32.0680 
G01 X26.1315 Y31.9178 
G01 X26.0412 Y31.7826 
G01 X25.9262 Y31.6676 
G01 X25.7910 Y31.5772 
G01 X25.7175 Y31.5468 
G01 X25.7175 Y28.5332 
G01 X25.6959 Y28.4524 
G01 X25.6541 Y28.3801 
G01 X25.5949 Y28.3209 
G01 X24.9599 Y27.6859 
G01 X24.8876 Y27.6441 
G01 X24.8068 Y27.6225 
G01 X22.9915 Y27.6225 
G01 X21.2725 Y25.9035 
G01 X21.2725 Y24.0882 
G01 X21.2509 Y24.0074 
G01 X21.2091 Y23.9351 
G01 X21.1499 Y23.8759 
G01 X20.7499 Y23.4759 
G01 X20.6776 Y23.4341 
G01 X20.5968 Y23.4125 
G01 X19.0055 Y23.4125 
G01 X18.9945 Y23.3859 
G01 X18.9623 Y23.3537 
G01 X18.9203 Y23.3363 
G01 X17.6049 Y23.3363 
G01 X17.5629 Y23.3537 
G01 X17.5307 Y23.3859 
G00 Z2.5400 
G00 X17.5307 Y24.1859 
G01 Z-0.1778 F254.00 
G01 X17.5133 Y24.2279 F508.00 
G01 X17.5133 Y24.8321 
G01 X17.5307 Y24.8741 
G01 X17.5629 Y24.9063 
G01 X17.6049 Y24.9237 
G01 X18.9203 Y24.9237 
G01 X18.9623 Y24.9063 
G01 X18.9945 Y24.8741 
G01 X19.0055 Y24.8475 
G01 X19.9535 Y24.8475 
G01 X20.0025 Y24.8965 
G01 X20.0025 Y26.7118 
G01 X20.0241 Y26.7925 
G01 X20.0659 Y26.8649 
G01 X21.2725 Y28.0715 
G01 X21.2725 Y34.9668 
G01 X21.2941 Y35.0476 
G01 X21.3359 Y35.1199 
G01 X21.9709 Y35.7549 
G01 X22.0300 Y35.8141 
G01 X22.1024 Y35.8559 
G01 X22.1832 Y35.8775 
G01 X35.4285 Y35.8775 
G01 X37.7825 Y38.2315 
G01 X37.7825 Y39.1668 
G01 X37.7090 Y39.1972 
G01 X37.5738 Y39.2876 
G01 X37.4588 Y39.4026 
G01 X37.3685 Y39.5378 
G01 X37.3062 Y39.6880 
G01 X37.2745 Y39.8475 
G01 X37.2745 Y41.4325 
G01 X37.3062 Y41.5920 
G01 X37.3685 Y41.7422 
G01 X37.4588 Y41.8774 
G01 X37.5738 Y41.9924 
G01 X37.7090 Y42.0827 
G01 X37.8592 Y42.1450 
G01 X38.0187 Y42.1767 
G01 X38.1813 Y42.1767 
G01 X38.3408 Y42.1450 
G01 X38.4910 Y42.0827 
G01 X38.6262 Y41.9924 
G01 X38.7412 Y41.8774 
G01 X38.8315 Y41.7422 
G01 X38.8938 Y41.5920 
G01 X38.9255 Y41.4325 
G01 X38.9255 Y39.8475 
G01 X38.8938 Y39.6880 
G01 X38.8315 Y39.5378 
G01 X38.7412 Y39.4026 
G01 X38.6262 Y39.2876 
G01 X38.4910 Y39.1972 
G01 X38.4175 Y39.1668 
G01 X38.4175 Y38.0582 
G01 X38.3959 Y37.9774 
G01 X38.3541 Y37.9051 
G01 X38.2949 Y37.8459 
G01 X35.7549 Y35.3059 
G01 X35.6825 Y35.2641 
G01 X35.6018 Y35.2425 
G01 X22.3565 Y35.2425 
G01 X21.9075 Y34.7935 
G01 X21.9075 Y27.8982 
G01 X21.8859 Y27.8174 
G01 X21.8441 Y27.7450 
G01 X21.7849 Y27.6859 
G01 X20.6375 Y26.5385 
G01 X20.6375 Y24.7232 
G01 X20.6159 Y24.6424 
G01 X20.5741 Y24.5700 
G01 X20.5149 Y24.5109 
G01 X20.2799 Y24.2759 
G01 X20.2076 Y24.2341 
G01 X20.1268 Y24.2125 
G01 X19.0055 Y24.2125 
G01 X18.9945 Y24.1859 
G01 X18.9623 Y24.1537 
G01 X18.9203 Y24.1363 
G01 X17.6049 Y24.1363 
G01 X17.5629 Y24.1537 
G01 X17.5307 Y24.1859 
G00 Z2.5400 
G00 X17.5307 Y24.9859 
G01 Z-0.1778 F254.00 
G01 X17.5133 Y25.0279 F508.00 
G01 X17.5133 Y25.6321 
G01 X17.5307 Y25.6741 
G01 X17.5629 Y25.7063 
G01 X17.6049 Y25.7237 
G01 X18.9203 Y25.7237 
G01 X18.9623 Y25.7063 
G01 X18.9945 Y25.6741 
G01 X19.0055 Y25.6475 
G01 X19.3675 Y25.6475 
G01 X19.3675 Y27.3468 
G01 X19.3891 Y27.4276 
G01 X19.4309 Y27.4999 
G01 X20.6375 Y28.7065 
G01 X20.6375 Y35.6018 
G01 X20.6591 Y35.6825 
G01 X20.7009 Y35.7549 
G01 X21.9709 Y37.0249 
G01 X22.0300 Y37.0841 
G01 X22.1024 Y37.1259 
G01 X22.1832 Y37.1475 
G01 X24.6335 Y37.1475 
G01 X25.0825 Y37.5965 
G01 X25.0825 Y39.1668 
G01 X25.0090 Y39.1972 
G01 X24.8738 Y39.2876 
G01 X24.7588 Y39.4026 
G01 X24.6684 Y39.5378 
G01 X24.6062 Y39.6880 
G01 X24.5745 Y39.8475 
G01 X24.5745 Y41.4325 
G01 X24.6062 Y41.5920 
G01 X24.6684 Y41.7422 
G01 X24.7588 Y41.8774 
G01 X24.8738 Y41.9924 
G01 X25.0090 Y42.0827 
G01 X25.1592 Y42.1450 
G01 X25.3187 Y42.1767 
G01 X25.4813 Y42.1767 
G01 X25.6408 Y42.1450 
G01 X25.7910 Y42.0827 
G01 X25.9262 Y41.9924 
G01 X26.0412 Y41.8774 
G01 X26.1315 Y41.7422 
G01 X26.1938 Y41.5920 
G01 X26.2255 Y41.4325 
G01 X26.2255 Y39.8475 
G01 X26.1938 Y39.6880 
G01 X26.1315 Y39.5378 
G01 X26.0412 Y39.4026 
G01 X25.9262 Y39.2876 
G01 X25.7910 Y39.1972 
G01 X25.7175 Y39.1668 
G01 X25.7175 Y37.4232 
G01 X25.6959 Y37.3424 
G01 X25.6541 Y37.2700 
G01 X25.5949 Y37.2109 
G01 X24.9599 Y36.5759 
G01 X24.8876 Y36.5341 
G01 X24.8068 Y36.5125 
G01 X22.3565 Y36.5125 
G01 X21.2725 Y35.4285 
G01 X21.2725 Y28.5332 
G01 X21.2509 Y28.4524 
G01 X21.2091 Y28.3801 
G01 X21.1499 Y28.3209 
G01 X20.0025 Y27.1735 
G01 X20.0025 Y25.3582 
G01 X19.9809 Y25.2774 
G01 X19.9391 Y25.2050 
G01 X19.8799 Y25.1459 
G01 X19.8099 Y25.0759 
G01 X19.7375 Y25.0341 
G01 X19.6568 Y25.0125 
G01 X19.0055 Y25.0125 
G01 X18.9945 Y24.9859 
G01 X18.9623 Y24.9537 
G01 X18.9203 Y24.9363 
G01 X17.6049 Y24.9363 
G01 X17.5629 Y24.9537 
G01 X17.5307 Y24.9859 
G00 Z2.5400 
G00 X17.5307 Y25.7859 
G01 Z-0.1778 F254.00 
G01 X17.5133 Y25.8279 F508.00 
G01 X17.5133 Y26.4321 
G01 X17.5307 Y26.4741 
G01 X17.5629 Y26.5063 
G01 X17.6049 Y26.5237 
G01 X18.9203 Y26.5237 
G01 X18.9623 Y26.5063 
G01 X18.9945 Y26.4741 
G01 X19.0119 Y26.4321 
G01 X19.0119 Y25.8279 
G01 X18.9945 Y25.7859 
G01 X18.9623 Y25.7537 
G01 X18.9203 Y25.7363 
G01 X17.6049 Y25.7363 
G01 X17.5629 Y25.7537 
G01 X17.5307 Y25.7859 
G00 Z2.5400 
G00 X17.5307 Y26.5859 
G01 Z-0.1778 F254.00 
G01 X17.5133 Y26.6279 F508.00 
G01 X17.5133 Y27.2321 
G01 X17.5307 Y27.2741 
G01 X17.5629 Y27.3063 
G01 X17.6049 Y27.3237 
G01 X18.9203 Y27.3237 
G01 X18.9623 Y27.3063 
G01 X18.9945 Y27.2741 
G01 X19.0119 Y27.2321 
G01 X19.0119 Y26.6279 
G01 X18.9945 Y26.5859 
G01 X18.9623 Y26.5537 
G01 X18.9203 Y26.5363 
G01 X17.6049 Y26.5363 
G01 X17.5629 Y26.5537 
G01 X17.5307 Y26.5859 
G00 Z2.5400 
G00 X17.1141 Y27.6907 
G01 Z-0.1778 F254.00 
G01 X17.0721 Y27.6733 F508.00 
G01 X16.4679 Y27.6733 
G01 X16.4259 Y27.6907 
G01 X16.3937 Y27.7229 
G01 X16.3763 Y27.7649 
G01 X16.3763 Y29.0803 
G01 X16.3937 Y29.1223 
G01 X16.4259 Y29.1545 
G01 X16.4525 Y29.1655 
G01 X16.4525 Y29.5118 
G01 X16.4741 Y29.5925 
G01 X16.5159 Y29.6649 
G01 X16.8909 Y30.0399 
G01 X16.9501 Y30.0991 
G01 X17.0224 Y30.1409 
G01 X17.1032 Y30.1625 
G01 X18.6897 Y30.1625 
G01 X18.6897 Y30.3805 
G01 X18.7071 Y30.4225 
G01 X18.7393 Y30.4547 
G01 X18.7813 Y30.4721 
G01 X19.8267 Y30.4721 
G01 X19.8687 Y30.4547 
G01 X19.9009 Y30.4225 
G01 X19.9183 Y30.3805 
G01 X19.9183 Y29.2351 
G01 X19.9009 Y29.1931 
G01 X19.8687 Y29.1609 
G01 X19.8267 Y29.1435 
G01 X18.7813 Y29.1435 
G01 X18.7393 Y29.1609 
G01 X18.7071 Y29.1931 
G01 X18.6897 Y29.2351 
G01 X18.6897 Y29.5275 
G01 X17.2765 Y29.5275 
G01 X17.0875 Y29.3385 
G01 X17.0875 Y29.1655 
G01 X17.1141 Y29.1545 
G01 X17.1463 Y29.1223 
G01 X17.1637 Y29.0803 
G01 X17.1637 Y27.7649 
G01 X17.1463 Y27.7229 
G01 X17.1141 Y27.6907 
G00 Z2.5400 
G00 X15.5141 Y27.6907 
G01 Z-0.1778 F254.00 
G01 X15.4721 Y27.6733 F508.00 
G01 X14.8679 Y27.6733 
G01 X14.8259 Y27.6907 
G01 X14.7937 Y27.7229 
G01 X14.7763 Y27.7649 
G01 X14.7763 Y29.0803 
G01 X14.7937 Y29.1223 
G01 X14.8259 Y29.1545 
G01 X14.8679 Y29.1719 
G01 X15.4721 Y29.1719 
G01 X15.5141 Y29.1545 
G01 X15.5463 Y29.1223 
G01 X15.5637 Y29.0803 
G01 X15.5637 Y27.7649 
G01 X15.5463 Y27.7229 
G01 X15.5141 Y27.6907 
G00 Z2.5400 
G00 X14.7141 Y27.6907 
G01 Z-0.1778 F254.00 
G01 X14.6721 Y27.6733 F508.00 
G01 X14.0679 Y27.6733 
G01 X14.0259 Y27.6907 
G01 X13.9937 Y27.7229 
G01 X13.9763 Y27.7649 
G01 X13.9763 Y29.0803 
G01 X13.9937 Y29.1223 
G01 X14.0259 Y29.1545 
G01 X14.0525 Y29.1655 
G01 X14.0525 Y31.6183 
G01 X13.5107 Y31.6183 
G01 X13.4687 Y31.6357 
G01 X13.4365 Y31.6679 
G01 X13.4191 Y31.7099 
G01 X13.4191 Y32.7553 
G01 X13.4365 Y32.7973 
G01 X13.4687 Y32.8295 
G01 X13.5107 Y32.8469 
G01 X14.6561 Y32.8469 
G01 X14.6981 Y32.8295 
G01 X14.7303 Y32.7973 
G01 X14.7477 Y32.7553 
G01 X14.7477 Y31.7099 
G01 X14.7303 Y31.6679 
G01 X14.6981 Y31.6357 
G01 X14.6875 Y31.6313 
G01 X14.6875 Y29.1655 
G01 X14.7141 Y29.1545 
G01 X14.7463 Y29.1223 
G01 X14.7637 Y29.0803 
G01 X14.7637 Y27.7649 
G01 X14.7463 Y27.7229 
G01 X14.7141 Y27.6907 
G00 Z2.5400 
G00 X13.1141 Y27.6907 
G01 Z-0.1778 F254.00 
G01 X13.0721 Y27.6733 F508.00 
G01 X12.4679 Y27.6733 
G01 X12.4259 Y27.6907 
G01 X12.3937 Y27.7229 
G01 X12.3763 Y27.7649 
G01 X12.3763 Y29.0803 
G01 X12.3937 Y29.1223 
G01 X12.4259 Y29.1545 
G01 X12.4679 Y29.1719 
G01 X13.0721 Y29.1719 
G01 X13.1141 Y29.1545 
G01 X13.1463 Y29.1223 
G01 X13.1637 Y29.0803 
G01 X13.1637 Y27.7649 
G01 X13.1463 Y27.7229 
G01 X13.1141 Y27.6907 
G00 Z2.5400 
G00 X12.3141 Y27.6907 
G01 Z-0.1778 F254.00 
G01 X12.2721 Y27.6733 F508.00 
G01 X11.6679 Y27.6733 
G01 X11.6259 Y27.6907 
G01 X11.5937 Y27.7229 
G01 X11.5763 Y27.7649 
G01 X11.5763 Y29.0803 
G01 X11.5937 Y29.1223 
G01 X11.6259 Y29.1545 
G01 X11.6525 Y29.1655 
G01 X11.6525 Y30.4435 
G01 X11.0143 Y31.0817 
G01 X10.5182 Y31.0817 
G01 X10.1267 Y31.4732 
G01 X10.1267 Y32.0268 
G01 X10.5182 Y32.4183 
G01 X11.0718 Y32.4183 
G01 X11.4633 Y32.0268 
G01 X11.4633 Y31.5307 
G01 X12.2241 Y30.7699 
G01 X12.2659 Y30.6975 
G01 X12.2875 Y30.6168 
G01 X12.2875 Y29.1655 
G01 X12.3141 Y29.1545 
G01 X12.3463 Y29.1223 
G01 X12.3637 Y29.0803 
G01 X12.3637 Y27.7649 
G01 X12.3463 Y27.7229 
G01 X12.3141 Y27.6907 
G00 Z2.5400 
G00 X11.5141 Y27.6907 
G01 Z-0.1778 F254.00 
G01 X11.4721 Y27.6733 F508.00 
G01 X10.8679 Y27.6733 
G01 X10.8259 Y27.6907 
G01 X10.7937 Y27.7229 
G01 X10.7763 Y27.7649 
G01 X10.7763 Y29.0803 
G01 X10.7937 Y29.1223 
G01 X10.8259 Y29.1545 
G01 X10.8525 Y29.1655 
G01 X10.8525 Y29.1767 
G01 X10.5182 Y29.1767 
G01 X10.1267 Y29.5682 
G01 X10.1267 Y30.1218 
G01 X10.5182 Y30.5133 
G01 X11.0718 Y30.5133 
G01 X11.4633 Y30.1218 
G01 X11.4633 Y29.5970 
G01 X11.4659 Y29.5925 
G01 X11.4875 Y29.5118 
G01 X11.4875 Y29.1655 
G01 X11.5141 Y29.1545 
G01 X11.5463 Y29.1223 
G01 X11.5637 Y29.0803 
G01 X11.5637 Y27.7649 
G01 X11.5463 Y27.7229 
G01 X11.5141 Y27.6907 
G00 Z2.5400 
G00 X10.4093 Y27.2741 
G01 Z-0.1778 F254.00 
G01 X10.4267 Y27.2321 F508.00 
G01 X10.4267 Y26.6279 
G01 X10.4093 Y26.5859 
G01 X10.3771 Y26.5537 
G01 X10.3351 Y26.5363 
G01 X9.0197 Y26.5363 
G01 X8.9777 Y26.5537 
G01 X8.9455 Y26.5859 
G01 X8.9281 Y26.6279 
G01 X8.9281 Y27.2321 
G01 X8.9455 Y27.2741 
G01 X8.9777 Y27.3063 
G01 X9.0197 Y27.3237 
G01 X9.3599 Y27.3237 
G01 X9.3599 Y28.2911 
G01 X9.1093 Y28.5417 
G01 X8.6132 Y28.5417 
G01 X8.2217 Y28.9332 
G01 X8.2217 Y29.4868 
G01 X8.6132 Y29.8783 
G01 X9.1668 Y29.8783 
G01 X9.5583 Y29.4868 
G01 X9.5583 Y28.9907 
G01 X9.9315 Y28.6175 
G01 X9.9733 Y28.5451 
G01 X9.9949 Y28.4644 
G01 X9.9949 Y27.3237 
G01 X10.3351 Y27.3237 
G01 X10.3771 Y27.3063 
G01 X10.4093 Y27.2741 
G00 Z2.5400 
G00 X10.4093 Y24.8741 
G01 Z-0.1778 F254.00 
G01 X10.4267 Y24.8321 F508.00 
G01 X10.4267 Y24.2279 
G01 X10.4093 Y24.1859 
G01 X10.3771 Y24.1537 
G01 X10.3351 Y24.1363 
G01 X9.0197 Y24.1363 
G01 X8.9777 Y24.1537 
G01 X8.9455 Y24.1859 
G01 X8.9281 Y24.2279 
G01 X8.9281 Y24.8321 
G01 X8.9455 Y24.8741 
G01 X8.9777 Y24.9063 
G01 X9.0197 Y24.9237 
G01 X10.3351 Y24.9237 
G01 X10.3771 Y24.9063 
G01 X10.4093 Y24.8741 
G00 Z2.5400 
G00 X10.4093 Y24.0741 
G01 Z-0.1778 F254.00 
G01 X10.4267 Y24.0321 F508.00 
G01 X10.4267 Y23.4279 
G01 X10.4093 Y23.3859 
G01 X10.3771 Y23.3537 
G01 X10.3351 Y23.3363 
G01 X9.0197 Y23.3363 
G01 X8.9777 Y23.3537 
G01 X8.9455 Y23.3859 
G01 X8.9345 Y23.4125 
G01 X8.6132 Y23.4125 
G01 X8.5324 Y23.4341 
G01 X8.4847 Y23.4617 
G01 X7.9782 Y23.4617 
G01 X7.5867 Y23.8532 
G01 X7.5867 Y24.4068 
G01 X7.9782 Y24.7983 
G01 X8.5318 Y24.7983 
G01 X8.9233 Y24.4068 
G01 X8.9233 Y24.0475 
G01 X8.9345 Y24.0475 
G01 X8.9455 Y24.0741 
G01 X8.9777 Y24.1063 
G01 X9.0197 Y24.1237 
G01 X10.3351 Y24.1237 
G01 X10.3771 Y24.1063 
G01 X10.4093 Y24.0741 
G00 Z2.5400 
G00 X10.4093 Y23.2741 
G01 Z-0.1778 F254.00 
G01 X10.4267 Y23.2321 F508.00 
G01 X10.4267 Y22.6279 
G01 X10.4093 Y22.5859 
G01 X10.3771 Y22.5537 
G01 X10.3351 Y22.5363 
G01 X9.0197 Y22.5363 
G01 X8.9777 Y22.5537 
G01 X8.9455 Y22.5859 
G01 X8.9345 Y22.6125 
G01 X7.1865 Y22.6125 
G01 X7.0183 Y22.4443 
G01 X7.0183 Y21.9482 
G01 X6.6268 Y21.5567 
G01 X6.0732 Y21.5567 
G01 X5.6817 Y21.9482 
G01 X5.6817 Y22.5018 
G01 X6.0732 Y22.8933 
G01 X6.5693 Y22.8933 
G01 X6.8601 Y23.1841 
G01 X6.9324 Y23.2259 
G01 X7.0132 Y23.2475 
G01 X8.9345 Y23.2475 
G01 X8.9455 Y23.2741 
G01 X8.9777 Y23.3063 
G01 X9.0197 Y23.3237 
G01 X10.3351 Y23.3237 
G01 X10.3771 Y23.3063 
G01 X10.4093 Y23.2741 
G00 Z2.5400 
G00 X10.4093 Y22.4741 
G01 Z-0.1778 F254.00 
G01 X10.4267 Y22.4321 F508.00 
G01 X10.4267 Y21.8279 
G01 X10.4093 Y21.7859 
G01 X10.3771 Y21.7537 
G01 X10.3351 Y21.7363 
G01 X9.0197 Y21.7363 
G01 X8.9777 Y21.7537 
G01 X8.9455 Y21.7859 
G01 X8.9345 Y21.8125 
G01 X8.9265 Y21.8125 
G01 X8.2883 Y21.1743 
G01 X8.2883 Y20.6782 
G01 X7.8968 Y20.2867 
G01 X7.3432 Y20.2867 
G01 X6.9517 Y20.6782 
G01 X6.9517 Y21.2318 
G01 X7.3432 Y21.6233 
G01 X7.8393 Y21.6233 
G01 X8.5409 Y22.3249 
G01 X8.6000 Y22.3841 
G01 X8.6724 Y22.4259 
G01 X8.7532 Y22.4475 
G01 X8.9345 Y22.4475 
G01 X8.9455 Y22.4741 
G01 X8.9777 Y22.5063 
G01 X9.0197 Y22.5237 
G01 X10.3351 Y22.5237 
G01 X10.3771 Y22.5063 
G01 X10.4093 Y22.4741 
G00 Z2.5400 
G00 X10.4093 Y21.6741 
G01 Z-0.1778 F254.00 
G01 X10.4267 Y21.6321 F508.00 
G01 X10.4267 Y21.0279 
G01 X10.4093 Y20.9859 
G01 X10.3771 Y20.9537 
G01 X10.3351 Y20.9363 
G01 X9.0197 Y20.9363 
G01 X8.9777 Y20.9537 
G01 X8.9455 Y20.9859 
G01 X8.9281 Y21.0279 
G01 X8.9281 Y21.6321 
G01 X8.9455 Y21.6741 
G01 X8.9777 Y21.7063 
G01 X9.0197 Y21.7237 
G01 X10.3351 Y21.7237 
G01 X10.3771 Y21.7063 
G01 X10.4093 Y21.6741 
G00 Z2.5400 
G00 X3.2267 Y23.3260 
G01 Z-0.1778 F254.00 
G01 X3.0925 Y23.2285 F508.00 
G01 X2.9446 Y23.1531 
G01 X2.7868 Y23.1019 
G01 X2.6230 Y23.0759 
G01 X2.4570 Y23.0759 
G01 X2.2932 Y23.1019 
G01 X2.1354 Y23.1531 
G01 X1.9875 Y23.2285 
G01 X1.8533 Y23.3260 
G01 X1.7360 Y23.4433 
G01 X1.6385 Y23.5775 
G01 X1.5631 Y23.7254 
G01 X1.5119 Y23.8832 
G01 X1.4859 Y24.0470 
G01 X1.4859 Y24.2130 
G01 X1.5119 Y24.3768 
G01 X1.5631 Y24.5346 
G01 X1.6385 Y24.6825 
G01 X1.7360 Y24.8167 
G01 X1.8533 Y24.9340 
G01 X1.9875 Y25.0315 
G01 X2.1354 Y25.1069 
G01 X2.2932 Y25.1581 
G01 X2.4570 Y25.1841 
G01 X2.6230 Y25.1841 
G01 X2.7868 Y25.1581 
G01 X2.9446 Y25.1069 
G01 X3.0925 Y25.0315 
G01 X3.2267 Y24.9340 
G01 X3.3440 Y24.8167 
G01 X3.4415 Y24.6825 
G01 X3.5169 Y24.5346 
G01 X3.5681 Y24.3768 
G01 X3.5941 Y24.2130 
G01 X3.5941 Y24.0470 
G01 X3.5681 Y23.8832 
G01 X3.5169 Y23.7254 
G01 X3.4415 Y23.5775 
G01 X3.3440 Y23.4433 
G01 X3.2267 Y23.3260 
G00 Z2.5400 
G00 X3.2267 Y25.8660 
G01 Z-0.1778 F254.00 
G01 X3.0925 Y25.7685 F508.00 
G01 X2.9446 Y25.6931 
G01 X2.7868 Y25.6419 
G01 X2.6230 Y25.6159 
G01 X2.4570 Y25.6159 
G01 X2.2932 Y25.6419 
G01 X2.1354 Y25.6931 
G01 X1.9875 Y25.7685 
G01 X1.8533 Y25.8660 
G01 X1.7360 Y25.9833 
G01 X1.6385 Y26.1175 
G01 X1.5631 Y26.2654 
G01 X1.5119 Y26.4232 
G01 X1.4859 Y26.5870 
G01 X1.4859 Y26.7530 
G01 X1.5119 Y26.9168 
G01 X1.5631 Y27.0746 
G01 X1.6385 Y27.2225 
G01 X1.7360 Y27.3567 
G01 X1.8533 Y27.4740 
G01 X1.9875 Y27.5715 
G01 X2.1354 Y27.6469 
G01 X2.2932 Y27.6981 
G01 X2.4570 Y27.7241 
G01 X2.6230 Y27.7241 
G01 X2.7868 Y27.6981 
G01 X2.9446 Y27.6469 
G01 X3.0925 Y27.5715 
G01 X3.2267 Y27.4740 
G01 X3.3440 Y27.3567 
G01 X3.4415 Y27.2225 
G01 X3.5169 Y27.0746 
G01 X3.5681 Y26.9168 
G01 X3.5941 Y26.7530 
G01 X3.5941 Y26.5870 
G01 X3.5681 Y26.4232 
G01 X3.5169 Y26.2654 
G01 X3.4415 Y26.1175 
G01 X3.3440 Y25.9833 
G01 X3.2267 Y25.8660 
G00 Z2.5400 
G00 X3.2267 Y28.4060 
G01 Z-0.1778 F254.00 
G01 X3.0925 Y28.3085 F508.00 
G01 X2.9446 Y28.2331 
G01 X2.7868 Y28.1819 
G01 X2.6230 Y28.1559 
G01 X2.4570 Y28.1559 
G01 X2.2932 Y28.1819 
G01 X2.1354 Y28.2331 
G01 X1.9875 Y28.3085 
G01 X1.8533 Y28.4060 
G01 X1.7360 Y28.5233 
G01 X1.6385 Y28.6575 
G01 X1.5631 Y28.8054 
G01 X1.5119 Y28.9632 
G01 X1.4859 Y29.1270 
G01 X1.4859 Y29.2930 
G01 X1.5119 Y29.4568 
G01 X1.5631 Y29.6146 
G01 X1.6385 Y29.7625 
G01 X1.7360 Y29.8967 
G01 X1.8533 Y30.0140 
G01 X1.9875 Y30.1115 
G01 X2.1354 Y30.1869 
G01 X2.2932 Y30.2381 
G01 X2.4570 Y30.2641 
G01 X2.6230 Y30.2641 
G01 X2.7868 Y30.2381 
G01 X2.9446 Y30.1869 
G01 X3.0925 Y30.1115 
G01 X3.2267 Y30.0140 
G01 X3.3440 Y29.8967 
G01 X3.4415 Y29.7625 
G01 X3.5169 Y29.6146 
G01 X3.5681 Y29.4568 
G01 X3.5941 Y29.2930 
G01 X3.5941 Y29.1270 
G01 X3.5681 Y28.9632 
G01 X3.5169 Y28.8054 
G01 X3.4415 Y28.6575 
G01 X3.3440 Y28.5233 
G01 X3.2267 Y28.4060 
G00 Z2.5400 
G00 X3.2267 Y30.9460 
G01 Z-0.1778 F254.00 
G01 X3.0925 Y30.8485 F508.00 
G01 X2.9446 Y30.7731 
G01 X2.7868 Y30.7219 
G01 X2.6230 Y30.6959 
G01 X2.4570 Y30.6959 
G01 X2.2932 Y30.7219 
G01 X2.1354 Y30.7731 
G01 X1.9875 Y30.8485 
G01 X1.8533 Y30.9460 
G01 X1.7360 Y31.0633 
G01 X1.6385 Y31.1975 
G01 X1.5631 Y31.3454 
G01 X1.5119 Y31.5032 
G01 X1.4859 Y31.6670 
G01 X1.4859 Y31.8330 
G01 X1.5119 Y31.9968 
G01 X1.5631 Y32.1546 
G01 X1.6385 Y32.3025 
G01 X1.7360 Y32.4367 
G01 X1.8533 Y32.5540 
G01 X1.9875 Y32.6515 
G01 X2.1354 Y32.7269 
G01 X2.2932 Y32.7781 
G01 X2.4570 Y32.8041 
G01 X2.6230 Y32.8041 
G01 X2.7868 Y32.7781 
G01 X2.9446 Y32.7269 
G01 X3.0925 Y32.6515 
G01 X3.2267 Y32.5540 
G01 X3.3440 Y32.4367 
G01 X3.4415 Y32.3025 
G01 X3.5169 Y32.1546 
G01 X3.5681 Y31.9968 
G01 X3.5941 Y31.8330 
G01 X3.5941 Y31.6670 
G01 X3.5681 Y31.5032 
G01 X3.5169 Y31.3454 
G01 X3.4415 Y31.1975 
G01 X3.3440 Y31.0633 
G01 X3.2267 Y30.9460 
G00 Z2.5400 
G00 X4.4117 Y32.1082 
G01 Z-0.1778 F254.00 
G01 X4.4117 Y32.6618 F508.00 
G01 X4.8032 Y33.0533 
G01 X5.3568 Y33.0533 
G01 X5.6060 Y32.8041 
G01 X6.1057 Y32.8041 
G01 X6.1231 Y32.8481 
