(.../pcb-gcode-3.6.2.4/pcb-gcode.ulp)
(Copyright 2005 - 2012 by John Johnson)
(See readme.txt for licensing terms.)
(This file generated from the board:)
(.../LagoVista.EaglePCB.Tests/PNPHeadBoard.brd)
(Current profile is .../pcb-gcode-3.6.2.4/profiles/generic.pp  )
(This file generated 3/17/2017 08:37)
(Settings from pcb-machine.h)
(spindle on time = 3.0000)
(spindle speed = 20000.0000)
(tool change at 0.0000 0.0000 25.4000 )
(feed rate xy = F0.00  )
(feed rate z  = F508.00 )
(Z Axis Settings)
(  High     Up        Down     Drill)
(12.7000 	2.5400 	-0.1778 	-0.8128 )
(Settings from pcb-defaults.h)
(isolate min = 0.0254)
(isolate max = 0.5080)
(isolate step = 0.1270)
(Generated top outlines, top drill, bottom outlines, bottom drill, )
(Unit of measure: mm)
( Tool|       Size       |  Min Sub |  Max Sub |   Count )
( T01  0.600mm 0.0236in 0.0000in 0.0000in )
( T02  0.813mm 0.0320in 0.0000in 0.0000in )
( T03  1.016mm 0.0400in 0.0000in 0.0000in )
( T04  3.000mm 0.1181in 0.0000in 0.0000in )
(Metric Mode)
G21
(Absolute Coordinates)
G90
S20000
G00 Z12.7000 
G00 X0.0000 Y0.0000 
M03
G04 P3.000000
M05
G00 Z25.4000 
M06 T01  ; 0.6000 
G01 Z0.0000 F508.00 
M06 
G00 Z2.5400 
M03
G04 P3.000000
G00 Z2.540000
G00 X1.9050 Y34.9250 
G01 Z-0.8128 F508.00 
G01 Z2.540000
(R2.5400  P1.000000)
G00 X5.0800 Y32.3850 
G01 Z-0.812800
G01 Z2.540000
G00 X6.3500 Y30.4800 
G01 Z-0.812800
G01 Z2.540000
G00 X8.8900 Y29.2100 
G01 Z-0.812800
G01 Z2.540000
G00 X10.7950 Y29.8450 
G01 Z-0.812800
G01 Z2.540000
G00 X10.7950 Y31.7500 
G01 Z-0.812800
G01 Z2.540000
G00 X17.1450 Y33.6550 
G01 Z-0.812800
G01 Z2.540000
G00 X11.4300 Y43.1800 
G01 Z-0.812800
G01 Z2.540000
G00 X8.2550 Y24.1300 
G01 Z-0.812800
G01 Z2.540000
G00 X6.3500 Y22.2250 
G01 Z-0.812800
G01 Z2.540000
G00 X7.6200 Y20.9550 
G01 Z-0.812800
G01 Z2.540000
G00 X8.2550 Y17.1450 
G01 Z-0.812800
G01 Z2.540000
G00 X13.9700 Y5.7150 
G01 Z-0.812800
G01 Z2.540000
G00 X18.4150 Y7.6200 
G01 Z-0.812800
G01 Z2.540000
G00 X22.8600 Y7.6200 
G01 Z-0.812800
G01 Z2.540000
G00 X41.9100 Y8.2550 
G01 Z-0.812800
G01 Z2.540000
G00 X45.0850 Y12.0650 
G01 Z-0.812800
G01 Z2.540000
M05
G00 Z25.4000 
G00 X0.0000 Y0.0000 
M06 T02  ; 0.8128 
G01 Z0.0000 F508.00 
M06 
G00 Z2.5400 
M03
G04 P3.000000
G00 Z2.540000
G00 X22.8600 Y16.5100 
G01 Z-0.8128 F508.00 
G01 Z2.540000
(R2.5400  P1.000000)
G00 X25.4000 Y16.5100 
G01 Z-0.812800
G01 Z2.540000
G00 X27.9400 Y16.5100 
G01 Z-0.812800
G01 Z2.540000
G00 X30.4800 Y16.5100 
G01 Z-0.812800
G01 Z2.540000
G00 X33.0200 Y16.5100 
G01 Z-0.812800
G01 Z2.540000
G00 X35.5600 Y16.5100 
G01 Z-0.812800
G01 Z2.540000
G00 X38.1000 Y16.5100 
G01 Z-0.812800
G01 Z2.540000
G00 X40.6400 Y16.5100 
G01 Z-0.812800
G01 Z2.540000
G00 X40.6400 Y24.1300 
G01 Z-0.812800
G01 Z2.540000
G00 X38.1000 Y24.1300 
G01 Z-0.812800
G01 Z2.540000
G00 X35.5600 Y24.1300 
G01 Z-0.812800
G01 Z2.540000
G00 X33.0200 Y24.1300 
G01 Z-0.812800
G01 Z2.540000
G00 X30.4800 Y24.1300 
G01 Z-0.812800
G01 Z2.540000
G00 X27.9400 Y24.1300 
G01 Z-0.812800
G01 Z2.540000
G00 X25.4000 Y24.1300 
G01 Z-0.812800
G01 Z2.540000
G00 X22.8600 Y24.1300 
G01 Z-0.812800
G01 Z2.540000
G00 X22.8600 Y33.0200 
G01 Z-0.812800
G01 Z2.540000
G00 X25.4000 Y33.0200 
G01 Z-0.812800
G01 Z2.540000
G00 X27.9400 Y33.0200 
G01 Z-0.812800
G01 Z2.540000
G00 X30.4800 Y33.0200 
G01 Z-0.812800
G01 Z2.540000
G00 X33.0200 Y33.0200 
G01 Z-0.812800
G01 Z2.540000
G00 X35.5600 Y33.0200 
G01 Z-0.812800
G01 Z2.540000
G00 X38.1000 Y33.0200 
G01 Z-0.812800
G01 Z2.540000
G00 X40.6400 Y33.0200 
G01 Z-0.812800
G01 Z2.540000
G00 X40.6400 Y40.6400 
G01 Z-0.812800
G01 Z2.540000
G00 X38.1000 Y40.6400 
G01 Z-0.812800
G01 Z2.540000
G00 X35.5600 Y40.6400 
G01 Z-0.812800
G01 Z2.540000
G00 X33.0200 Y40.6400 
G01 Z-0.812800
G01 Z2.540000
G00 X30.4800 Y40.6400 
G01 Z-0.812800
G01 Z2.540000
G00 X27.9400 Y40.6400 
G01 Z-0.812800
G01 Z2.540000
G00 X25.4000 Y40.6400 
G01 Z-0.812800
G01 Z2.540000
G00 X22.8600 Y40.6400 
G01 Z-0.812800
G01 Z2.540000
M05
G00 Z25.4000 
G00 X0.0000 Y0.0000 
M06 T03  ; 1.0160 
G01 Z0.0000 F508.00 
M06 
G00 Z2.5400 
M03
G04 P3.000000
G00 Z2.540000
G00 X2.5400 Y19.0500 
G01 Z-0.8128 F508.00 
G01 Z2.540000
(R2.5400  P1.000000)
G00 X2.5400 Y21.5900 
G01 Z-0.812800
G01 Z2.540000
G00 X2.5400 Y24.1300 
G01 Z-0.812800
G01 Z2.540000
G00 X2.5400 Y26.6700 
G01 Z-0.812800
G01 Z2.540000
G00 X2.5400 Y29.2100 
G01 Z-0.812800
G01 Z2.540000
G00 X2.5400 Y31.7500 
G01 Z-0.812800
G01 Z2.540000
G00 X20.3200 Y7.6200 
G01 Z-0.812800
G01 Z2.540000
G00 X20.3200 Y5.0800 
G01 Z-0.812800
G01 Z2.540000
G00 X20.3200 Y2.5400 
G01 Z-0.812800
G01 Z2.540000
G00 X24.7650 Y2.5400 
G01 Z-0.812800
G01 Z2.540000
G00 X24.7650 Y5.0800 
G01 Z-0.812800
G01 Z2.540000
G00 X24.7650 Y7.6200 
G01 Z-0.812800
G01 Z2.540000
G00 X29.2100 Y7.6200 
G01 Z-0.812800
G01 Z2.540000
G00 X29.2100 Y5.0800 
G01 Z-0.812800
G01 Z2.540000
G00 X29.2100 Y2.5400 
G01 Z-0.812800
G01 Z2.540000
G00 X33.6550 Y2.5400 
G01 Z-0.812800
G01 Z2.540000
G00 X33.6550 Y5.0800 
G01 Z-0.812800
G01 Z2.540000
G00 X33.6550 Y7.6200 
G01 Z-0.812800
G01 Z2.540000
G00 X39.3700 Y6.3500 
G01 Z-0.812800
G01 Z2.540000
G00 X39.3700 Y3.8100 
G01 Z-0.812800
G01 Z2.540000
G00 X39.3700 Y8.8900 
G01 Z-0.812800
G01 Z2.540000
G00 X45.7200 Y16.5100 
G01 Z-0.812800
G01 Z2.540000
G00 X45.7200 Y19.0500 
G01 Z-0.812800
G01 Z2.540000
G00 X45.7200 Y21.5900 
G01 Z-0.812800
G01 Z2.540000
G00 X45.7200 Y24.1300 
G01 Z-0.812800
G01 Z2.540000
G00 X45.7200 Y27.3050 
G01 Z-0.812800
G01 Z2.540000
G00 X45.7200 Y29.8450 
G01 Z-0.812800
G01 Z2.540000
G00 X45.7200 Y32.3850 
G01 Z-0.812800
G01 Z2.540000
G00 X45.7200 Y34.9250 
G01 Z-0.812800
G01 Z2.540000
M05
G00 Z25.4000 
G00 X0.0000 Y0.0000 
M06 T04  ; 3.0000 
G01 Z0.0000 F508.00 
M06 
G00 Z2.5400 
M03
G04 P3.000000
G00 Z2.540000
G00 X4.4450 Y4.4450 
G01 Z-0.8128 F508.00 
G01 Z2.540000
(R2.5400  P1.000000)
G00 X4.4450 Y40.0050 
G01 Z-0.812800
G01 Z2.540000
G00 X46.3550 Y40.0050 
G01 Z-0.812800
G01 Z2.540000
G00 X46.3550 Y4.4450 
G01 Z-0.812800
G01 Z2.540000
T01 
G00 Z12.7000 
M05
M02
