(.../pcb-gcode-3.6.2.4/pcb-gcode.ulp)
(Copyright 2005 - 2012 by John Johnson)
(See readme.txt for licensing terms.)
(This file generated from the board:)
(.../LagoVista.EaglePCB.Tests/PNPHeadBoard.brd)
(Current profile is .../pcb-gcode-3.6.2.4/profiles/generic.pp  )
(This file generated 3/17/2017 08:37)
(Settings from pcb-machine.h)
(spindle on time = 3.0000)
(  Tool Size)
(0.1778 )
(spindle speed = 30000.0000)
(tool change at 0.0000 0.0000 25.4000 )
(feed rate xy = F508.00 )
(feed rate z  = F254.00 )
(Z Axis Settings)
(  High     Up        Down     Drill)
(12.7000 	2.5400 	-0.1778 	-0.8128 )
(Settings from pcb-defaults.h)
(isolate min = 0.0254)
(isolate max = 0.5080)
(isolate step = 0.1270)
(Generated top outlines, top drill, bottom outlines, bottom drill, )
(Unit of measure: mm)
(Metric Mode)
G21
(Absolute Coordinates)
G90
S30000
G00 Z12.7000 
G00 X0.0000 Y0.0000 
M03
G04 P3.000000
G00 Z2.5400 
G00 X-6.4124 Y0.3626 
G01 Z-0.1778 F254.00 
G01 X-6.4341 Y0.3475 F508.00 
G01 X-6.4528 Y0.3288 
G01 X-6.4732 Y0.3204 
G01 X-6.4913 Y0.3078 
G01 X-6.5171 Y0.3022 
G01 X-6.5415 Y0.2921 
G01 X-6.5635 Y0.2921 
G01 X-6.5851 Y0.2874 
G01 X-6.6111 Y0.2921 
G01 X-44.1889 Y0.2921 
G01 X-44.2149 Y0.2874 
G01 X-44.2365 Y0.2921 
G01 X-44.2585 Y0.2921 
G01 X-44.2829 Y0.3022 
G01 X-44.3087 Y0.3078 
G01 X-44.3268 Y0.3204 
G01 X-44.3472 Y0.3288 
G01 X-44.3659 Y0.3475 
G01 X-44.3876 Y0.3626 
G01 X-44.3995 Y0.3811 
G01 X-44.4151 Y0.3967 
G01 X-44.4252 Y0.4211 
G01 X-44.4395 Y0.4433 
G01 X-44.4434 Y0.4650 
G01 X-44.4518 Y0.4854 
G01 X-44.4518 Y0.5118 
G01 X-44.4565 Y0.5378 
G01 X-44.4518 Y0.5593 
G01 X-44.4518 Y0.5814 
G01 X-44.4417 Y0.6058 
G01 X-44.4361 Y0.6316 
G01 X-44.4235 Y0.6497 
G01 X-44.4151 Y0.6701 
G01 X-44.3964 Y0.6888 
G01 X-44.3814 Y0.7104 
G01 X-44.3628 Y0.7224 
G01 X-44.3472 Y0.7380 
G01 X-44.3228 Y0.7481 
G01 X-43.5705 Y1.2315 
G01 X-42.7809 Y2.1428 
G01 X-42.7775 Y2.1511 
G01 X-42.7743 Y2.1542 
G01 X-42.2752 Y3.2471 
G01 X-42.1030 Y4.4450 
G01 X-42.2752 Y5.6429 
G01 X-42.7743 Y6.7358 
G01 X-42.7775 Y6.7389 
G01 X-42.7809 Y6.7472 
G01 X-43.5705 Y7.6585 
G01 X-44.5887 Y8.3128 
G01 X-45.7499 Y8.6537 
G01 X-46.9601 Y8.6537 
G01 X-48.1213 Y8.3128 
G01 X-49.1395 Y7.6585 
G01 X-49.9291 Y6.7472 
G01 X-49.9325 Y6.7389 
G01 X-49.9357 Y6.7358 
G01 X-50.0453 Y6.4958 
G01 X-50.0620 Y6.4554 
G01 X-50.0652 Y6.4522 
G01 X-50.0670 Y6.4482 
G01 X-50.0990 Y6.4184 
G01 X-50.1299 Y6.3875 
G01 X-50.1340 Y6.3858 
G01 X-50.1373 Y6.3827 
G01 X-50.1782 Y6.3675 
G01 X-50.2186 Y6.3508 
G01 X-50.2231 Y6.3508 
G01 X-50.2272 Y6.3492 
G01 X-50.2709 Y6.3508 
G01 X-50.3146 Y6.3508 
G01 X-50.3187 Y6.3525 
G01 X-50.3232 Y6.3526 
G01 X-50.3629 Y6.3708 
G01 X-50.4033 Y6.3875 
G01 X-50.4064 Y6.3906 
G01 X-50.4105 Y6.3925 
G01 X-50.4402 Y6.4245 
G01 X-50.4712 Y6.4554 
G01 X-50.4729 Y6.4595 
G01 X-50.4759 Y6.4628 
G01 X-50.4912 Y6.5037 
G01 X-50.5079 Y6.5441 
G01 X-50.5079 Y6.5485 
G01 X-50.5095 Y6.5527 
G01 X-50.5079 Y6.5964 
G01 X-50.5079 Y37.8536 
G01 X-50.5095 Y37.8973 
G01 X-50.5079 Y37.9015 
G01 X-50.5079 Y37.9059 
G01 X-50.4912 Y37.9463 
G01 X-50.4759 Y37.9872 
G01 X-50.4729 Y37.9905 
G01 X-50.4712 Y37.9946 
G01 X-50.4402 Y38.0255 
G01 X-50.4105 Y38.0575 
G01 X-50.4064 Y38.0593 
G01 X-50.4033 Y38.0625 
G01 X-50.3629 Y38.0792 
G01 X-50.3232 Y38.0974 
G01 X-50.3187 Y38.0975 
G01 X-50.3146 Y38.0992 
G01 X-50.2709 Y38.0992 
G01 X-50.2272 Y38.1008 
G01 X-50.2231 Y38.0992 
G01 X-50.2186 Y38.0992 
G01 X-50.1782 Y38.0825 
G01 X-50.1373 Y38.0673 
G01 X-50.1340 Y38.0642 
G01 X-50.1299 Y38.0625 
G01 X-50.0990 Y38.0316 
G01 X-50.0670 Y38.0018 
G01 X-50.0652 Y37.9978 
G01 X-50.0620 Y37.9946 
G01 X-50.0453 Y37.9542 
G01 X-49.9357 Y37.7142 
G01 X-49.9325 Y37.7111 
G01 X-49.9291 Y37.7028 
G01 X-49.1395 Y36.7915 
G01 X-48.1213 Y36.1372 
G01 X-46.9601 Y35.7963 
G01 X-46.8957 Y35.7963 
G01 X-46.8704 Y35.7858 
G01 X-46.8070 Y35.7595 
G01 X-46.7391 Y35.6916 
G01 X-46.7024 Y35.6030 
G01 X-46.7024 Y35.5070 
G01 X-46.7220 Y35.4597 
G01 X-46.7391 Y35.4183 
G01 X-46.8503 Y35.1498 
G01 X-46.8503 Y34.7002 
G01 X-46.6782 Y34.2847 
G01 X-46.3603 Y33.9668 
G01 X-46.1901 Y33.8963 
G01 X-46.1681 Y33.8872 
G01 X-46.1014 Y33.8596 
G01 X-46.0335 Y33.7917 
G01 X-45.9968 Y33.7030 
G01 X-45.9968 Y33.6070 
G01 X-46.0116 Y33.5713 
G01 X-46.0335 Y33.5183 
G01 X-46.1014 Y33.4504 
G01 X-46.1901 Y33.4137 
G01 X-46.3603 Y33.3432 
G01 X-46.6782 Y33.0253 
G01 X-46.8503 Y32.6098 
G01 X-46.8503 Y32.1602 
G01 X-46.6782 Y31.7447 
G01 X-46.3603 Y31.4268 
G01 X-46.1901 Y31.3563 
G01 X-46.1681 Y31.3472 
G01 X-46.1014 Y31.3196 
G01 X-46.0335 Y31.2517 
G01 X-45.9968 Y31.1630 
G01 X-45.9968 Y31.0670 
G01 X-46.0116 Y31.0313 
G01 X-46.0335 Y30.9783 
G01 X-46.1014 Y30.9104 
G01 X-46.1901 Y30.8737 
G01 X-46.3603 Y30.8032 
G01 X-46.6782 Y30.4853 
G01 X-46.8503 Y30.0698 
G01 X-46.8503 Y29.6202 
G01 X-46.6782 Y29.2047 
G01 X-46.3603 Y28.8868 
G01 X-46.1901 Y28.8163 
G01 X-46.1681 Y28.8072 
G01 X-46.1014 Y28.7796 
G01 X-46.0335 Y28.7117 
G01 X-45.9968 Y28.6230 
G01 X-45.9968 Y28.5270 
G01 X-46.0116 Y28.4913 
G01 X-46.0335 Y28.4383 
G01 X-46.1014 Y28.3704 
G01 X-46.1901 Y28.3337 
G01 X-46.3603 Y28.2632 
G01 X-46.6782 Y27.9453 
G01 X-46.8503 Y27.5298 
G01 X-46.8503 Y27.0802 
G01 X-46.6782 Y26.6647 
G01 X-46.3603 Y26.3468 
G01 X-45.9448 Y26.1747 
G01 X-45.4952 Y26.1747 
G01 X-45.0797 Y26.3468 
G01 X-44.7618 Y26.6647 
G01 X-44.5897 Y27.0802 
G01 X-44.5897 Y27.1916 
G01 X-44.5530 Y27.2803 
G01 X-44.4851 Y27.3481 
G01 X-43.0537 Y28.7796 
G01 X-42.9650 Y28.8163 
G01 X-28.4967 Y28.8163 
G01 X-28.3520 Y28.8762 
G01 X-27.7849 Y29.4434 
G01 X-27.7278 Y29.5004 
G01 X-27.7170 Y29.5112 
G01 X-27.6062 Y29.6220 
G01 X-27.5463 Y29.7667 
G01 X-27.5463 Y31.2867 
G01 X-27.5463 Y31.3344 
G01 X-27.5463 Y31.3826 
G01 X-27.5338 Y31.4128 
G01 X-27.5096 Y31.4713 
G01 X-27.4928 Y31.4881 
G01 X-27.4417 Y31.5392 
G01 X-27.4292 Y31.5444 
G01 X-27.1756 Y31.7980 
G01 X-27.0383 Y32.1294 
G01 X-27.0383 Y33.9106 
G01 X-27.1756 Y34.2420 
G01 X-27.4292 Y34.4956 
G01 X-27.7606 Y34.6329 
G01 X-28.1194 Y34.6329 
G01 X-28.4508 Y34.4956 
G01 X-28.7044 Y34.2420 
G01 X-28.8417 Y33.9106 
G01 X-28.8417 Y32.1294 
G01 X-28.7044 Y31.7980 
G01 X-28.4508 Y31.5444 
G01 X-28.4383 Y31.5392 
G01 X-28.3877 Y31.4886 
G01 X-28.3704 Y31.4714 
G01 X-28.3464 Y31.4134 
G01 X-28.3337 Y31.3827 
G01 X-28.3337 Y31.3349 
G01 X-28.3337 Y31.2867 
G01 X-28.3337 Y30.0600 
G01 X-28.3704 Y29.9713 
G01 X-28.4383 Y29.9035 
G01 X-28.6335 Y29.7083 
G01 X-28.7013 Y29.6404 
G01 X-28.7875 Y29.6047 
G01 X-43.2583 Y29.6037 
G01 X-43.4030 Y29.5438 
G01 X-44.6771 Y28.2697 
G01 X-44.7450 Y28.2018 
G01 X-44.7591 Y28.1959 
G01 X-44.8336 Y28.1651 
G01 X-44.9296 Y28.1651 
G01 X-44.9809 Y28.1863 
G01 X-45.0183 Y28.2018 
G01 X-45.0797 Y28.2632 
G01 X-45.2499 Y28.3337 
G01 X-45.3386 Y28.3704 
G01 X-45.4054 Y28.4373 
G01 X-45.4275 Y28.4892 
G01 X-45.4432 Y28.5270 
G01 X-45.4432 Y28.6230 
G01 X-45.4065 Y28.7117 
G01 X-45.3396 Y28.7785 
G01 X-45.2746 Y28.8061 
G01 X-45.2499 Y28.8163 
G01 X-45.0797 Y28.8868 
G01 X-44.7618 Y29.2047 
G01 X-44.5897 Y29.6202 
G01 X-44.5897 Y29.7316 
G01 X-44.5530 Y29.8203 
G01 X-44.4851 Y29.8881 
G01 X-44.3237 Y30.0496 
G01 X-44.2350 Y30.0863 
G01 X-36.1167 Y30.0863 
G01 X-35.9720 Y30.1462 
G01 X-35.3370 Y30.7812 
G01 X-35.2262 Y30.8920 
G01 X-35.1663 Y31.0367 
G01 X-35.1663 Y31.2867 
G01 X-35.1663 Y31.3344 
G01 X-35.1663 Y31.3826 
G01 X-35.1538 Y31.4128 
G01 X-35.1296 Y31.4713 
G01 X-35.1128 Y31.4881 
G01 X-35.0617 Y31.5392 
G01 X-35.0492 Y31.5444 
G01 X-34.7956 Y31.7980 
G01 X-34.6583 Y32.1294 
G01 X-34.6583 Y33.9106 
G01 X-34.7956 Y34.2420 
G01 X-35.0492 Y34.4956 
G01 X-35.3806 Y34.6329 
G01 X-35.7394 Y34.6329 
G01 X-36.0708 Y34.4956 
G01 X-36.3244 Y34.2420 
G01 X-36.4617 Y33.9106 
G01 X-36.4617 Y32.1294 
G01 X-36.3244 Y31.7980 
G01 X-36.0836 Y31.5572 
G01 X-36.0216 Y31.4952 
G01 X-36.0158 Y31.4894 
G01 X-35.9798 Y31.4025 
G01 X-35.9790 Y31.3047 
G01 X-35.9938 Y31.2690 
G01 X-36.0158 Y31.2160 
G01 X-36.0836 Y31.1481 
G01 X-36.2535 Y30.9783 
G01 X-36.3213 Y30.9104 
G01 X-36.4075 Y30.8747 
G01 X-44.5283 Y30.8737 
G01 X-44.6730 Y30.8138 
G01 X-44.6771 Y30.8097 
G01 X-44.7100 Y30.7768 
G01 X-44.7450 Y30.7418 
G01 X-44.7723 Y30.7305 
G01 X-44.8336 Y30.7051 
G01 X-44.9296 Y30.7051 
G01 X-44.9901 Y30.7301 
G01 X-45.0183 Y30.7418 
G01 X-45.0509 Y30.7744 
G01 X-45.0797 Y30.8032 
G01 X-45.2499 Y30.8737 
G01 X-45.3386 Y30.9104 
G01 X-45.4054 Y30.9773 
G01 X-45.4275 Y31.0292 
G01 X-45.4432 Y31.0670 
G01 X-45.4432 Y31.1630 
G01 X-45.4065 Y31.2517 
G01 X-45.3396 Y31.3185 
G01 X-45.2746 Y31.3461 
G01 X-45.2499 Y31.3563 
G01 X-45.0797 Y31.4268 
G01 X-44.7618 Y31.7447 
G01 X-44.7397 Y31.7980 
G01 X-44.7030 Y31.8867 
G01 X-44.6361 Y31.9535 
G01 X-44.5464 Y31.9913 
G01 X-43.7367 Y31.9913 
G01 X-43.5920 Y32.0512 
G01 X-42.9570 Y32.6862 
G01 X-42.8462 Y32.7970 
G01 X-42.7863 Y32.9417 
G01 X-42.7863 Y34.7100 
G01 X-42.7496 Y34.7987 
G01 X-42.6817 Y34.8665 
G01 X-41.7837 Y35.7646 
G01 X-41.6950 Y35.8013 
G01 X-29.1317 Y35.8013 
G01 X-28.9870 Y35.8612 
G01 X-27.7170 Y37.1312 
G01 X-27.6062 Y37.2420 
G01 X-27.5463 Y37.3867 
G01 X-27.5463 Y38.9067 
G01 X-27.5463 Y38.9544 
G01 X-27.5463 Y39.0026 
G01 X-27.5338 Y39.0328 
G01 X-27.5096 Y39.0913 
G01 X-27.4928 Y39.1081 
G01 X-27.4417 Y39.1592 
G01 X-27.4292 Y39.1644 
G01 X-27.1756 Y39.4180 
G01 X-27.0383 Y39.7494 
G01 X-27.0383 Y41.5306 
G01 X-27.1756 Y41.8620 
G01 X-27.4292 Y42.1156 
G01 X-27.7606 Y42.2529 
G01 X-28.1194 Y42.2529 
G01 X-28.4508 Y42.1156 
G01 X-28.7044 Y41.8620 
G01 X-28.8417 Y41.5306 
G01 X-28.8417 Y39.7494 
G01 X-28.7044 Y39.4180 
G01 X-28.4508 Y39.1644 
G01 X-28.4383 Y39.1592 
G01 X-28.3877 Y39.1086 
G01 X-28.3704 Y39.0914 
G01 X-28.3464 Y39.0334 
G01 X-28.3337 Y39.0027 
G01 X-28.3337 Y38.9549 
G01 X-28.3337 Y38.9067 
G01 X-28.3337 Y37.6800 
G01 X-28.3704 Y37.5913 
G01 X-29.3363 Y36.6254 
G01 X-29.4250 Y36.5887 
G01 X-41.6384 Y36.5887 
G01 X-41.6778 Y36.5859 
G01 X-41.6861 Y36.5887 
G01 X-41.6950 Y36.5887 
G01 X-41.7314 Y36.6038 
G01 X-41.7688 Y36.6163 
G01 X-41.7755 Y36.6220 
G01 X-41.7837 Y36.6254 
G01 X-41.8116 Y36.6533 
G01 X-41.8413 Y36.6792 
G01 X-41.8453 Y36.6871 
G01 X-41.8515 Y36.6933 
G01 X-41.8666 Y36.7298 
G01 X-41.8843 Y36.7650 
G01 X-41.8849 Y36.7738 
G01 X-41.8883 Y36.7820 
G01 X-41.8883 Y36.8214 
G01 X-41.8911 Y36.8608 
G01 X-41.8883 Y36.8692 
G01 X-41.8883 Y36.8780 
G01 X-41.8732 Y36.9144 
G01 X-41.8607 Y36.9518 
G01 X-41.8549 Y36.9585 
G01 X-41.8515 Y36.9667 
G01 X-41.8236 Y36.9946 
G01 X-41.7978 Y37.0244 
G01 X-41.7899 Y37.0283 
G01 X-41.7837 Y37.0346 
G01 X-41.7472 Y37.0497 
G01 X-41.7120 Y37.0673 
G01 X-41.7031 Y37.0679 
G01 X-41.6950 Y37.0713 
G01 X-41.6555 Y37.0713 
G01 X-41.6162 Y37.0741 
G01 X-41.6078 Y37.0713 
G01 X-36.1167 Y37.0713 
G01 X-35.9720 Y37.1312 
G01 X-35.2262 Y37.8770 
G01 X-35.1663 Y38.0217 
G01 X-35.1663 Y38.9067 
G01 X-35.1663 Y38.9544 
G01 X-35.1663 Y39.0026 
G01 X-35.1538 Y39.0328 
G01 X-35.1296 Y39.0913 
G01 X-35.1128 Y39.1081 
G01 X-35.0617 Y39.1592 
G01 X-35.0492 Y39.1644 
G01 X-34.7956 Y39.4180 
G01 X-34.6583 Y39.7494 
G01 X-34.6583 Y41.5306 
G01 X-34.7956 Y41.8620 
G01 X-35.0492 Y42.1156 
G01 X-35.3806 Y42.2529 
G01 X-35.7394 Y42.2529 
G01 X-36.0708 Y42.1156 
G01 X-36.3244 Y41.8620 
G01 X-36.4617 Y41.5306 
G01 X-36.4617 Y39.7494 
G01 X-36.3244 Y39.4180 
G01 X-36.0708 Y39.1644 
G01 X-36.0583 Y39.1592 
G01 X-36.0077 Y39.1086 
G01 X-35.9904 Y39.0914 
G01 X-35.9664 Y39.0334 
G01 X-35.9537 Y39.0027 
G01 X-35.9537 Y38.9549 
G01 X-35.9537 Y38.9067 
G01 X-35.9537 Y38.3150 
G01 X-35.9904 Y38.2263 
G01 X-36.0583 Y38.1585 
G01 X-36.3213 Y37.8954 
G01 X-36.4100 Y37.8587 
G01 X-41.9883 Y37.8587 
G01 X-42.1330 Y37.7988 
G01 X-42.2658 Y37.6660 
G01 X-42.2676 Y37.6619 
G01 X-42.2996 Y37.6322 
G01 X-42.3305 Y37.6013 
G01 X-42.3346 Y37.5995 
G01 X-42.3379 Y37.5965 
G01 X-42.3788 Y37.5813 
G01 X-42.4192 Y37.5645 
G01 X-42.4237 Y37.5645 
G01 X-42.4278 Y37.5630 
G01 X-42.4715 Y37.5645 
G01 X-42.5152 Y37.5645 
G01 X-42.5193 Y37.5662 
G01 X-42.5238 Y37.5664 
G01 X-42.5635 Y37.5845 
G01 X-42.6039 Y37.6013 
G01 X-42.6070 Y37.6044 
G01 X-42.6111 Y37.6063 
G01 X-42.6408 Y37.6382 
G01 X-42.6718 Y37.6691 
G01 X-42.6735 Y37.6733 
G01 X-42.6765 Y37.6765 
G01 X-42.6918 Y37.7174 
G01 X-42.7085 Y37.7578 
G01 X-42.7085 Y37.7623 
G01 X-42.7101 Y37.7665 
G01 X-42.7085 Y37.8101 
G01 X-42.7085 Y37.8538 
G01 X-42.7068 Y37.8579 
G01 X-42.7066 Y37.8624 
G01 X-42.6885 Y37.9021 
G01 X-42.6718 Y37.9425 
G01 X-42.6686 Y37.9457 
G01 X-42.2752 Y38.8071 
G01 X-42.1030 Y40.0050 
G01 X-42.2752 Y41.2029 
G01 X-42.7743 Y42.2958 
G01 X-42.7775 Y42.2989 
G01 X-42.7809 Y42.3071 
G01 X-43.5705 Y43.2185 
G01 X-44.3228 Y43.7019 
G01 X-44.3472 Y43.7120 
G01 X-44.3628 Y43.7276 
G01 X-44.3814 Y43.7396 
G01 X-44.3964 Y43.7612 
G01 X-44.4151 Y43.7799 
G01 X-44.4235 Y43.8003 
G01 X-44.4361 Y43.8184 
G01 X-44.4417 Y43.8442 
G01 X-44.4518 Y43.8686 
G01 X-44.4518 Y43.8907 
G01 X-44.4565 Y43.9122 
G01 X-44.4518 Y43.9382 
G01 X-44.4518 Y43.9646 
G01 X-44.4434 Y43.9850 
G01 X-44.4395 Y44.0067 
G01 X-44.4252 Y44.0289 
G01 X-44.4151 Y44.0533 
G01 X-44.3995 Y44.0689 
G01 X-44.3876 Y44.0874 
G01 X-44.3659 Y44.1025 
G01 X-44.3472 Y44.1212 
G01 X-44.3268 Y44.1296 
G01 X-44.3087 Y44.1422 
G01 X-44.2829 Y44.1478 
G01 X-44.2585 Y44.1579 
G01 X-44.2365 Y44.1579 
G01 X-44.2149 Y44.1626 
G01 X-44.1889 Y44.1579 
G01 X-12.0395 Y44.1579 
G01 X-11.9508 Y44.1212 
G01 X-11.8830 Y44.0533 
G01 X-11.8462 Y43.9646 
G01 X-11.8462 Y43.8686 
G01 X-11.8830 Y43.7799 
G01 X-11.9508 Y43.7120 
G01 X-12.1745 Y43.4884 
G01 X-12.1745 Y42.8716 
G01 X-11.9620 Y42.6592 
G01 X-11.9253 Y42.5705 
G01 X-11.9253 Y35.4615 
G01 X-11.9083 Y35.4205 
G01 X-11.8875 Y35.3702 
G01 X-11.8716 Y35.3318 
G01 X-11.8716 Y35.2358 
G01 X-11.9083 Y35.1471 
G01 X-12.8684 Y34.1870 
G01 X-12.9571 Y34.1503 
G01 X-16.5355 Y34.1503 
G01 X-16.6242 Y34.1870 
G01 X-16.6920 Y34.2549 
G01 X-16.8366 Y34.3995 
G01 X-17.4534 Y34.3995 
G01 X-17.6658 Y34.1870 
G01 X-17.7545 Y34.1503 
G01 X-21.9519 Y34.1503 
G01 X-22.0406 Y34.1870 
G01 X-22.1085 Y34.2549 
G01 X-22.3280 Y34.4744 
G01 X-22.3647 Y34.5630 
G01 X-22.3647 Y39.0970 
G01 X-22.3542 Y39.1222 
G01 X-22.3280 Y39.1856 
G01 X-22.2601 Y39.2535 
G01 X-22.0956 Y39.4180 
G01 X-21.9583 Y39.7494 
G01 X-21.9583 Y41.5306 
G01 X-22.0956 Y41.8620 
G01 X-22.3492 Y42.1156 
G01 X-22.6806 Y42.2529 
G01 X-23.0394 Y42.2529 
G01 X-23.3708 Y42.1156 
G01 X-23.6244 Y41.8620 
G01 X-23.7617 Y41.5306 
G01 X-23.7617 Y39.7494 
G01 X-23.6244 Y39.4180 
G01 X-23.4599 Y39.2535 
G01 X-23.3920 Y39.1856 
G01 X-23.3664 Y39.1237 
G01 X-23.3553 Y39.0970 
G01 X-23.3553 Y34.5630 
G01 X-23.3920 Y34.4744 
G01 X-23.4599 Y34.4065 
G01 X-23.6244 Y34.2420 
G01 X-23.7617 Y33.9106 
G01 X-23.7617 Y32.1294 
G01 X-23.6244 Y31.7980 
G01 X-23.3920 Y31.5656 
G01 X-23.3553 Y31.4769 
G01 X-23.3553 Y25.6730 
G01 X-23.3657 Y25.6478 
G01 X-23.3920 Y25.5844 
G01 X-23.4599 Y25.5165 
G01 X-23.6244 Y25.3520 
G01 X-23.7617 Y25.0206 
G01 X-23.7617 Y23.2394 
G01 X-23.6244 Y22.9080 
G01 X-23.4599 Y22.7435 
G01 X-23.3920 Y22.6756 
G01 X-23.3664 Y22.6137 
G01 X-23.3553 Y22.5870 
G01 X-23.3553 Y18.0530 
G01 X-23.3920 Y17.9644 
G01 X-23.4599 Y17.8965 
G01 X-23.6244 Y17.7320 
G01 X-23.7617 Y17.4006 
G01 X-23.7617 Y15.6194 
G01 X-23.6244 Y15.2880 
G01 X-23.3708 Y15.0344 
G01 X-23.0394 Y14.8971 
G01 X-22.6806 Y14.8971 
G01 X-22.3492 Y15.0344 
G01 X-22.0956 Y15.2880 
G01 X-21.9583 Y15.6194 
G01 X-21.9583 Y17.4006 
G01 X-22.0956 Y17.7320 
G01 X-22.3280 Y17.9644 
G01 X-22.3647 Y18.0530 
G01 X-22.3647 Y22.5870 
G01 X-22.3542 Y22.6122 
G01 X-22.3280 Y22.6756 
G01 X-22.2601 Y22.7435 
G01 X-22.0956 Y22.9080 
G01 X-21.9583 Y23.2394 
G01 X-21.9583 Y25.0206 
G01 X-22.0956 Y25.3520 
G01 X-22.2601 Y25.5165 
G01 X-22.3280 Y25.5844 
G01 X-22.3536 Y25.6463 
G01 X-22.3647 Y25.6730 
G01 X-22.3647 Y31.4769 
G01 X-22.3280 Y31.5656 
G01 X-22.2601 Y31.6335 
G01 X-22.0956 Y31.7980 
G01 X-21.9583 Y32.1294 
G01 X-21.9583 Y32.9664 
G01 X-21.9216 Y33.0551 
G01 X-21.8537 Y33.1230 
G01 X-21.7650 Y33.1597 
G01 X-17.7545 Y33.1597 
G01 X-17.6658 Y33.1230 
G01 X-17.5980 Y33.0551 
G01 X-17.4534 Y32.9105 
G01 X-16.8366 Y32.9105 
G01 X-16.6242 Y33.1230 
G01 X-16.5355 Y33.1597 
G01 X-12.6015 Y33.1597 
G01 X-12.4194 Y33.2351 
G01 X-11.2079 Y34.4467 
G01 X-11.1192 Y34.4834 
G01 X-11.0232 Y34.4834 
G01 X-10.9869 Y34.4684 
G01 X-10.9345 Y34.4467 
G01 X-10.8935 Y34.4297 
G01 X-2.5145 Y34.4297 
G01 X-2.4893 Y34.4192 
G01 X-2.4258 Y34.3930 
G01 X-2.3580 Y34.3251 
G01 X-2.2134 Y34.1805 
G01 X-1.9129 Y34.1805 
G01 X-1.8242 Y34.1438 
G01 X-1.7563 Y34.0759 
G01 X-1.1670 Y33.4866 
G01 X-1.1303 Y33.3979 
G01 X-1.1303 Y32.5613 
G01 X-1.1303 Y32.5135 
G01 X-1.1303 Y32.4654 
G01 X-1.1483 Y32.4220 
G01 X-1.1670 Y32.3767 
G01 X-1.1971 Y32.3466 
G01 X-1.2349 Y32.3088 
G01 X-1.2740 Y32.2926 
G01 X-1.3236 Y32.2721 
G01 X-1.3715 Y32.2721 
G01 X-1.4196 Y32.2721 
G01 X-1.4630 Y32.2901 
G01 X-1.5083 Y32.3088 
G01 X-1.5384 Y32.3389 
G01 X-1.5762 Y32.3767 
G01 X-1.5818 Y32.3903 
G01 X-1.8997 Y32.7082 
G01 X-2.3152 Y32.8803 
G01 X-2.7648 Y32.8803 
G01 X-3.1803 Y32.7082 
G01 X-3.4982 Y32.3903 
G01 X-3.5203 Y32.3370 
G01 X-3.5570 Y32.2483 
G01 X-3.6239 Y32.1815 
G01 X-3.7136 Y32.1437 
G01 X-4.1422 Y32.1437 
G01 X-4.2309 Y32.1804 
G01 X-4.2988 Y32.2483 
G01 X-4.3355 Y32.3370 
G01 X-4.3355 Y32.6934 
G01 X-4.7716 Y33.1295 
G01 X-5.3884 Y33.1295 
G01 X-5.8245 Y32.6934 
G01 X-5.8245 Y32.0766 
G01 X-5.3884 Y31.6405 
G01 X-4.9442 Y31.6405 
G01 X-4.8555 Y31.6038 
G01 X-4.7877 Y31.5359 
G01 X-4.6680 Y31.4162 
G01 X-4.5233 Y31.3563 
G01 X-3.7136 Y31.3563 
G01 X-3.6249 Y31.3196 
G01 X-3.5570 Y31.2517 
G01 X-3.5203 Y31.1630 
G01 X-3.4982 Y31.1097 
G01 X-3.1803 Y30.7918 
G01 X-3.0101 Y30.7213 
G01 X-2.9214 Y30.6846 
G01 X-2.8546 Y30.6177 
G01 X-2.8325 Y30.5658 
G01 X-2.8168 Y30.5280 
G01 X-2.8168 Y30.4320 
G01 X-2.8535 Y30.3433 
G01 X-2.9204 Y30.2765 
G01 X-2.9854 Y30.2489 
G01 X-3.0101 Y30.2387 
G01 X-3.1803 Y30.1682 
G01 X-3.4982 Y29.8503 
G01 X-3.5203 Y29.7970 
G01 X-3.5570 Y29.7083 
G01 X-3.6239 Y29.6415 
G01 X-3.7136 Y29.6037 
G01 X-4.5233 Y29.6037 
G01 X-4.6680 Y29.5438 
G01 X-4.7911 Y29.4207 
G01 X-5.5104 Y28.7013 
G01 X-5.5783 Y28.6335 
G01 X-5.6670 Y28.5967 
G01 X-5.7630 Y28.5967 
G01 X-5.8517 Y28.6335 
G01 X-5.9196 Y28.7013 
G01 X-5.9563 Y28.7900 
G01 X-5.9563 Y29.7689 
G01 X-5.9196 Y29.8576 
G01 X-5.8517 Y29.9254 
G01 X-5.6055 Y30.1716 
G01 X-5.6055 Y30.7884 
G01 X-6.0416 Y31.2245 
G01 X-6.6584 Y31.2245 
G01 X-7.0945 Y30.7884 
G01 X-7.0945 Y30.1716 
G01 X-6.8483 Y29.9254 
G01 X-6.7837 Y29.8608 
G01 X-6.7804 Y29.8576 
G01 X-6.7437 Y29.7689 
G01 X-6.7437 Y28.7900 
G01 X-6.7804 Y28.7013 
G01 X-6.8483 Y28.6335 
G01 X-8.5888 Y26.8930 
G01 X-8.6487 Y26.7483 
G01 X-8.6487 Y24.8411 
G01 X-8.6854 Y24.7524 
G01 X-8.7533 Y24.6846 
G01 X-8.9995 Y24.4384 
G01 X-8.9995 Y23.8216 
G01 X-8.5634 Y23.3855 
G01 X-8.1416 Y23.3855 
G01 X-8.1059 Y23.3707 
G01 X-8.0529 Y23.3488 
G01 X-7.9850 Y23.2809 
G01 X-7.9483 Y23.1922 
G01 X-7.9483 Y23.0962 
G01 X-7.9645 Y23.0571 
G01 X-7.9850 Y23.0075 
G01 X-8.0137 Y22.9383 
G01 X-8.0137 Y21.6661 
G01 X-8.0504 Y21.5774 
G01 X-8.1183 Y21.5096 
G01 X-8.3645 Y21.2634 
G01 X-8.3645 Y20.6466 
G01 X-7.9284 Y20.2105 
G01 X-7.3116 Y20.2105 
G01 X-6.8755 Y20.6466 
G01 X-6.8755 Y21.2872 
G01 X-6.8388 Y21.3759 
G01 X-6.7709 Y21.4438 
G01 X-6.6822 Y21.4805 
G01 X-6.0416 Y21.4805 
G01 X-5.6055 Y21.9166 
G01 X-5.6055 Y22.5334 
G01 X-5.6581 Y22.5860 
G01 X-5.7260 Y22.6539 
G01 X-5.7517 Y22.7158 
G01 X-5.7627 Y22.7425 
G01 X-5.7627 Y22.8385 
G01 X-5.7260 Y22.9272 
G01 X-4.8570 Y23.7962 
G01 X-4.7462 Y23.9070 
G01 X-4.6863 Y24.0517 
G01 X-4.6863 Y25.1850 
G01 X-4.6496 Y25.2737 
G01 X-4.6370 Y25.2862 
G01 X-3.9004 Y26.0228 
G01 X-3.8451 Y26.0781 
G01 X-3.8325 Y26.0907 
G01 X-3.7439 Y26.1274 
G01 X-3.6479 Y26.1274 
G01 X-3.5592 Y26.0907 
G01 X-3.4913 Y26.0228 
G01 X-3.1803 Y25.7118 
G01 X-3.0101 Y25.6413 
G01 X-2.9214 Y25.6046 
G01 X-2.8546 Y25.5377 
G01 X-2.8325 Y25.4858 
G01 X-2.8168 Y25.4480 
G01 X-2.8168 Y25.3520 
G01 X-2.8535 Y25.2633 
G01 X-2.9204 Y25.1965 
G01 X-2.9854 Y25.1689 
G01 X-3.0101 Y25.1587 
G01 X-3.1803 Y25.0882 
G01 X-3.4982 Y24.7703 
G01 X-3.6703 Y24.3548 
G01 X-3.6703 Y23.9052 
G01 X-3.4982 Y23.4897 
G01 X-3.1803 Y23.1718 
G01 X-2.9340 Y23.0698 
G01 X-2.9242 Y23.0690 
G01 X-2.8899 Y23.0515 
G01 X-2.8543 Y23.0368 
G01 X-2.8474 Y23.0299 
G01 X-2.8387 Y23.0254 
G01 X-2.8137 Y22.9961 
G01 X-2.7865 Y22.9689 
G01 X-2.7827 Y22.9599 
G01 X-2.7764 Y22.9524 
G01 X-2.7645 Y22.9158 
G01 X-2.7497 Y22.8802 
G01 X-2.7497 Y22.8704 
G01 X-2.7467 Y22.8611 
G01 X-2.7497 Y22.8227 
G01 X-2.7497 Y22.7842 
G01 X-2.7535 Y22.7752 
G01 X-2.7542 Y22.7654 
G01 X-2.7717 Y22.7311 
G01 X-2.7865 Y22.6955 
G01 X-2.7934 Y22.6886 
G01 X-2.7978 Y22.6799 
G01 X-2.8271 Y22.6549 
G01 X-2.8543 Y22.6276 
G01 X-2.8634 Y22.6239 
G01 X-2.8708 Y22.6176 
G01 X-2.9074 Y22.6057 
G01 X-2.9430 Y22.5909 
G01 X-2.9528 Y22.5909 
G01 X-3.1058 Y22.5133 
G01 X-3.2432 Y22.4134 
G01 X-3.3634 Y22.2932 
G01 X-3.4633 Y22.1558 
G01 X-3.5404 Y22.0044 
G01 X-3.5554 Y21.9583 
G01 X-3.5287 Y21.9583 
G01 X-3.5169 Y21.9946 
G01 X-3.4415 Y22.1425 
G01 X-3.3440 Y22.2767 
G01 X-3.2267 Y22.3940 
G01 X-3.0925 Y22.4915 
G01 X-2.9446 Y22.5669 
G01 X-2.7868 Y22.6181 
G01 X-2.6230 Y22.6441 
G01 X-2.4570 Y22.6441 
G01 X-2.2932 Y22.6181 
G01 X-2.1354 Y22.5669 
G01 X-1.9875 Y22.4915 
G01 X-1.8533 Y22.3940 
G01 X-1.7360 Y22.2767 
G01 X-1.6385 Y22.1425 
G01 X-1.5631 Y21.9946 
G01 X-1.5513 Y21.9583 
G01 X-1.5246 Y21.9583 
G01 X-1.5396 Y22.0044 
G01 X-1.6167 Y22.1558 
G01 X-1.7166 Y22.2932 
G01 X-1.8368 Y22.4134 
G01 X-1.9742 Y22.5133 
G01 X-2.1256 Y22.5904 
G01 X-2.1370 Y22.5909 
G01 X-2.1726 Y22.6057 
G01 X-2.2092 Y22.6176 
G01 X-2.2166 Y22.6239 
G01 X-2.2256 Y22.6276 
G01 X-2.2529 Y22.6549 
G01 X-2.2822 Y22.6799 
G01 X-2.2866 Y22.6886 
G01 X-2.2935 Y22.6955 
G01 X-2.3083 Y22.7311 
G01 X-2.3257 Y22.7654 
G01 X-2.3265 Y22.7752 
G01 X-2.3303 Y22.7842 
G01 X-2.3303 Y22.8227 
G01 X-2.3333 Y22.8611 
G01 X-2.3303 Y22.8704 
G01 X-2.3303 Y22.8802 
G01 X-2.3155 Y22.9158 
G01 X-2.3036 Y22.9524 
G01 X-2.2973 Y22.9599 
G01 X-2.2935 Y22.9689 
G01 X-2.2663 Y22.9961 
G01 X-2.2413 Y23.0254 
G01 X-2.2326 Y23.0299 
G01 X-2.2256 Y23.0368 
G01 X-2.1901 Y23.0515 
G01 X-2.1558 Y23.0690 
G01 X-2.1460 Y23.0698 
G01 X-1.8997 Y23.1718 
G01 X-1.5818 Y23.4897 
G01 X-1.5736 Y23.5095 
G01 X-1.5651 Y23.5301 
G01 X-1.4982 Y23.5969 
G01 X-1.4612 Y23.6129 
G01 X-1.4085 Y23.6347 
G01 X-1.1715 Y23.6347 
G01 X-0.9894 Y23.7101 
G01 X-0.7380 Y23.9616 
G01 X-0.6731 Y24.0265 
G01 X-0.6701 Y24.0295 
G01 X-0.5814 Y24.0662 
G01 X-0.4854 Y24.0662 
G01 X-0.3967 Y24.0295 
G01 X-0.3299 Y23.9626 
G01 X-0.2921 Y23.8729 
G01 X-0.2921 Y6.5964 
G01 X-0.2905 Y6.5527 
G01 X-0.2921 Y6.5485 
G01 X-0.2921 Y6.5441 
G01 X-0.3088 Y6.5037 
G01 X-0.3241 Y6.4628 
G01 X-0.3271 Y6.4595 
G01 X-0.3288 Y6.4554 
G01 X-0.3597 Y6.4245 
G01 X-0.3895 Y6.3925 
G01 X-0.3936 Y6.3906 
G01 X-0.3967 Y6.3875 
G01 X-0.4371 Y6.3708 
G01 X-0.4768 Y6.3526 
G01 X-0.4813 Y6.3525 
G01 X-0.4854 Y6.3508 
G01 X-0.5291 Y6.3508 
G01 X-0.5728 Y6.3492 
G01 X-0.5769 Y6.3508 
G01 X-0.5814 Y6.3508 
G01 X-0.6218 Y6.3675 
G01 X-0.6627 Y6.3827 
G01 X-0.6660 Y6.3858 
G01 X-0.6701 Y6.3875 
G01 X-0.7010 Y6.4184 
G01 X-0.7329 Y6.4482 
G01 X-0.7348 Y6.4522 
G01 X-0.7380 Y6.4554 
G01 X-0.7547 Y6.4958 
G01 X-0.8643 Y6.7358 
G01 X-0.8675 Y6.7389 
G01 X-0.8709 Y6.7472 
G01 X-1.6605 Y7.6585 
G01 X-2.6787 Y8.3128 
G01 X-3.8399 Y8.6537 
G01 X-5.0501 Y8.6537 
G01 X-6.2113 Y8.3128 
G01 X-7.2295 Y7.6585 
G01 X-8.0191 Y6.7472 
G01 X-8.0225 Y6.7389 
G01 X-8.0257 Y6.7358 
G01 X-8.5248 Y5.6429 
G01 X-8.6970 Y4.4450 
G01 X-8.5248 Y3.2471 
G01 X-8.0257 Y2.1542 
G01 X-8.0225 Y2.1511 
G01 X-8.0191 Y2.1428 
G01 X-7.2295 Y1.2315 
G01 X-6.4772 Y0.7481 
G01 X-6.4528 Y0.7380 
G01 X-6.4372 Y0.7224 
G01 X-6.4186 Y0.7104 
G01 X-6.4036 Y0.6888 
G01 X-6.3849 Y0.6701 
G01 X-6.3765 Y0.6497 
G01 X-6.3639 Y0.6316 
G01 X-6.3583 Y0.6058 
G01 X-6.3482 Y0.5814 
G01 X-6.3482 Y0.5593 
G01 X-6.3435 Y0.5378 
G01 X-6.3482 Y0.5118 
G01 X-6.3482 Y0.4854 
G01 X-6.3566 Y0.4650 
G01 X-6.3605 Y0.4433 
G01 X-6.3748 Y0.4211 
G01 X-6.3849 Y0.3967 
G01 X-6.4005 Y0.3811 
G01 X-6.4124 Y0.3626 
G00 Z2.5400 
G00 X-19.6797 Y1.5818 
G01 Z-0.1778 F254.00 
G01 X-19.3618 Y1.8997 F508.00 
G01 X-19.1897 Y2.3152 
G01 X-19.1897 Y2.7648 
G01 X-19.3618 Y3.1803 
G01 X-19.6797 Y3.4982 
G01 X-19.9260 Y3.6002 
G01 X-19.9358 Y3.6010 
G01 X-19.9701 Y3.6185 
G01 X-20.0056 Y3.6332 
G01 X-20.0126 Y3.6401 
G01 X-20.0213 Y3.6446 
G01 X-20.0463 Y3.6739 
G01 X-20.0735 Y3.7011 
G01 X-20.0773 Y3.7101 
G01 X-20.0836 Y3.7176 
G01 X-20.0955 Y3.7542 
G01 X-20.1103 Y3.7898 
G01 X-20.1103 Y3.7996 
G01 X-20.1133 Y3.8089 
G01 X-20.1103 Y3.8473 
G01 X-20.1103 Y3.8858 
G01 X-20.1065 Y3.8948 
G01 X-20.1057 Y3.9046 
G01 X-20.0883 Y3.9389 
G01 X-20.0735 Y3.9745 
G01 X-20.0666 Y3.9814 
G01 X-20.0622 Y3.9901 
G01 X-20.0329 Y4.0151 
G01 X-20.0056 Y4.0423 
G01 X-19.9966 Y4.0461 
G01 X-19.9892 Y4.0524 
G01 X-19.9526 Y4.0643 
G01 X-19.9170 Y4.0791 
G01 X-19.9072 Y4.0791 
G01 X-19.7542 Y4.1567 
G01 X-19.6168 Y4.2566 
G01 X-19.4966 Y4.3768 
G01 X-19.3967 Y4.5142 
G01 X-19.3196 Y4.6656 
G01 X-19.3046 Y4.7117 
G01 X-19.3313 Y4.7117 
G01 X-19.3431 Y4.6754 
G01 X-19.4185 Y4.5275 
G01 X-19.5160 Y4.3933 
G01 X-19.6333 Y4.2760 
G01 X-19.7675 Y4.1785 
G01 X-19.9154 Y4.1031 
G01 X-20.0732 Y4.0519 
G01 X-20.2370 Y4.0259 
G01 X-20.4030 Y4.0259 
G01 X-20.5668 Y4.0519 
G01 X-20.7246 Y4.1031 
G01 X-20.8725 Y4.1785 
G01 X-21.0067 Y4.2760 
G01 X-21.1240 Y4.3933 
G01 X-21.2215 Y4.5275 
G01 X-21.2969 Y4.6754 
G01 X-21.3087 Y4.7117 
G01 X-21.3354 Y4.7117 
G01 X-21.3204 Y4.6656 
G01 X-21.2433 Y4.5142 
G01 X-21.1434 Y4.3768 
G01 X-21.0232 Y4.2566 
G01 X-20.8858 Y4.1567 
G01 X-20.7344 Y4.0796 
G01 X-20.7230 Y4.0791 
G01 X-20.6874 Y4.0643 
G01 X-20.6508 Y4.0524 
G01 X-20.6434 Y4.0461 
G01 X-20.6343 Y4.0423 
G01 X-20.6071 Y4.0151 
G01 X-20.5778 Y3.9901 
G01 X-20.5734 Y3.9814 
G01 X-20.5665 Y3.9745 
G01 X-20.5517 Y3.9389 
G01 X-20.5342 Y3.9046 
G01 X-20.5335 Y3.8948 
G01 X-20.5297 Y3.8858 
G01 X-20.5297 Y3.8473 
G01 X-20.5267 Y3.8089 
G01 X-20.5297 Y3.7996 
G01 X-20.5297 Y3.7898 
G01 X-20.5445 Y3.7542 
G01 X-20.5564 Y3.7176 
G01 X-20.5627 Y3.7101 
G01 X-20.5665 Y3.7011 
G01 X-20.5937 Y3.6739 
G01 X-20.6187 Y3.6446 
G01 X-20.6274 Y3.6401 
G01 X-20.6343 Y3.6332 
G01 X-20.6699 Y3.6185 
G01 X-20.7042 Y3.6010 
G01 X-20.7140 Y3.6002 
G01 X-20.9603 Y3.4982 
G01 X-21.2782 Y3.1803 
G01 X-21.3003 Y3.1270 
G01 X-21.3370 Y3.0383 
G01 X-21.4038 Y2.9715 
G01 X-21.4936 Y2.9337 
G01 X-23.5914 Y2.9337 
G01 X-23.6801 Y2.9704 
G01 X-23.7480 Y3.0383 
G01 X-23.7847 Y3.1270 
G01 X-23.8068 Y3.1803 
G01 X-24.1247 Y3.4982 
G01 X-24.3710 Y3.6002 
G01 X-24.3807 Y3.6010 
G01 X-24.4150 Y3.6185 
G01 X-24.4506 Y3.6332 
G01 X-24.4576 Y3.6401 
G01 X-24.4663 Y3.6446 
G01 X-24.4913 Y3.6739 
G01 X-24.5185 Y3.7011 
G01 X-24.5223 Y3.7101 
G01 X-24.5286 Y3.7176 
G01 X-24.5405 Y3.7542 
G01 X-24.5553 Y3.7898 
G01 X-24.5553 Y3.7996 
G01 X-24.5583 Y3.8089 
G01 X-24.5553 Y3.8473 
G01 X-24.5553 Y3.8858 
G01 X-24.5515 Y3.8948 
G01 X-24.5507 Y3.9046 
G01 X-24.5333 Y3.9389 
G01 X-24.5185 Y3.9745 
G01 X-24.5116 Y3.9814 
G01 X-24.5072 Y3.9901 
G01 X-24.4779 Y4.0151 
G01 X-24.4506 Y4.0423 
G01 X-24.4416 Y4.0461 
G01 X-24.4342 Y4.0524 
G01 X-24.3975 Y4.0643 
G01 X-24.3620 Y4.0791 
G01 X-24.3522 Y4.0791 
G01 X-24.1992 Y4.1567 
G01 X-24.0618 Y4.2566 
G01 X-23.9416 Y4.3768 
G01 X-23.8417 Y4.5142 
G01 X-23.7646 Y4.6656 
G01 X-23.7496 Y4.7117 
G01 X-23.7763 Y4.7117 
G01 X-23.7881 Y4.6754 
G01 X-23.8635 Y4.5275 
G01 X-23.9610 Y4.3933 
G01 X-24.0783 Y4.2760 
G01 X-24.2125 Y4.1785 
G01 X-24.3604 Y4.1031 
G01 X-24.5182 Y4.0519 
G01 X-24.6820 Y4.0259 
G01 X-24.8480 Y4.0259 
G01 X-25.0118 Y4.0519 
G01 X-25.1696 Y4.1031 
G01 X-25.3175 Y4.1785 
G01 X-25.4517 Y4.2760 
G01 X-25.5690 Y4.3933 
G01 X-25.6665 Y4.5275 
G01 X-25.7419 Y4.6754 
G01 X-25.7537 Y4.7117 
G01 X-25.7804 Y4.7117 
G01 X-25.7654 Y4.6656 
G01 X-25.6883 Y4.5142 
G01 X-25.5884 Y4.3768 
G01 X-25.4682 Y4.2566 
G01 X-25.3308 Y4.1567 
G01 X-25.1794 Y4.0796 
G01 X-25.1680 Y4.0791 
G01 X-25.1324 Y4.0643 
G01 X-25.0958 Y4.0524 
G01 X-25.0884 Y4.0461 
G01 X-25.0793 Y4.0423 
G01 X-25.0521 Y4.0151 
G01 X-25.0228 Y3.9901 
G01 X-25.0184 Y3.9814 
G01 X-25.0115 Y3.9745 
G01 X-24.9967 Y3.9389 
G01 X-24.9792 Y3.9046 
G01 X-24.9785 Y3.8948 
G01 X-24.9747 Y3.8858 
G01 X-24.9747 Y3.8473 
G01 X-24.9717 Y3.8089 
G01 X-24.9747 Y3.7996 
G01 X-24.9747 Y3.7898 
G01 X-24.9895 Y3.7542 
G01 X-25.0014 Y3.7176 
G01 X-25.0077 Y3.7101 
G01 X-25.0115 Y3.7011 
G01 X-25.0387 Y3.6739 
G01 X-25.0637 Y3.6446 
G01 X-25.0724 Y3.6401 
G01 X-25.0793 Y3.6332 
G01 X-25.1149 Y3.6185 
G01 X-25.1492 Y3.6010 
G01 X-25.1590 Y3.6002 
G01 X-25.4053 Y3.4982 
G01 X-25.7232 Y3.1803 
G01 X-25.7453 Y3.1270 
G01 X-25.7820 Y3.0383 
G01 X-25.8499 Y2.9704 
G01 X-25.9386 Y2.9337 
G01 X-28.0364 Y2.9337 
G01 X-28.1251 Y2.9704 
G01 X-28.1930 Y3.0383 
G01 X-28.2297 Y3.1270 
G01 X-28.2518 Y3.1803 
G01 X-28.5697 Y3.4982 
G01 X-28.8160 Y3.6002 
G01 X-28.8258 Y3.6010 
G01 X-28.8601 Y3.6185 
G01 X-28.8956 Y3.6332 
G01 X-28.9026 Y3.6401 
G01 X-28.9113 Y3.6446 
G01 X-28.9363 Y3.6739 
G01 X-28.9635 Y3.7011 
G01 X-28.9673 Y3.7101 
G01 X-28.9736 Y3.7176 
G01 X-28.9855 Y3.7542 
G01 X-29.0003 Y3.7898 
G01 X-29.0003 Y3.7996 
G01 X-29.0033 Y3.8089 
G01 X-29.0003 Y3.8473 
G01 X-29.0003 Y3.8858 
G01 X-28.9965 Y3.8948 
G01 X-28.9957 Y3.9046 
G01 X-28.9783 Y3.9389 
G01 X-28.9635 Y3.9745 
G01 X-28.9566 Y3.9814 
G01 X-28.9522 Y3.9901 
G01 X-28.9229 Y4.0151 
G01 X-28.8956 Y4.0423 
G01 X-28.8866 Y4.0461 
G01 X-28.8792 Y4.0524 
G01 X-28.8426 Y4.0643 
G01 X-28.8070 Y4.0791 
G01 X-28.7972 Y4.0791 
G01 X-28.6442 Y4.1567 
G01 X-28.5068 Y4.2566 
G01 X-28.3866 Y4.3768 
G01 X-28.2867 Y4.5142 
G01 X-28.2096 Y4.6656 
G01 X-28.1946 Y4.7117 
G01 X-28.2213 Y4.7117 
G01 X-28.2331 Y4.6754 
G01 X-28.3085 Y4.5275 
G01 X-28.4060 Y4.3933 
G01 X-28.5233 Y4.2760 
G01 X-28.6575 Y4.1785 
G01 X-28.8054 Y4.1031 
G01 X-28.9632 Y4.0519 
G01 X-29.1270 Y4.0259 
G01 X-29.2930 Y4.0259 
G01 X-29.4568 Y4.0519 
G01 X-29.6146 Y4.1031 
G01 X-29.7625 Y4.1785 
G01 X-29.8967 Y4.2760 
G01 X-30.0140 Y4.3933 
G01 X-30.1115 Y4.5275 
G01 X-30.1869 Y4.6754 
G01 X-30.1987 Y4.7117 
G01 X-30.2254 Y4.7117 
G01 X-30.2104 Y4.6656 
G01 X-30.1333 Y4.5142 
G01 X-30.0334 Y4.3768 
G01 X-29.9132 Y4.2566 
G01 X-29.7758 Y4.1567 
G01 X-29.6244 Y4.0796 
G01 X-29.6130 Y4.0791 
G01 X-29.5775 Y4.0643 
G01 X-29.5408 Y4.0524 
G01 X-29.5334 Y4.0461 
G01 X-29.5243 Y4.0423 
G01 X-29.4971 Y4.0151 
G01 X-29.4678 Y3.9901 
G01 X-29.4634 Y3.9814 
G01 X-29.4565 Y3.9745 
G01 X-29.4417 Y3.9389 
G01 X-29.4243 Y3.9046 
G01 X-29.4235 Y3.8948 
G01 X-29.4197 Y3.8858 
G01 X-29.4197 Y3.8473 
G01 X-29.4167 Y3.8089 
G01 X-29.4197 Y3.7996 
G01 X-29.4197 Y3.7898 
G01 X-29.4345 Y3.7542 
G01 X-29.4464 Y3.7176 
G01 X-29.4527 Y3.7101 
G01 X-29.4565 Y3.7011 
G01 X-29.4837 Y3.6739 
G01 X-29.5087 Y3.6446 
G01 X-29.5174 Y3.6401 
G01 X-29.5243 Y3.6332 
G01 X-29.5599 Y3.6185 
G01 X-29.5942 Y3.6010 
G01 X-29.6040 Y3.6002 
G01 X-29.8503 Y3.4982 
G01 X-30.1682 Y3.1803 
G01 X-30.1903 Y3.1270 
G01 X-30.2270 Y3.0383 
G01 X-30.2938 Y2.9715 
G01 X-30.3836 Y2.9337 
G01 X-32.4814 Y2.9337 
G01 X-32.5701 Y2.9704 
G01 X-32.6380 Y3.0383 
G01 X-32.6747 Y3.1270 
G01 X-32.6968 Y3.1803 
G01 X-33.0147 Y3.4982 
G01 X-33.2610 Y3.6002 
G01 X-33.2708 Y3.6010 
G01 X-33.3051 Y3.6185 
G01 X-33.3406 Y3.6332 
G01 X-33.3476 Y3.6401 
G01 X-33.3563 Y3.6446 
G01 X-33.3813 Y3.6739 
G01 X-33.4085 Y3.7011 
G01 X-33.4123 Y3.7101 
G01 X-33.4186 Y3.7176 
G01 X-33.4305 Y3.7542 
G01 X-33.4453 Y3.7898 
G01 X-33.4453 Y3.7996 
G01 X-33.4483 Y3.8089 
G01 X-33.4453 Y3.8473 
G01 X-33.4453 Y3.8858 
G01 X-33.4415 Y3.8948 
G01 X-33.4407 Y3.9046 
G01 X-33.4233 Y3.9389 
G01 X-33.4085 Y3.9745 
G01 X-33.4016 Y3.9814 
G01 X-33.3972 Y3.9901 
G01 X-33.3679 Y4.0151 
G01 X-33.3406 Y4.0423 
G01 X-33.3316 Y4.0461 
G01 X-33.3242 Y4.0524 
G01 X-33.2876 Y4.0643 
G01 X-33.2520 Y4.0791 
G01 X-33.2422 Y4.0791 
G01 X-33.0892 Y4.1567 
G01 X-32.9518 Y4.2566 
G01 X-32.8316 Y4.3768 
G01 X-32.7317 Y4.5142 
G01 X-32.6546 Y4.6656 
G01 X-32.6396 Y4.7117 
G01 X-32.6663 Y4.7117 
G01 X-32.6781 Y4.6754 
G01 X-32.7535 Y4.5275 
G01 X-32.8510 Y4.3933 
G01 X-32.9683 Y4.2760 
G01 X-33.1025 Y4.1785 
G01 X-33.2504 Y4.1031 
G01 X-33.4082 Y4.0519 
G01 X-33.5720 Y4.0259 
G01 X-33.7380 Y4.0259 
G01 X-33.9018 Y4.0519 
G01 X-34.0596 Y4.1031 
G01 X-34.2075 Y4.1785 
G01 X-34.3417 Y4.2760 
G01 X-34.4590 Y4.3933 
G01 X-34.5565 Y4.5275 
G01 X-34.6319 Y4.6754 
G01 X-34.6437 Y4.7117 
G01 X-34.6704 Y4.7117 
G01 X-34.6554 Y4.6656 
G01 X-34.5783 Y4.5142 
G01 X-34.4784 Y4.3768 
G01 X-34.3582 Y4.2566 
G01 X-34.2208 Y4.1567 
G01 X-34.0694 Y4.0796 
G01 X-34.0580 Y4.0791 
G01 X-34.0224 Y4.0643 
G01 X-33.9858 Y4.0524 
G01 X-33.9784 Y4.0461 
G01 X-33.9693 Y4.0423 
G01 X-33.9421 Y4.0151 
G01 X-33.9128 Y3.9901 
G01 X-33.9084 Y3.9814 
G01 X-33.9015 Y3.9745 
G01 X-33.8867 Y3.9389 
G01 X-33.8692 Y3.9046 
G01 X-33.8685 Y3.8948 
G01 X-33.8647 Y3.8858 
G01 X-33.8647 Y3.8473 
G01 X-33.8617 Y3.8089 
G01 X-33.8647 Y3.7996 
G01 X-33.8647 Y3.7898 
G01 X-33.8795 Y3.7542 
G01 X-33.8914 Y3.7176 
G01 X-33.8977 Y3.7101 
G01 X-33.9015 Y3.7011 
G01 X-33.9287 Y3.6739 
G01 X-33.9537 Y3.6446 
G01 X-33.9624 Y3.6401 
G01 X-33.9693 Y3.6332 
G01 X-34.0049 Y3.6185 
G01 X-34.0392 Y3.6010 
G01 X-34.0490 Y3.6002 
G01 X-34.2953 Y3.4982 
G01 X-34.5344 Y3.2590 
G01 X-34.6023 Y3.1912 
G01 X-34.6900 Y3.1549 
G01 X-34.7870 Y3.1544 
G01 X-34.8757 Y3.1912 
G01 X-36.2980 Y4.6134 
G01 X-36.3347 Y4.7021 
G01 X-36.3347 Y5.8135 
G01 X-36.4101 Y5.9956 
G01 X-37.0451 Y6.6306 
G01 X-37.1844 Y6.7699 
G01 X-37.3665 Y6.8453 
G01 X-38.2385 Y6.8453 
G01 X-38.2897 Y6.8665 
G01 X-38.3272 Y6.8820 
G01 X-38.3951 Y6.9499 
G01 X-38.4025 Y6.9678 
G01 X-38.4118 Y6.9903 
G01 X-38.7297 Y7.3082 
G01 X-38.8999 Y7.3787 
G01 X-38.9886 Y7.4154 
G01 X-39.0565 Y7.4833 
G01 X-39.0821 Y7.5453 
G01 X-39.0932 Y7.5720 
G01 X-39.0932 Y7.6680 
G01 X-39.0565 Y7.7567 
G01 X-38.9886 Y7.8246 
G01 X-38.9092 Y7.8574 
G01 X-38.8999 Y7.8613 
G01 X-38.7297 Y7.9318 
G01 X-38.4118 Y8.2497 
G01 X-38.2397 Y8.6652 
G01 X-38.2397 Y9.1148 
G01 X-38.4118 Y9.5303 
G01 X-38.7297 Y9.8482 
G01 X-38.7495 Y9.8564 
G01 X-38.7701 Y9.8649 
G01 X-38.8369 Y9.9318 
G01 X-38.8529 Y9.9688 
G01 X-38.8747 Y10.0215 
G01 X-38.8747 Y11.3166 
G01 X-38.8380 Y11.4053 
G01 X-38.7701 Y11.4731 
G01 X-37.9737 Y12.2696 
G01 X-37.8850 Y12.3063 
G01 X-31.9650 Y12.3063 
G01 X-31.8763 Y12.2696 
G01 X-31.8085 Y12.2017 
G01 X-31.7717 Y12.1130 
G01 X-31.7717 Y12.0170 
G01 X-31.8085 Y11.9283 
G01 X-31.8763 Y11.8604 
G01 X-33.8780 Y9.8588 
G01 X-33.9888 Y9.7480 
G01 X-34.0487 Y9.6033 
G01 X-34.0487 Y8.7936 
G01 X-34.0854 Y8.7049 
G01 X-34.1533 Y8.6370 
G01 X-34.2420 Y8.6003 
G01 X-34.2953 Y8.5782 
G01 X-34.6132 Y8.2603 
G01 X-34.7853 Y7.8448 
G01 X-34.7853 Y7.3952 
G01 X-34.6132 Y6.9797 
G01 X-34.2953 Y6.6618 
G01 X-34.0490 Y6.5598 
G01 X-34.0392 Y6.5590 
G01 X-34.0049 Y6.5415 
G01 X-33.9693 Y6.5268 
G01 X-33.9624 Y6.5199 
G01 X-33.9537 Y6.5154 
G01 X-33.9287 Y6.4861 
G01 X-33.9015 Y6.4589 
G01 X-33.8977 Y6.4499 
G01 X-33.8914 Y6.4424 
G01 X-33.8795 Y6.4058 
G01 X-33.8647 Y6.3702 
G01 X-33.8647 Y6.3604 
G01 X-33.8617 Y6.3511 
G01 X-33.8647 Y6.3127 
G01 X-33.8647 Y6.2742 
G01 X-33.8685 Y6.2652 
G01 X-33.8692 Y6.2554 
G01 X-33.8867 Y6.2211 
G01 X-33.9015 Y6.1855 
G01 X-33.9084 Y6.1786 
G01 X-33.9128 Y6.1699 
G01 X-33.9421 Y6.1449 
G01 X-33.9693 Y6.1177 
G01 X-33.9784 Y6.1139 
G01 X-33.9858 Y6.1076 
G01 X-34.0224 Y6.0957 
G01 X-34.0580 Y6.0809 
G01 X-34.0678 Y6.0809 
G01 X-34.2208 Y6.0033 
G01 X-34.3582 Y5.9034 
G01 X-34.4784 Y5.7832 
G01 X-34.5783 Y5.6458 
G01 X-34.6554 Y5.4944 
G01 X-34.6704 Y5.4483 
G01 X-34.6437 Y5.4483 
G01 X-34.6319 Y5.4846 
G01 X-34.5565 Y5.6325 
G01 X-34.4590 Y5.7667 
G01 X-34.3417 Y5.8840 
G01 X-34.2075 Y5.9815 
G01 X-34.0596 Y6.0569 
G01 X-33.9018 Y6.1081 
G01 X-33.7380 Y6.1341 
G01 X-33.5720 Y6.1341 
G01 X-33.4082 Y6.1081 
G01 X-33.2504 Y6.0569 
G01 X-33.1025 Y5.9815 
G01 X-32.9683 Y5.8840 
G01 X-32.8510 Y5.7667 
G01 X-32.7535 Y5.6325 
G01 X-32.6781 Y5.4846 
G01 X-32.6663 Y5.4483 
G01 X-32.6396 Y5.4483 
G01 X-32.6546 Y5.4944 
G01 X-32.7317 Y5.6458 
G01 X-32.8316 Y5.7832 
G01 X-32.9518 Y5.9034 
G01 X-33.0892 Y6.0033 
G01 X-33.2406 Y6.0804 
G01 X-33.2520 Y6.0809 
G01 X-33.2876 Y6.0957 
G01 X-33.3242 Y6.1076 
G01 X-33.3316 Y6.1139 
G01 X-33.3406 Y6.1177 
G01 X-33.3679 Y6.1449 
G01 X-33.3972 Y6.1699 
G01 X-33.4016 Y6.1786 
G01 X-33.4085 Y6.1855 
G01 X-33.4233 Y6.2211 
G01 X-33.4407 Y6.2554 
G01 X-33.4415 Y6.2652 
G01 X-33.4453 Y6.2742 
G01 X-33.4453 Y6.3127 
G01 X-33.4483 Y6.3511 
G01 X-33.4453 Y6.3604 
G01 X-33.4453 Y6.3702 
G01 X-33.4305 Y6.4058 
G01 X-33.4186 Y6.4424 
G01 X-33.4123 Y6.4499 
G01 X-33.4085 Y6.4589 
G01 X-33.3813 Y6.4861 
G01 X-33.3563 Y6.5154 
G01 X-33.3476 Y6.5199 
G01 X-33.3406 Y6.5268 
G01 X-33.3051 Y6.5415 
G01 X-33.2708 Y6.5590 
G01 X-33.2610 Y6.5598 
G01 X-33.0147 Y6.6618 
G01 X-32.6968 Y6.9797 
G01 X-32.5247 Y7.3952 
G01 X-32.5247 Y7.8448 
G01 X-32.6968 Y8.2603 
G01 X-33.0147 Y8.5782 
G01 X-33.0680 Y8.6003 
G01 X-33.1567 Y8.6370 
G01 X-33.2235 Y8.7038 
G01 X-33.2613 Y8.7936 
G01 X-33.2613 Y9.3100 
G01 X-33.2246 Y9.3987 
G01 X-30.9887 Y11.6346 
G01 X-30.9000 Y11.6713 
G01 X-20.8767 Y11.6713 
G01 X-20.7320 Y11.7312 
G01 X-20.5534 Y11.9099 
G01 X-17.4462 Y15.0170 
G01 X-17.3863 Y15.1617 
G01 X-17.3863 Y28.9950 
G01 X-17.3496 Y29.0837 
G01 X-17.2817 Y29.1515 
G01 X-17.0187 Y29.4146 
G01 X-16.9300 Y29.4513 
G01 X-11.5061 Y29.4513 
G01 X-11.4174 Y29.4146 
G01 X-11.3496 Y29.3467 
G01 X-11.1667 Y29.1639 
G01 X-11.1588 Y29.1599 
G01 X-11.1330 Y29.1301 
G01 X-11.1051 Y29.1022 
G01 X-11.1017 Y29.0941 
G01 X-11.0959 Y29.0874 
G01 X-11.0835 Y29.0500 
G01 X-11.0684 Y29.0135 
G01 X-11.0684 Y29.0047 
G01 X-11.0656 Y28.9963 
G01 X-11.0684 Y28.9570 
G01 X-11.0684 Y28.9175 
G01 X-11.0718 Y28.9094 
G01 X-11.0724 Y28.9005 
G01 X-11.0900 Y28.8653 
G01 X-11.1051 Y28.8289 
G01 X-11.1123 Y28.8145 
G01 X-11.1186 Y28.8082 
G01 X-11.1225 Y28.8003 
G01 X-11.1523 Y28.7745 
G01 X-13.5580 Y26.3688 
G01 X-13.6688 Y26.2580 
G01 X-13.7287 Y26.1133 
G01 X-13.7287 Y14.8200 
G01 X-13.7654 Y14.7313 
G01 X-13.8333 Y14.6635 
G01 X-17.2713 Y11.2254 
G01 X-17.3600 Y11.1887 
G01 X-29.2883 Y11.1887 
G01 X-29.4330 Y11.1288 
G01 X-29.5438 Y11.0180 
G01 X-29.6037 Y10.8733 
G01 X-29.6037 Y8.7936 
G01 X-29.6404 Y8.7049 
G01 X-29.7083 Y8.6370 
G01 X-29.7970 Y8.6003 
G01 X-29.8503 Y8.5782 
G01 X-30.1682 Y8.2603 
G01 X-30.3403 Y7.8448 
G01 X-30.3403 Y7.3952 
G01 X-30.1682 Y6.9797 
G01 X-29.8503 Y6.6618 
G01 X-29.6040 Y6.5598 
G01 X-29.5942 Y6.5590 
G01 X-29.5599 Y6.5415 
G01 X-29.5243 Y6.5268 
G01 X-29.5174 Y6.5199 
G01 X-29.5087 Y6.5154 
G01 X-29.4837 Y6.4861 
G01 X-29.4565 Y6.4589 
G01 X-29.4527 Y6.4499 
G01 X-29.4464 Y6.4424 
G01 X-29.4345 Y6.4058 
G01 X-29.4197 Y6.3702 
G01 X-29.4197 Y6.3604 
G01 X-29.4167 Y6.3511 
G01 X-29.4197 Y6.3127 
G01 X-29.4197 Y6.2742 
G01 X-29.4235 Y6.2652 
G01 X-29.4243 Y6.2554 
G01 X-29.4417 Y6.2211 
G01 X-29.4565 Y6.1855 
G01 X-29.4634 Y6.1786 
G01 X-29.4678 Y6.1699 
G01 X-29.4971 Y6.1449 
G01 X-29.5243 Y6.1177 
G01 X-29.5334 Y6.1139 
G01 X-29.5408 Y6.1076 
G01 X-29.5775 Y6.0957 
G01 X-29.6130 Y6.0809 
G01 X-29.6228 Y6.0809 
G01 X-29.7758 Y6.0033 
G01 X-29.9132 Y5.9034 
G01 X-30.0334 Y5.7832 
G01 X-30.1333 Y5.6458 
G01 X-30.2104 Y5.4944 
G01 X-30.2254 Y5.4483 
G01 X-30.1987 Y5.4483 
G01 X-30.1869 Y5.4846 
G01 X-30.1115 Y5.6325 
G01 X-30.0140 Y5.7667 
G01 X-29.8967 Y5.8840 
G01 X-29.7625 Y5.9815 
G01 X-29.6146 Y6.0569 
G01 X-29.4568 Y6.1081 
G01 X-29.2930 Y6.1341 
G01 X-29.1270 Y6.1341 
G01 X-28.9632 Y6.1081 
G01 X-28.8054 Y6.0569 
G01 X-28.6575 Y5.9815 
G01 X-28.5233 Y5.8840 
G01 X-28.4060 Y5.7667 
G01 X-28.3085 Y5.6325 
G01 X-28.2331 Y5.4846 
G01 X-28.2213 Y5.4483 
G01 X-28.1946 Y5.4483 
G01 X-28.2096 Y5.4944 
G01 X-28.2867 Y5.6458 
G01 X-28.3866 Y5.7832 
G01 X-28.5068 Y5.9034 
G01 X-28.6442 Y6.0033 
G01 X-28.7956 Y6.0804 
G01 X-28.8070 Y6.0809 
G01 X-28.8425 Y6.0957 
G01 X-28.8792 Y6.1076 
G01 X-28.8866 Y6.1139 
G01 X-28.8956 Y6.1177 
G01 X-28.9229 Y6.1449 
G01 X-28.9522 Y6.1699 
G01 X-28.9566 Y6.1786 
G01 X-28.9635 Y6.1855 
G01 X-28.9783 Y6.2211 
G01 X-28.9957 Y6.2554 
G01 X-28.9965 Y6.2652 
G01 X-29.0003 Y6.2742 
G01 X-29.0003 Y6.3127 
G01 X-29.0033 Y6.3511 
G01 X-29.0003 Y6.3604 
G01 X-29.0003 Y6.3702 
G01 X-28.9855 Y6.4058 
G01 X-28.9736 Y6.4424 
G01 X-28.9673 Y6.4499 
G01 X-28.9635 Y6.4589 
G01 X-28.9363 Y6.4861 
G01 X-28.9113 Y6.5154 
G01 X-28.9026 Y6.5199 
G01 X-28.8956 Y6.5268 
G01 X-28.8600 Y6.5415 
G01 X-28.8257 Y6.5590 
G01 X-28.8160 Y6.5598 
G01 X-28.5697 Y6.6618 
G01 X-28.2518 Y6.9797 
G01 X-28.0797 Y7.3952 
G01 X-28.0797 Y7.8448 
G01 X-28.2518 Y8.2603 
G01 X-28.5697 Y8.5782 
G01 X-28.6230 Y8.6003 
G01 X-28.7117 Y8.6370 
G01 X-28.7785 Y8.7038 
G01 X-28.8163 Y8.7936 
G01 X-28.8163 Y10.2080 
G01 X-28.7796 Y10.2967 
G01 X-28.7117 Y10.3646 
G01 X-28.6230 Y10.4013 
G01 X-17.0667 Y10.4013 
G01 X-16.9220 Y10.4612 
G01 X-16.7434 Y10.6399 
G01 X-13.0012 Y14.3820 
G01 X-12.9413 Y14.5267 
G01 X-12.9413 Y25.8200 
G01 X-12.9046 Y25.9087 
G01 X-12.8689 Y25.9443 
G01 X-10.6503 Y28.1629 
G01 X-10.6463 Y28.1708 
G01 X-10.6166 Y28.1967 
G01 X-10.5887 Y28.2246 
G01 X-10.5805 Y28.2279 
G01 X-10.5738 Y28.2337 
G01 X-10.5364 Y28.2462 
G01 X-10.5000 Y28.2613 
G01 X-10.4911 Y28.2613 
G01 X-9.5180 Y28.5857 
G01 X-9.4816 Y28.6008 
G01 X-9.4727 Y28.6008 
G01 X-9.4644 Y28.6035 
G01 X-9.4250 Y28.6008 
G01 X-9.3856 Y28.6008 
G01 X-9.3774 Y28.5974 
G01 X-9.3686 Y28.5967 
G01 X-9.3333 Y28.5791 
G01 X-9.2969 Y28.5640 
G01 X-9.2906 Y28.5578 
G01 X-9.2827 Y28.5538 
G01 X-9.2569 Y28.5240 
G01 X-9.1984 Y28.4655 
G01 X-8.5816 Y28.4655 
G01 X-8.1455 Y28.9016 
G01 X-8.1455 Y29.5184 
G01 X-8.5816 Y29.9545 
G01 X-9.1984 Y29.9545 
G01 X-9.6046 Y29.5482 
G01 X-9.6636 Y29.4893 
G01 X-9.6725 Y29.4804 
G01 X-9.7612 Y29.4436 
G01 X-9.8572 Y29.4436 
G01 X-9.9459 Y29.4804 
G01 X-10.0138 Y29.5482 
G01 X-10.0505 Y29.6369 
G01 X-10.0505 Y30.1534 
G01 X-10.4901 Y30.5929 
G01 X-10.5485 Y30.6514 
G01 X-10.5579 Y30.6608 
G01 X-10.5947 Y30.7495 
G01 X-10.5947 Y30.8455 
G01 X-10.5579 Y30.9342 
G01 X-10.4901 Y31.0021 
G01 X-10.0505 Y31.4416 
G01 X-10.0505 Y32.0584 
G01 X-10.4866 Y32.4945 
G01 X-11.1034 Y32.4945 
G01 X-11.4174 Y32.1804 
G01 X-11.5061 Y32.1437 
G01 X-18.4933 Y32.1437 
G01 X-18.6380 Y32.0838 
G01 X-19.2730 Y31.4488 
G01 X-19.3838 Y31.3380 
G01 X-19.4437 Y31.1933 
G01 X-19.4437 Y16.0900 
G01 X-19.4804 Y16.0013 
G01 X-19.5483 Y15.9335 
G01 X-22.3513 Y13.1304 
G01 X-22.4400 Y13.0937 
G01 X-38.1783 Y13.0937 
G01 X-38.3230 Y13.0338 
G01 X-38.4338 Y12.9230 
G01 X-39.3374 Y12.0194 
G01 X-39.3409 Y12.0159 
G01 X-39.4053 Y11.9515 
G01 X-39.4940 Y11.9148 
G01 X-39.6506 Y11.8499 
G01 X-39.7899 Y11.7106 
G01 X-39.8653 Y11.5285 
G01 X-39.8653 Y10.0215 
G01 X-39.8865 Y9.9703 
G01 X-39.9020 Y9.9328 
G01 X-39.9699 Y9.8649 
G01 X-39.9878 Y9.8575 
G01 X-40.0103 Y9.8482 
G01 X-40.3282 Y9.5303 
G01 X-40.5003 Y9.1148 
G01 X-40.5003 Y8.6652 
G01 X-40.3282 Y8.2497 
G01 X-40.0103 Y7.9318 
G01 X-39.7514 Y7.8246 
G01 X-39.6835 Y7.7567 
G01 X-39.6468 Y7.6680 
G01 X-39.6468 Y7.5720 
G01 X-39.6835 Y7.4833 
G01 X-39.7514 Y7.4154 
G01 X-39.8401 Y7.3787 
G01 X-39.9955 Y7.3143 
G01 X-40.0798 Y7.2794 
G01 X-40.0842 Y7.2776 
G01 X-40.1802 Y7.2776 
G01 X-40.2689 Y7.3143 
G01 X-41.1288 Y8.1742 
G01 X-41.1655 Y8.2629 
G01 X-41.1655 Y8.5634 
G01 X-41.6016 Y8.9995 
G01 X-42.2184 Y8.9995 
G01 X-42.6545 Y8.5634 
G01 X-42.6545 Y7.9466 
G01 X-42.2184 Y7.5105 
G01 X-41.9179 Y7.5105 
G01 X-41.8292 Y7.4738 
G01 X-41.8090 Y7.4535 
G01 X-40.5142 Y6.1587 
G01 X-40.4775 Y6.0701 
G01 X-40.3282 Y5.7097 
G01 X-40.0103 Y5.3918 
G01 X-39.7640 Y5.2898 
G01 X-39.7542 Y5.2890 
G01 X-39.7199 Y5.2715 
G01 X-39.6843 Y5.2568 
G01 X-39.6774 Y5.2499 
G01 X-39.6687 Y5.2454 
G01 X-39.6437 Y5.2161 
G01 X-39.6165 Y5.1889 
G01 X-39.6127 Y5.1799 
G01 X-39.6064 Y5.1724 
G01 X-39.5945 Y5.1358 
G01 X-39.5797 Y5.1002 
G01 X-39.5797 Y5.0904 
G01 X-39.5767 Y5.0811 
G01 X-39.5797 Y5.0427 
G01 X-39.5797 Y5.0042 
G01 X-39.5835 Y4.9952 
G01 X-39.5842 Y4.9854 
G01 X-39.6017 Y4.9511 
G01 X-39.6165 Y4.9155 
G01 X-39.6234 Y4.9086 
G01 X-39.6278 Y4.8999 
G01 X-39.6571 Y4.8749 
G01 X-39.6843 Y4.8476 
G01 X-39.6934 Y4.8439 
G01 X-39.7008 Y4.8376 
G01 X-39.7374 Y4.8257 
G01 X-39.7730 Y4.8109 
G01 X-39.7828 Y4.8109 
G01 X-39.9358 Y4.7333 
G01 X-40.0732 Y4.6334 
G01 X-40.1934 Y4.5132 
G01 X-40.2933 Y4.3758 
G01 X-40.3704 Y4.2244 
G01 X-40.3854 Y4.1783 
G01 X-40.3587 Y4.1783 
G01 X-40.3469 Y4.2146 
G01 X-40.2715 Y4.3625 
G01 X-40.1740 Y4.4967 
G01 X-40.0567 Y4.6140 
G01 X-39.9225 Y4.7115 
G01 X-39.7746 Y4.7869 
G01 X-39.6168 Y4.8381 
G01 X-39.4530 Y4.8641 
G01 X-39.2870 Y4.8641 
G01 X-39.1232 Y4.8381 
G01 X-38.9654 Y4.7869 
G01 X-38.8175 Y4.7115 
G01 X-38.6833 Y4.6140 
G01 X-38.5660 Y4.4967 
G01 X-38.4685 Y4.3625 
G01 X-38.3931 Y4.2146 
G01 X-38.3813 Y4.1783 
G01 X-38.3546 Y4.1783 
G01 X-38.3696 Y4.2244 
G01 X-38.4467 Y4.3758 
G01 X-38.5466 Y4.5132 
G01 X-38.6668 Y4.6334 
G01 X-38.8042 Y4.7333 
G01 X-38.9556 Y4.8104 
G01 X-38.9670 Y4.8109 
G01 X-39.0026 Y4.8257 
G01 X-39.0392 Y4.8376 
G01 X-39.0466 Y4.8439 
G01 X-39.0556 Y4.8476 
G01 X-39.0829 Y4.8749 
G01 X-39.1122 Y4.8999 
G01 X-39.1166 Y4.9086 
G01 X-39.1235 Y4.9155 
G01 X-39.1383 Y4.9511 
G01 X-39.1557 Y4.9854 
G01 X-39.1565 Y4.9952 
G01 X-39.1603 Y5.0042 
G01 X-39.1603 Y5.0427 
G01 X-39.1633 Y5.0811 
G01 X-39.1603 Y5.0904 
G01 X-39.1603 Y5.1002 
G01 X-39.1455 Y5.1358 
G01 X-39.1336 Y5.1724 
G01 X-39.1273 Y5.1799 
G01 X-39.1235 Y5.1889 
G01 X-39.0963 Y5.2161 
G01 X-39.0713 Y5.2454 
G01 X-39.0626 Y5.2499 
G01 X-39.0556 Y5.2568 
G01 X-39.0201 Y5.2715 
G01 X-38.9858 Y5.2890 
G01 X-38.9760 Y5.2898 
G01 X-38.7297 Y5.3918 
G01 X-38.4118 Y5.7097 
G01 X-38.4036 Y5.7295 
G01 X-38.3951 Y5.7501 
G01 X-38.3282 Y5.8169 
G01 X-38.2912 Y5.8329 
G01 X-38.2385 Y5.8547 
G01 X-37.7221 Y5.8547 
G01 X-37.6334 Y5.8180 
G01 X-37.5655 Y5.7501 
G01 X-37.3620 Y5.5466 
G01 X-37.3253 Y5.4579 
G01 X-37.3253 Y4.3465 
G01 X-37.2499 Y4.1644 
G01 X-37.0427 Y3.9572 
G01 X-35.2056 Y2.1201 
G01 X-35.0235 Y2.0447 
G01 X-34.7865 Y2.0447 
G01 X-34.7353 Y2.0235 
G01 X-34.6978 Y2.0080 
G01 X-34.6299 Y1.9401 
G01 X-34.6225 Y1.9222 
G01 X-34.6132 Y1.8997 
G01 X-34.2953 Y1.5818 
G01 X-33.8798 Y1.4097 
G01 X-33.4302 Y1.4097 
G01 X-33.0147 Y1.5818 
G01 X-32.6968 Y1.8997 
G01 X-32.6747 Y1.9530 
G01 X-32.6380 Y2.0417 
G01 X-32.5711 Y2.1085 
G01 X-32.4814 Y2.1463 
G01 X-30.3836 Y2.1463 
G01 X-30.2949 Y2.1096 
G01 X-30.2270 Y2.0417 
G01 X-30.1903 Y1.9530 
G01 X-30.1682 Y1.8997 
G01 X-29.8503 Y1.5818 
G01 X-29.4348 Y1.4097 
G01 X-28.9852 Y1.4097 
G01 X-28.5697 Y1.5818 
G01 X-28.2518 Y1.8997 
G01 X-28.2297 Y1.9530 
G01 X-28.1930 Y2.0417 
G01 X-28.1261 Y2.1085 
G01 X-28.0364 Y2.1463 
G01 X-25.9386 Y2.1463 
G01 X-25.8499 Y2.1096 
G01 X-25.7820 Y2.0417 
G01 X-25.7453 Y1.9530 
G01 X-25.7232 Y1.8997 
G01 X-25.4053 Y1.5818 
G01 X-24.9898 Y1.4097 
G01 X-24.5402 Y1.4097 
G01 X-24.1247 Y1.5818 
G01 X-23.8068 Y1.8997 
G01 X-23.7847 Y1.9530 
G01 X-23.7480 Y2.0417 
G01 X-23.6811 Y2.1085 
G01 X-23.5914 Y2.1463 
G01 X-21.4936 Y2.1463 
G01 X-21.4049 Y2.1096 
G01 X-21.3370 Y2.0417 
G01 X-21.3003 Y1.9530 
G01 X-21.2782 Y1.8997 
G01 X-20.9603 Y1.5818 
G01 X-20.5448 Y1.4097 
G01 X-20.0952 Y1.4097 
G01 X-19.6797 Y1.5818 
G00 Z2.5400 
G00 X-19.7675 Y1.6385 
G01 Z-0.1778 F254.00 
G01 X-19.9154 Y1.5631 F508.00 
G01 X-20.0732 Y1.5119 
G01 X-20.2370 Y1.4859 
G01 X-20.4030 Y1.4859 
G01 X-20.5668 Y1.5119 
G01 X-20.7246 Y1.5631 
G01 X-20.8725 Y1.6385 
G01 X-21.0067 Y1.7360 
G01 X-21.1240 Y1.8533 
G01 X-21.2215 Y1.9875 
G01 X-21.2969 Y2.1354 
G01 X-21.3252 Y2.2225 
G01 X-23.7598 Y2.2225 
G01 X-23.7881 Y2.1354 
G01 X-23.8635 Y1.9875 
G01 X-23.9610 Y1.8533 
G01 X-24.0783 Y1.7360 
G01 X-24.2125 Y1.6385 
G01 X-24.3604 Y1.5631 
G01 X-24.5182 Y1.5119 
G01 X-24.6820 Y1.4859 
G01 X-24.8480 Y1.4859 
G01 X-25.0118 Y1.5119 
G01 X-25.1696 Y1.5631 
G01 X-25.3175 Y1.6385 
G01 X-25.4517 Y1.7360 
G01 X-25.5690 Y1.8533 
G01 X-25.6665 Y1.9875 
G01 X-25.7419 Y2.1354 
G01 X-25.7702 Y2.2225 
G01 X-28.2048 Y2.2225 
G01 X-28.2331 Y2.1354 
G01 X-28.3085 Y1.9875 
G01 X-28.4060 Y1.8533 
G01 X-28.5233 Y1.7360 
G01 X-28.6575 Y1.6385 
G01 X-28.8054 Y1.5631 
G01 X-28.9632 Y1.5119 
G01 X-29.1270 Y1.4859 
G01 X-29.2930 Y1.4859 
G01 X-29.4568 Y1.5119 
G01 X-29.6146 Y1.5631 
G01 X-29.7625 Y1.6385 
G01 X-29.8967 Y1.7360 
G01 X-30.0140 Y1.8533 
G01 X-30.1115 Y1.9875 
G01 X-30.1869 Y2.1354 
G01 X-30.2152 Y2.2225 
G01 X-32.6498 Y2.2225 
G01 X-32.6781 Y2.1354 
G01 X-32.7535 Y1.9875 
G01 X-32.8510 Y1.8533 
G01 X-32.9683 Y1.7360 
G01 X-33.1025 Y1.6385 
G01 X-33.2504 Y1.5631 
G01 X-33.4082 Y1.5119 
G01 X-33.5720 Y1.4859 
G01 X-33.7380 Y1.4859 
G01 X-33.9018 Y1.5119 
G01 X-34.0596 Y1.5631 
G01 X-34.2075 Y1.6385 
G01 X-34.3417 Y1.7360 
G01 X-34.4590 Y1.8533 
G01 X-34.5565 Y1.9875 
G01 X-34.6245 Y2.1209 
G01 X-34.9802 Y2.1209 
G01 X-35.0868 Y2.1495 
G01 X-35.1823 Y2.2046 
G01 X-37.0873 Y4.1096 
G01 X-37.1654 Y4.1877 
G01 X-37.2205 Y4.2832 
G01 X-37.2491 Y4.3898 
G01 X-37.2491 Y5.5414 
G01 X-37.6386 Y5.9309 
G01 X-38.4005 Y5.9309 
G01 X-38.4685 Y5.7975 
G01 X-38.5660 Y5.6633 
G01 X-38.6833 Y5.5460 
G01 X-38.8175 Y5.4485 
G01 X-38.9654 Y5.3731 
G01 X-39.1232 Y5.3219 
G01 X-39.2870 Y5.2959 
G01 X-39.4530 Y5.2959 
G01 X-39.6168 Y5.3219 
G01 X-39.7746 Y5.3731 
G01 X-39.9225 Y5.4485 
G01 X-40.0567 Y5.5460 
G01 X-40.1740 Y5.6633 
G01 X-40.2715 Y5.7975 
G01 X-40.3469 Y5.9454 
G01 X-40.3981 Y6.1032 
G01 X-40.4070 Y6.1593 
G01 X-41.8344 Y7.5867 
G01 X-42.1868 Y7.5867 
G01 X-42.5783 Y7.9782 
G01 X-42.5783 Y8.5318 
G01 X-42.1868 Y8.9233 
G01 X-41.6332 Y8.9233 
G01 X-41.2417 Y8.5318 
G01 X-41.2417 Y8.1794 
G01 X-40.1365 Y7.0742 
G01 X-40.0567 Y7.1540 
G01 X-39.9225 Y7.2515 
G01 X-39.7746 Y7.3269 
G01 X-39.6168 Y7.3781 
G01 X-39.4530 Y7.4041 
G01 X-39.2870 Y7.4041 
G01 X-39.1232 Y7.3781 
G01 X-38.9654 Y7.3269 
G01 X-38.8175 Y7.2515 
G01 X-38.6833 Y7.1540 
G01 X-38.5660 Y7.0367 
G01 X-38.4685 Y6.9025 
G01 X-38.4005 Y6.7691 
G01 X-37.4098 Y6.7691 
G01 X-37.3032 Y6.7405 
G01 X-37.2077 Y6.6854 
G01 X-37.1296 Y6.6073 
G01 X-36.4946 Y5.9723 
G01 X-36.4395 Y5.8768 
G01 X-36.4109 Y5.7702 
G01 X-36.4109 Y4.6186 
G01 X-34.7514 Y2.9591 
G01 X-34.6245 Y2.9591 
G01 X-34.5565 Y3.0925 
G01 X-34.4590 Y3.2267 
G01 X-34.3417 Y3.3440 
G01 X-34.2075 Y3.4415 
G01 X-34.0596 Y3.5169 
G01 X-33.9018 Y3.5681 
G01 X-33.7380 Y3.5941 
G01 X-33.5720 Y3.5941 
G01 X-33.4082 Y3.5681 
G01 X-33.2504 Y3.5169 
G01 X-33.1025 Y3.4415 
G01 X-32.9683 Y3.3440 
G01 X-32.8510 Y3.2267 
G01 X-32.7535 Y3.0925 
G01 X-32.6781 Y2.9446 
G01 X-32.6498 Y2.8575 
G01 X-30.2152 Y2.8575 
G01 X-30.1869 Y2.9446 
G01 X-30.1115 Y3.0925 
G01 X-30.0140 Y3.2267 
G01 X-29.8967 Y3.3440 
G01 X-29.7625 Y3.4415 
G01 X-29.6146 Y3.5169 
G01 X-29.4568 Y3.5681 
G01 X-29.2930 Y3.5941 
G01 X-29.1270 Y3.5941 
G01 X-28.9632 Y3.5681 
G01 X-28.8054 Y3.5169 
G01 X-28.6575 Y3.4415 
G01 X-28.5233 Y3.3440 
G01 X-28.4060 Y3.2267 
G01 X-28.3085 Y3.0925 
G01 X-28.2331 Y2.9446 
G01 X-28.2048 Y2.8575 
G01 X-25.7702 Y2.8575 
G01 X-25.7419 Y2.9446 
G01 X-25.6665 Y3.0925 
G01 X-25.5690 Y3.2267 
G01 X-25.4517 Y3.3440 
G01 X-25.3175 Y3.4415 
G01 X-25.1696 Y3.5169 
G01 X-25.0118 Y3.5681 
G01 X-24.8480 Y3.5941 
G01 X-24.6820 Y3.5941 
G01 X-24.5182 Y3.5681 
G01 X-24.3604 Y3.5169 
G01 X-24.2125 Y3.4415 
G01 X-24.0783 Y3.3440 
G01 X-23.9610 Y3.2267 
G01 X-23.8635 Y3.0925 
G01 X-23.7881 Y2.9446 
G01 X-23.7598 Y2.8575 
G01 X-21.3252 Y2.8575 
G01 X-21.2969 Y2.9446 
G01 X-21.2215 Y3.0925 
G01 X-21.1240 Y3.2267 
G01 X-21.0067 Y3.3440 
G01 X-20.8725 Y3.4415 
G01 X-20.7246 Y3.5169 
G01 X-20.5668 Y3.5681 
G01 X-20.4030 Y3.5941 
G01 X-20.2370 Y3.5941 
G01 X-20.0732 Y3.5681 
G01 X-19.9154 Y3.5169 
G01 X-19.7675 Y3.4415 
G01 X-19.6333 Y3.3440 
G01 X-19.5160 Y3.2267 
G01 X-19.4185 Y3.0925 
G01 X-19.3431 Y2.9446 
G01 X-19.2919 Y2.7868 
G01 X-19.2659 Y2.6230 
G01 X-19.2659 Y2.4570 
G01 X-19.2919 Y2.2932 
G01 X-19.3431 Y2.1354 
G01 X-19.4185 Y1.9875 
G01 X-19.5160 Y1.8533 
G01 X-19.6333 Y1.7360 
G01 X-19.7675 Y1.6385 
G00 Z2.5400 
G00 X-19.3313 Y5.4483 
G01 Z-0.1778 F254.00 
G01 X-19.3046 Y5.4483 F508.00 
G01 X-19.3196 Y5.4944 
G01 X-19.3967 Y5.6458 
G01 X-19.4966 Y5.7832 
G01 X-19.6168 Y5.9034 
G01 X-19.7542 Y6.0033 
G01 X-19.9056 Y6.0804 
G01 X-19.9170 Y6.0809 
G01 X-19.9526 Y6.0957 
G01 X-19.9892 Y6.1076 
G01 X-19.9966 Y6.1139 
G01 X-20.0056 Y6.1177 
G01 X-20.0329 Y6.1449 
G01 X-20.0622 Y6.1699 
G01 X-20.0666 Y6.1786 
G01 X-20.0735 Y6.1855 
G01 X-20.0883 Y6.2211 
G01 X-20.1057 Y6.2554 
G01 X-20.1065 Y6.2652 
G01 X-20.1103 Y6.2742 
G01 X-20.1103 Y6.3127 
G01 X-20.1133 Y6.3511 
G01 X-20.1103 Y6.3604 
G01 X-20.1103 Y6.3702 
G01 X-20.0955 Y6.4058 
G01 X-20.0836 Y6.4424 
G01 X-20.0773 Y6.4499 
G01 X-20.0735 Y6.4589 
G01 X-20.0463 Y6.4861 
G01 X-20.0213 Y6.5154 
G01 X-20.0126 Y6.5199 
G01 X-20.0056 Y6.5268 
G01 X-19.9701 Y6.5415 
G01 X-19.9358 Y6.5590 
G01 X-19.9260 Y6.5598 
G01 X-19.6797 Y6.6618 
G01 X-19.3618 Y6.9797 
G01 X-19.3475 Y7.0142 
G01 X-19.3252 Y7.0681 
G01 X-19.2573 Y7.1360 
G01 X-19.2064 Y7.1571 
G01 X-19.1686 Y7.1728 
G01 X-19.0726 Y7.1728 
G01 X-19.0369 Y7.1580 
G01 X-18.9839 Y7.1360 
G01 X-18.9160 Y7.0682 
G01 X-18.7234 Y6.8755 
G01 X-18.1066 Y6.8755 
G01 X-17.6705 Y7.3116 
G01 X-17.6705 Y7.9284 
G01 X-18.1066 Y8.3645 
G01 X-18.7234 Y8.3645 
G01 X-18.9160 Y8.1718 
G01 X-18.9783 Y8.1096 
G01 X-18.9839 Y8.1040 
G01 X-19.0348 Y8.0829 
G01 X-19.0726 Y8.0672 
G01 X-19.1686 Y8.0672 
G01 X-19.2043 Y8.0820 
G01 X-19.2573 Y8.1040 
G01 X-19.3252 Y8.1718 
G01 X-19.3466 Y8.2237 
G01 X-19.3618 Y8.2603 
G01 X-19.6797 Y8.5782 
G01 X-20.0952 Y8.7503 
G01 X-20.5448 Y8.7503 
G01 X-20.9603 Y8.5782 
G01 X-21.2782 Y8.2603 
G01 X-21.4503 Y7.8448 
G01 X-21.4503 Y7.3952 
G01 X-21.2782 Y6.9797 
G01 X-20.9603 Y6.6618 
G01 X-20.7140 Y6.5598 
G01 X-20.7042 Y6.5590 
G01 X-20.6699 Y6.5415 
G01 X-20.6343 Y6.5268 
G01 X-20.6274 Y6.5199 
G01 X-20.6187 Y6.5154 
G01 X-20.5937 Y6.4861 
G01 X-20.5665 Y6.4589 
G01 X-20.5627 Y6.4499 
G01 X-20.5564 Y6.4424 
G01 X-20.5445 Y6.4058 
G01 X-20.5297 Y6.3702 
G01 X-20.5297 Y6.3604 
G01 X-20.5267 Y6.3511 
G01 X-20.5297 Y6.3127 
G01 X-20.5297 Y6.2742 
G01 X-20.5335 Y6.2652 
G01 X-20.5342 Y6.2554 
G01 X-20.5517 Y6.2211 
G01 X-20.5665 Y6.1855 
G01 X-20.5734 Y6.1786 
G01 X-20.5778 Y6.1699 
G01 X-20.6071 Y6.1449 
G01 X-20.6343 Y6.1177 
G01 X-20.6434 Y6.1139 
G01 X-20.6508 Y6.1076 
G01 X-20.6874 Y6.0957 
G01 X-20.7230 Y6.0809 
G01 X-20.7328 Y6.0809 
G01 X-20.8858 Y6.0033 
G01 X-21.0232 Y5.9034 
G01 X-21.1434 Y5.7832 
G01 X-21.2433 Y5.6458 
G01 X-21.3204 Y5.4944 
G01 X-21.3354 Y5.4483 
G01 X-21.3087 Y5.4483 
G01 X-21.2969 Y5.4846 
G01 X-21.2215 Y5.6325 
G01 X-21.1240 Y5.7667 
G01 X-21.0067 Y5.8840 
G01 X-20.8725 Y5.9815 
G01 X-20.7246 Y6.0569 
G01 X-20.5668 Y6.1081 
G01 X-20.4030 Y6.1341 
G01 X-20.2370 Y6.1341 
G01 X-20.0732 Y6.1081 
G01 X-19.9154 Y6.0569 
G01 X-19.7675 Y5.9815 
G01 X-19.6333 Y5.8840 
G01 X-19.5160 Y5.7667 
G01 X-19.4185 Y5.6325 
G01 X-19.3431 Y5.4846 
G01 X-19.3313 Y5.4483 
G00 Z2.5400 
G00 X-19.5160 Y6.9333 
G01 Z-0.1778 F254.00 
G01 X-19.6333 Y6.8160 F508.00 
G01 X-19.7675 Y6.7185 
G01 X-19.9154 Y6.6431 
G01 X-20.0732 Y6.5919 
G01 X-20.2370 Y6.5659 
G01 X-20.4030 Y6.5659 
G01 X-20.5668 Y6.5919 
G01 X-20.7246 Y6.6431 
G01 X-20.8725 Y6.7185 
G01 X-21.0067 Y6.8160 
G01 X-21.1240 Y6.9333 
G01 X-21.2215 Y7.0675 
G01 X-21.2969 Y7.2154 
G01 X-21.3481 Y7.3732 
G01 X-21.3741 Y7.5370 
G01 X-21.3741 Y7.7030 
G01 X-21.3481 Y7.8668 
G01 X-21.2969 Y8.0246 
G01 X-21.2215 Y8.1725 
G01 X-21.1240 Y8.3067 
G01 X-21.0067 Y8.4240 
G01 X-20.8725 Y8.5215 
G01 X-20.7246 Y8.5969 
G01 X-20.5668 Y8.6481 
G01 X-20.4030 Y8.6741 
G01 X-20.2370 Y8.6741 
G01 X-20.0732 Y8.6481 
G01 X-19.9154 Y8.5969 
G01 X-19.7675 Y8.5215 
G01 X-19.6333 Y8.4240 
G01 X-19.5160 Y8.3067 
G01 X-19.4185 Y8.1725 
G01 X-19.3431 Y8.0246 
G01 X-19.3148 Y7.9375 
G01 X-19.0426 Y7.9375 
G01 X-18.6918 Y8.2883 
G01 X-18.1382 Y8.2883 
G01 X-17.7467 Y7.8968 
G01 X-17.7467 Y7.3432 
G01 X-18.1382 Y6.9517 
G01 X-18.6918 Y6.9517 
G01 X-19.0426 Y7.3025 
G01 X-19.3148 Y7.3025 
G01 X-19.3431 Y7.2154 
G01 X-19.4185 Y7.0675 
G01 X-19.5160 Y6.9333 
G00 Z2.5400 
G00 X-22.1155 Y7.3116 
G01 Z-0.1778 F254.00 
G01 X-22.1155 Y7.9284 F508.00 
G01 X-22.5516 Y8.3645 
G01 X-23.1684 Y8.3645 
G01 X-23.3610 Y8.1718 
G01 X-23.4233 Y8.1096 
G01 X-23.4289 Y8.1040 
G01 X-23.4798 Y8.0829 
G01 X-23.5176 Y8.0672 
G01 X-23.6136 Y8.0672 
G01 X-23.6493 Y8.0820 
G01 X-23.7023 Y8.1040 
G01 X-23.7702 Y8.1718 
G01 X-23.7916 Y8.2237 
G01 X-23.8068 Y8.2603 
G01 X-24.1247 Y8.5782 
G01 X-24.5402 Y8.7503 
G01 X-24.9898 Y8.7503 
G01 X-25.4053 Y8.5782 
G01 X-25.7232 Y8.2603 
G01 X-25.8953 Y7.8448 
G01 X-25.8953 Y7.3952 
G01 X-25.7232 Y6.9797 
G01 X-25.4053 Y6.6618 
G01 X-25.1590 Y6.5598 
G01 X-25.1492 Y6.5590 
G01 X-25.1149 Y6.5415 
G01 X-25.0793 Y6.5268 
G01 X-25.0724 Y6.5199 
G01 X-25.0637 Y6.5154 
G01 X-25.0387 Y6.4861 
G01 X-25.0115 Y6.4589 
G01 X-25.0077 Y6.4499 
G01 X-25.0014 Y6.4424 
G01 X-24.9895 Y6.4058 
G01 X-24.9747 Y6.3702 
G01 X-24.9747 Y6.3604 
G01 X-24.9717 Y6.3511 
G01 X-24.9747 Y6.3127 
G01 X-24.9747 Y6.2742 
G01 X-24.9785 Y6.2652 
G01 X-24.9792 Y6.2554 
G01 X-24.9967 Y6.2211 
G01 X-25.0115 Y6.1855 
G01 X-25.0184 Y6.1786 
G01 X-25.0228 Y6.1699 
G01 X-25.0521 Y6.1449 
G01 X-25.0793 Y6.1177 
G01 X-25.0884 Y6.1139 
G01 X-25.0958 Y6.1076 
G01 X-25.1324 Y6.0957 
G01 X-25.1680 Y6.0809 
G01 X-25.1778 Y6.0809 
G01 X-25.3308 Y6.0033 
G01 X-25.4682 Y5.9034 
G01 X-25.5884 Y5.7832 
G01 X-25.6883 Y5.6458 
G01 X-25.7654 Y5.4944 
G01 X-25.7804 Y5.4483 
G01 X-25.7537 Y5.4483 
G01 X-25.7419 Y5.4846 
G01 X-25.6665 Y5.6325 
G01 X-25.5690 Y5.7667 
G01 X-25.4517 Y5.8840 
G01 X-25.3175 Y5.9815 
G01 X-25.1696 Y6.0569 
G01 X-25.0118 Y6.1081 
G01 X-24.8480 Y6.1341 
G01 X-24.6820 Y6.1341 
G01 X-24.5182 Y6.1081 
G01 X-24.3604 Y6.0569 
G01 X-24.2125 Y5.9815 
G01 X-24.0783 Y5.8840 
G01 X-23.9610 Y5.7667 
G01 X-23.8635 Y5.6325 
G01 X-23.7881 Y5.4846 
G01 X-23.7763 Y5.4483 
G01 X-23.7496 Y5.4483 
G01 X-23.7646 Y5.4944 
G01 X-23.8417 Y5.6458 
G01 X-23.9416 Y5.7832 
G01 X-24.0618 Y5.9034 
G01 X-24.1992 Y6.0033 
G01 X-24.3506 Y6.0804 
G01 X-24.3620 Y6.0809 
G01 X-24.3976 Y6.0957 
G01 X-24.4342 Y6.1076 
G01 X-24.4416 Y6.1139 
G01 X-24.4506 Y6.1177 
G01 X-24.4779 Y6.1449 
G01 X-24.5072 Y6.1699 
G01 X-24.5116 Y6.1786 
G01 X-24.5185 Y6.1855 
G01 X-24.5333 Y6.2211 
G01 X-24.5507 Y6.2554 
G01 X-24.5515 Y6.2652 
G01 X-24.5553 Y6.2742 
G01 X-24.5553 Y6.3127 
G01 X-24.5583 Y6.3511 
G01 X-24.5553 Y6.3604 
G01 X-24.5553 Y6.3702 
G01 X-24.5405 Y6.4058 
G01 X-24.5286 Y6.4424 
G01 X-24.5223 Y6.4499 
G01 X-24.5185 Y6.4589 
G01 X-24.4913 Y6.4861 
G01 X-24.4663 Y6.5154 
G01 X-24.4576 Y6.5199 
G01 X-24.4506 Y6.5268 
G01 X-24.4151 Y6.5415 
G01 X-24.3808 Y6.5590 
G01 X-24.3710 Y6.5598 
G01 X-24.1247 Y6.6618 
G01 X-23.8068 Y6.9797 
G01 X-23.7925 Y7.0142 
G01 X-23.7702 Y7.0681 
G01 X-23.7023 Y7.1360 
G01 X-23.6514 Y7.1571 
G01 X-23.6136 Y7.1728 
G01 X-23.5176 Y7.1728 
G01 X-23.4819 Y7.1580 
G01 X-23.4289 Y7.1360 
G01 X-23.3610 Y7.0682 
G01 X-23.1684 Y6.8755 
G01 X-22.5516 Y6.8755 
G01 X-22.1155 Y7.3116 
G00 Z2.5400 
G00 X-22.1917 Y7.3432 
G01 Z-0.1778 F254.00 
G01 X-22.5832 Y6.9517 F508.00 
G01 X-23.1368 Y6.9517 
G01 X-23.4876 Y7.3025 
G01 X-23.7598 Y7.3025 
G01 X-23.7881 Y7.2154 
G01 X-23.8635 Y7.0675 
G01 X-23.9610 Y6.9333 
G01 X-24.0783 Y6.8160 
G01 X-24.2125 Y6.7185 
G01 X-24.3604 Y6.6431 
G01 X-24.5182 Y6.5919 
G01 X-24.6820 Y6.5659 
G01 X-24.8480 Y6.5659 
G01 X-25.0118 Y6.5919 
G01 X-25.1696 Y6.6431 
G01 X-25.3175 Y6.7185 
G01 X-25.4517 Y6.8160 
G01 X-25.5690 Y6.9333 
G01 X-25.6665 Y7.0675 
G01 X-25.7419 Y7.2154 
G01 X-25.7931 Y7.3732 
G01 X-25.8191 Y7.5370 
G01 X-25.8191 Y7.7030 
G01 X-25.7931 Y7.8668 
G01 X-25.7419 Y8.0246 
G01 X-25.6665 Y8.1725 
G01 X-25.5690 Y8.3067 
G01 X-25.4517 Y8.4240 
G01 X-25.3175 Y8.5215 
G01 X-25.1696 Y8.5969 
G01 X-25.0118 Y8.6481 
G01 X-24.8480 Y8.6741 
G01 X-24.6820 Y8.6741 
G01 X-24.5182 Y8.6481 
G01 X-24.3604 Y8.5969 
G01 X-24.2125 Y8.5215 
G01 X-24.0783 Y8.4240 
G01 X-23.9610 Y8.3067 
G01 X-23.8635 Y8.1725 
G01 X-23.7881 Y8.0246 
G01 X-23.7598 Y7.9375 
G01 X-23.4876 Y7.9375 
G01 X-23.1368 Y8.2883 
G01 X-22.5832 Y8.2883 
G01 X-22.1917 Y7.8968 
G01 X-22.1917 Y7.3432 
G00 Z2.5400 
G00 X-22.1832 Y12.3825 
G01 Z-0.1778 F254.00 
G01 X-37.9685 Y12.3825 F508.00 
G01 X-38.9509 Y11.4001 
G01 X-38.9509 Y9.8595 
G01 X-38.8175 Y9.7915 
G01 X-38.6833 Y9.6940 
G01 X-38.5660 Y9.5767 
G01 X-38.4685 Y9.4425 
G01 X-38.3931 Y9.2946 
G01 X-38.3419 Y9.1368 
G01 X-38.3159 Y8.9730 
G01 X-38.3159 Y8.8070 
G01 X-38.3419 Y8.6432 
G01 X-38.3931 Y8.4854 
G01 X-38.4685 Y8.3375 
G01 X-38.5660 Y8.2033 
G01 X-38.6833 Y8.0860 
G01 X-38.8175 Y7.9885 
G01 X-38.9654 Y7.9131 
G01 X-39.1232 Y7.8619 
G01 X-39.2870 Y7.8359 
G01 X-39.4530 Y7.8359 
G01 X-39.6168 Y7.8619 
G01 X-39.7746 Y7.9131 
G01 X-39.9225 Y7.9885 
G01 X-40.0567 Y8.0860 
G01 X-40.1740 Y8.2033 
G01 X-40.2715 Y8.3375 
G01 X-40.3469 Y8.4854 
G01 X-40.3981 Y8.6432 
G01 X-40.4241 Y8.8070 
G01 X-40.4241 Y8.9730 
G01 X-40.3981 Y9.1368 
G01 X-40.3469 Y9.2946 
G01 X-40.2715 Y9.4425 
G01 X-40.1740 Y9.5767 
G01 X-40.0567 Y9.6940 
G01 X-39.9225 Y9.7915 
G01 X-39.7891 Y9.8595 
G01 X-39.7891 Y11.4852 
G01 X-39.7605 Y11.5918 
G01 X-39.7054 Y11.6873 
G01 X-39.6273 Y11.7654 
G01 X-39.5318 Y11.8205 
G01 X-39.4252 Y11.8491 
G01 X-39.3999 Y11.8491 
G01 X-38.3541 Y12.8949 
G01 X-38.2949 Y12.9541 
G01 X-38.2225 Y12.9959 
G01 X-38.1418 Y13.0175 
G01 X-22.3565 Y13.0175 
G01 X-19.3675 Y16.0065 
G01 X-19.3675 Y31.1568 
G01 X-19.3459 Y31.2375 
G01 X-19.3041 Y31.3099 
G01 X-19.2449 Y31.3691 
G01 X-18.6099 Y32.0041 
G01 X-18.5375 Y32.0459 
G01 X-18.4568 Y32.0675 
G01 X-11.4226 Y32.0675 
G01 X-11.0718 Y32.4183 
G01 X-10.5182 Y32.4183 
G01 X-10.1267 Y32.0268 
G01 X-10.1267 Y31.4732 
G01 X-10.5182 Y31.0817 
G01 X-11.0718 Y31.0817 
G01 X-11.4226 Y31.4325 
G01 X-18.2835 Y31.4325 
G01 X-18.7325 Y30.9835 
G01 X-18.7325 Y15.8332 
G01 X-18.7541 Y15.7524 
G01 X-18.7959 Y15.6800 
G01 X-22.0300 Y12.4459 
G01 X-22.1024 Y12.4041 
G01 X-22.1832 Y12.3825 
G00 Z2.5400 
G00 X-21.0865 Y12.3825 
G01 Z-0.1778 F254.00 
G01 X-18.0975 Y15.3715 F508.00 
G01 X-18.0975 Y29.2518 
G01 X-18.0759 Y29.3326 
G01 X-18.0341 Y29.4049 
G01 X-17.9749 Y29.4641 
G01 X-17.3399 Y30.0991 
G01 X-17.2675 Y30.1409 
G01 X-17.1868 Y30.1625 
G01 X-11.4226 Y30.1625 
G01 X-11.0718 Y30.5133 
G01 X-10.5182 Y30.5133 
G01 X-10.1267 Y30.1218 
G01 X-10.1267 Y29.5682 
G01 X-10.5182 Y29.1767 
G01 X-11.0718 Y29.1767 
G01 X-11.4226 Y29.5275 
G01 X-17.0135 Y29.5275 
G01 X-17.4625 Y29.0785 
G01 X-17.4625 Y15.1982 
G01 X-17.4841 Y15.1174 
G01 X-17.5259 Y15.0450 
G01 X-20.7009 Y11.8701 
G01 X-20.7600 Y11.8109 
G01 X-20.8324 Y11.7691 
G01 X-20.9132 Y11.7475 
G01 X-30.9835 Y11.7475 
G01 X-33.3375 Y9.3935 
G01 X-33.3375 Y8.6252 
G01 X-33.2504 Y8.5969 
G01 X-33.1025 Y8.5215 
G01 X-32.9683 Y8.4240 
G01 X-32.8510 Y8.3067 
G01 X-32.7535 Y8.1725 
G01 X-32.6781 Y8.0246 
G01 X-32.6269 Y7.8668 
G01 X-32.6009 Y7.7030 
G01 X-32.6009 Y7.5370 
G01 X-32.6269 Y7.3732 
G01 X-32.6781 Y7.2154 
G01 X-32.7535 Y7.0675 
G01 X-32.8510 Y6.9333 
G01 X-32.9683 Y6.8160 
G01 X-33.1025 Y6.7185 
G01 X-33.2504 Y6.6431 
G01 X-33.4082 Y6.5919 
G01 X-33.5720 Y6.5659 
G01 X-33.7380 Y6.5659 
G01 X-33.9018 Y6.5919 
G01 X-34.0596 Y6.6431 
G01 X-34.2075 Y6.7185 
G01 X-34.3417 Y6.8160 
G01 X-34.4590 Y6.9333 
G01 X-34.5565 Y7.0675 
G01 X-34.6319 Y7.2154 
G01 X-34.6831 Y7.3732 
G01 X-34.7091 Y7.5370 
G01 X-34.7091 Y7.7030 
G01 X-34.6831 Y7.8668 
G01 X-34.6319 Y8.0246 
G01 X-34.5565 Y8.1725 
G01 X-34.4590 Y8.3067 
G01 X-34.3417 Y8.4240 
G01 X-34.2075 Y8.5215 
G01 X-34.0596 Y8.5969 
G01 X-33.9725 Y8.6252 
G01 X-33.9725 Y9.5668 
G01 X-33.9509 Y9.6476 
G01 X-33.9091 Y9.7199 
G01 X-33.8499 Y9.7791 
G01 X-31.3099 Y12.3191 
G01 X-31.2375 Y12.3609 
G01 X-31.1568 Y12.3825 
G01 X-21.0865 Y12.3825 
G00 Z2.5400 
G00 X-22.2188 Y15.2726 
G01 Z-0.1778 F254.00 
G01 X-22.3338 Y15.1576 F508.00 
G01 X-22.4690 Y15.0672 
G01 X-22.6192 Y15.0050 
G01 X-22.7787 Y14.9733 
G01 X-22.9413 Y14.9733 
G01 X-23.1008 Y15.0050 
G01 X-23.2510 Y15.0672 
G01 X-23.3862 Y15.1576 
G01 X-23.5012 Y15.2726 
G01 X-23.5915 Y15.4078 
G01 X-23.6538 Y15.5580 
G01 X-23.6855 Y15.7175 
G01 X-23.6855 Y17.3025 
G01 X-23.6538 Y17.4620 
G01 X-23.5915 Y17.6122 
G01 X-23.5012 Y17.7474 
G01 X-23.3862 Y17.8624 
G01 X-23.2791 Y17.9340 
G01 X-23.2791 Y22.7060 
G01 X-23.3862 Y22.7776 
G01 X-23.5012 Y22.8926 
G01 X-23.5915 Y23.0278 
G01 X-23.6538 Y23.1780 
G01 X-23.6855 Y23.3375 
G01 X-23.6855 Y24.9225 
G01 X-23.6538 Y25.0820 
G01 X-23.5915 Y25.2322 
G01 X-23.5012 Y25.3674 
G01 X-23.3862 Y25.4824 
G01 X-23.2791 Y25.5540 
G01 X-23.2791 Y31.5960 
G01 X-23.3862 Y31.6676 
G01 X-23.5012 Y31.7826 
G01 X-23.5915 Y31.9178 
G01 X-23.6538 Y32.0680 
G01 X-23.6855 Y32.2275 
G01 X-23.6855 Y33.8125 
G01 X-23.6538 Y33.9720 
G01 X-23.5915 Y34.1222 
G01 X-23.5012 Y34.2574 
G01 X-23.3862 Y34.3724 
G01 X-23.2791 Y34.4440 
G01 X-23.2791 Y39.2160 
G01 X-23.3862 Y39.2876 
G01 X-23.5012 Y39.4026 
G01 X-23.5915 Y39.5378 
G01 X-23.6538 Y39.6880 
G01 X-23.6855 Y39.8475 
G01 X-23.6855 Y41.4325 
G01 X-23.6538 Y41.5920 
G01 X-23.5915 Y41.7422 
G01 X-23.5012 Y41.8774 
G01 X-23.3862 Y41.9924 
G01 X-23.2510 Y42.0827 
G01 X-23.1008 Y42.1450 
G01 X-22.9413 Y42.1767 
G01 X-22.7787 Y42.1767 
G01 X-22.6192 Y42.1450 
G01 X-22.4690 Y42.0827 
G01 X-22.3338 Y41.9924 
G01 X-22.2188 Y41.8774 
G01 X-22.1285 Y41.7422 
G01 X-22.0662 Y41.5920 
G01 X-22.0345 Y41.4325 
G01 X-22.0345 Y39.8475 
G01 X-22.0662 Y39.6880 
G01 X-22.1285 Y39.5378 
G01 X-22.2188 Y39.4026 
G01 X-22.3338 Y39.2876 
G01 X-22.4409 Y39.2160 
G01 X-22.4409 Y34.4440 
G01 X-22.3338 Y34.3724 
G01 X-22.2188 Y34.2574 
G01 X-22.1285 Y34.1222 
G01 X-22.1085 Y34.0741 
G01 X-17.6710 Y34.0741 
G01 X-17.4218 Y34.3233 
G01 X-16.8682 Y34.3233 
G01 X-16.6190 Y34.0741 
G01 X-12.8736 Y34.0741 
G01 X-11.7052 Y35.2425 
G01 X-11.7654 Y35.3027 
G01 X-11.8205 Y35.3982 
G01 X-11.8491 Y35.5048 
G01 X-11.8491 Y42.6540 
G01 X-12.0983 Y42.9032 
G01 X-12.0983 Y43.4568 
G01 X-11.7068 Y43.8483 
G01 X-11.1532 Y43.8483 
G01 X-10.7617 Y43.4568 
G01 X-10.7617 Y42.9032 
G01 X-11.0109 Y42.6540 
G01 X-11.0109 Y35.7336 
G01 X-10.8552 Y35.5779 
G01 X-10.7771 Y35.4998 
G01 X-10.6214 Y35.3441 
G01 X-2.4310 Y35.3441 
G01 X-2.1818 Y35.5933 
G01 X-1.6282 Y35.5933 
G01 X-1.2367 Y35.2018 
G01 X-1.2367 Y34.8494 
G01 X-0.2996 Y33.9123 
G01 X-0.2445 Y33.8168 
G01 X-0.2159 Y33.7102 
G01 X-0.2159 Y24.7098 
G01 X-0.2445 Y24.6032 
G01 X-0.2996 Y24.5077 
G01 X-0.3777 Y24.4296 
G01 X-1.0127 Y23.7946 
G01 X-1.1082 Y23.7395 
G01 X-1.2148 Y23.7109 
G01 X-1.5705 Y23.7109 
G01 X-1.6385 Y23.5775 
G01 X-1.7360 Y23.4433 
G01 X-1.8533 Y23.3260 
G01 X-1.9875 Y23.2285 
G01 X-2.1354 Y23.1531 
G01 X-2.2932 Y23.1019 
G01 X-2.4570 Y23.0759 
G01 X-2.6230 Y23.0759 
G01 X-2.7868 Y23.1019 
G01 X-2.9446 Y23.1531 
G01 X-3.0925 Y23.2285 
G01 X-3.2267 Y23.3260 
G01 X-3.3440 Y23.4433 
G01 X-3.4415 Y23.5775 
G01 X-3.5169 Y23.7254 
G01 X-3.5681 Y23.8832 
G01 X-3.5941 Y24.0470 
G01 X-3.5941 Y24.2130 
G01 X-3.5681 Y24.3768 
G01 X-3.5169 Y24.5346 
G01 X-3.4415 Y24.6825 
G01 X-3.3440 Y24.8167 
G01 X-3.2267 Y24.9340 
G01 X-3.0925 Y25.0315 
G01 X-2.9446 Y25.1069 
G01 X-2.7868 Y25.1581 
G01 X-2.6230 Y25.1841 
G01 X-2.4570 Y25.1841 
G01 X-2.2932 Y25.1581 
G01 X-2.1354 Y25.1069 
G01 X-1.9875 Y25.0315 
G01 X-1.8533 Y24.9340 
G01 X-1.7360 Y24.8167 
G01 X-1.6385 Y24.6825 
G01 X-1.5705 Y24.5491 
G01 X-1.4436 Y24.5491 
G01 X-1.0541 Y24.9386 
G01 X-1.0541 Y33.4814 
G01 X-1.8294 Y34.2567 
G01 X-2.1818 Y34.2567 
G01 X-2.4310 Y34.5059 
G01 X-10.8502 Y34.5059 
G01 X-10.9568 Y34.5345 
G01 X-11.0523 Y34.5896 
G01 X-11.1125 Y34.6498 
G01 X-12.4427 Y33.3196 
G01 X-12.5382 Y33.2645 
G01 X-12.6448 Y33.2359 
G01 X-16.6190 Y33.2359 
G01 X-16.8682 Y32.9867 
G01 X-17.4218 Y32.9867 
G01 X-17.6710 Y33.2359 
G01 X-22.0345 Y33.2359 
G01 X-22.0345 Y32.2275 
G01 X-22.0662 Y32.0680 
G01 X-22.1285 Y31.9178 
G01 X-22.2188 Y31.7826 
G01 X-22.3338 Y31.6676 
G01 X-22.4409 Y31.5960 
G01 X-22.4409 Y25.5540 
G01 X-22.3338 Y25.4824 
G01 X-22.2188 Y25.3674 
G01 X-22.1285 Y25.2322 
G01 X-22.0662 Y25.0820 
G01 X-22.0345 Y24.9225 
G01 X-22.0345 Y23.3375 
G01 X-22.0662 Y23.1780 
G01 X-22.1285 Y23.0278 
G01 X-22.2188 Y22.8926 
G01 X-22.3338 Y22.7776 
G01 X-22.4409 Y22.7060 
G01 X-22.4409 Y17.9340 
G01 X-22.3338 Y17.8624 
G01 X-22.2188 Y17.7474 
G01 X-22.1285 Y17.6122 
G01 X-22.0662 Y17.4620 
G01 X-22.0345 Y17.3025 
G01 X-22.0345 Y15.7175 
G01 X-22.0662 Y15.5580 
G01 X-22.1285 Y15.4078 
G01 X-22.2188 Y15.2726 
G00 Z2.5400 
G00 X-24.6356 Y15.2880 
G01 Z-0.1778 F254.00 
G01 X-24.4983 Y15.6194 F508.00 
G01 X-24.4983 Y17.4006 
G01 X-24.6356 Y17.7320 
G01 X-24.8892 Y17.9856 
G01 X-25.2206 Y18.1229 
G01 X-25.5794 Y18.1229 
G01 X-25.9108 Y17.9856 
G01 X-26.1644 Y17.7320 
G01 X-26.3017 Y17.4006 
G01 X-26.3017 Y15.6194 
G01 X-26.1644 Y15.2880 
G01 X-25.9108 Y15.0344 
G01 X-25.5794 Y14.8971 
G01 X-25.2206 Y14.8971 
G01 X-24.8892 Y15.0344 
G01 X-24.6356 Y15.2880 
G00 Z2.5400 
G00 X-24.7588 Y15.2726 
G01 Z-0.1778 F254.00 
G01 X-24.8738 Y15.1576 F508.00 
G01 X-25.0090 Y15.0672 
G01 X-25.1592 Y15.0050 
G01 X-25.3187 Y14.9733 
G01 X-25.4813 Y14.9733 
G01 X-25.6408 Y15.0050 
G01 X-25.7910 Y15.0672 
G01 X-25.9262 Y15.1576 
G01 X-26.0412 Y15.2726 
G01 X-26.1315 Y15.4078 
G01 X-26.1938 Y15.5580 
G01 X-26.2255 Y15.7175 
G01 X-26.2255 Y17.3025 
G01 X-26.1938 Y17.4620 
G01 X-26.1315 Y17.6122 
G01 X-26.0412 Y17.7474 
G01 X-25.9262 Y17.8624 
G01 X-25.7910 Y17.9527 
G01 X-25.6408 Y18.0150 
G01 X-25.4813 Y18.0467 
G01 X-25.3187 Y18.0467 
G01 X-25.1592 Y18.0150 
G01 X-25.0090 Y17.9527 
G01 X-24.8738 Y17.8624 
G01 X-24.7588 Y17.7474 
G01 X-24.6684 Y17.6122 
G01 X-24.6062 Y17.4620 
G01 X-24.5745 Y17.3025 
G01 X-24.5745 Y15.7175 
G01 X-24.6062 Y15.5580 
G01 X-24.6684 Y15.4078 
G01 X-24.7588 Y15.2726 
G00 Z2.5400 
G00 X-27.1756 Y15.2880 
G01 Z-0.1778 F254.00 
G01 X-27.0383 Y15.6194 F508.00 
G01 X-27.0383 Y17.4006 
G01 X-27.1756 Y17.7320 
G01 X-27.4292 Y17.9856 
G01 X-27.7606 Y18.1229 
G01 X-28.1194 Y18.1229 
G01 X-28.4508 Y17.9856 
G01 X-28.7044 Y17.7320 
G01 X-28.8417 Y17.4006 
G01 X-28.8417 Y15.6194 
G01 X-28.7044 Y15.2880 
G01 X-28.4636 Y15.0472 
G01 X-28.4016 Y14.9852 
G01 X-28.3958 Y14.9794 
G01 X-28.3598 Y14.8925 
G01 X-28.3590 Y14.7947 
G01 X-28.3738 Y14.7590 
G01 X-28.3958 Y14.7060 
G01 X-28.4636 Y14.6381 
G01 X-28.6335 Y14.4683 
G01 X-28.7013 Y14.4004 
G01 X-28.7875 Y14.3647 
G01 X-44.2350 Y14.3637 
G01 X-44.3237 Y14.4004 
G01 X-44.3362 Y14.4130 
G01 X-45.0728 Y15.1496 
G01 X-45.1407 Y15.2175 
G01 X-45.1774 Y15.3061 
G01 X-45.1774 Y15.4021 
G01 X-45.1407 Y15.4908 
G01 X-44.7618 Y15.8697 
G01 X-44.5897 Y16.2852 
G01 X-44.5897 Y16.7348 
G01 X-44.7618 Y17.1503 
G01 X-45.0797 Y17.4682 
G01 X-45.2499 Y17.5387 
G01 X-45.3386 Y17.5754 
G01 X-45.4054 Y17.6423 
G01 X-45.4275 Y17.6942 
G01 X-45.4432 Y17.7320 
G01 X-45.4432 Y17.8280 
G01 X-45.4065 Y17.9167 
G01 X-45.3396 Y17.9835 
G01 X-45.2746 Y18.0111 
G01 X-45.2499 Y18.0213 
G01 X-45.0797 Y18.0918 
G01 X-44.7618 Y18.4097 
G01 X-44.7397 Y18.4630 
G01 X-44.7030 Y18.5517 
G01 X-44.6361 Y18.6185 
G01 X-44.5464 Y18.6563 
G01 X-36.4100 Y18.6563 
G01 X-36.3213 Y18.6196 
G01 X-36.2535 Y18.5517 
G01 X-36.0836 Y18.3819 
G01 X-36.0205 Y18.3187 
G01 X-36.0158 Y18.3140 
G01 X-35.9947 Y18.2631 
G01 X-35.9790 Y18.2253 
G01 X-35.9790 Y18.1293 
G01 X-36.0158 Y18.0406 
G01 X-36.0836 Y17.9727 
G01 X-36.3244 Y17.7320 
G01 X-36.4617 Y17.4006 
G01 X-36.4617 Y15.6194 
G01 X-36.3244 Y15.2880 
G01 X-36.0708 Y15.0344 
G01 X-35.7394 Y14.8971 
G01 X-35.3806 Y14.8971 
G01 X-35.0492 Y15.0344 
G01 X-34.7956 Y15.2880 
G01 X-34.6583 Y15.6194 
G01 X-34.6583 Y17.4006 
G01 X-34.7956 Y17.7320 
G01 X-35.0492 Y17.9856 
G01 X-35.0617 Y17.9908 
G01 X-35.1123 Y18.0414 
G01 X-35.1295 Y18.0586 
G01 X-35.1536 Y18.1166 
G01 X-35.1663 Y18.1473 
G01 X-35.1663 Y18.1951 
G01 X-35.1663 Y18.2433 
G01 X-35.1663 Y18.4933 
G01 X-35.2262 Y18.6380 
G01 X-35.4049 Y18.8166 
G01 X-35.9720 Y19.3838 
G01 X-36.1167 Y19.4437 
G01 X-44.5464 Y19.4437 
G01 X-44.6351 Y19.4804 
G01 X-44.7030 Y19.5483 
G01 X-44.7397 Y19.6370 
G01 X-44.7618 Y19.6903 
G01 X-45.0797 Y20.0082 
G01 X-45.2499 Y20.0787 
G01 X-45.3386 Y20.1154 
G01 X-45.4054 Y20.1823 
G01 X-45.4275 Y20.2342 
G01 X-45.4432 Y20.2720 
G01 X-45.4432 Y20.3680 
G01 X-45.4065 Y20.4567 
G01 X-45.3396 Y20.5235 
G01 X-45.2746 Y20.5511 
G01 X-45.2499 Y20.5613 
G01 X-45.0797 Y20.6318 
G01 X-45.0193 Y20.6922 
G01 X-44.9823 Y20.7081 
G01 X-44.9296 Y20.7299 
G01 X-44.8336 Y20.7299 
G01 X-44.7612 Y20.6999 
G01 X-44.7450 Y20.6932 
G01 X-44.6835 Y20.6317 
G01 X-44.6771 Y20.6253 
G01 X-44.0380 Y19.9862 
G01 X-43.8933 Y19.9263 
G01 X-36.7517 Y19.9263 
G01 X-36.6070 Y19.9862 
G01 X-35.4049 Y21.1884 
G01 X-35.3576 Y21.2356 
G01 X-35.3370 Y21.2562 
G01 X-35.2262 Y21.3670 
G01 X-35.1663 Y21.5117 
G01 X-35.1663 Y22.3967 
G01 X-35.1663 Y22.4444 
G01 X-35.1663 Y22.4926 
G01 X-35.1538 Y22.5228 
G01 X-35.1296 Y22.5813 
G01 X-35.1128 Y22.5981 
G01 X-35.0617 Y22.6492 
G01 X-35.0492 Y22.6544 
G01 X-34.7956 Y22.9080 
G01 X-34.6583 Y23.2394 
G01 X-34.6583 Y25.0206 
G01 X-34.7956 Y25.3520 
G01 X-35.0492 Y25.6056 
G01 X-35.3806 Y25.7429 
G01 X-35.7394 Y25.7429 
G01 X-36.0708 Y25.6056 
G01 X-36.3244 Y25.3520 
G01 X-36.4617 Y25.0206 
G01 X-36.4617 Y23.2394 
G01 X-36.3244 Y22.9080 
G01 X-36.0708 Y22.6544 
G01 X-36.0583 Y22.6492 
G01 X-36.0077 Y22.5986 
G01 X-35.9904 Y22.5814 
G01 X-35.9664 Y22.5234 
G01 X-35.9537 Y22.4927 
G01 X-35.9537 Y22.4449 
G01 X-35.9537 Y22.3967 
G01 X-35.9537 Y21.8050 
G01 X-35.9904 Y21.7163 
G01 X-36.0583 Y21.6485 
G01 X-36.9563 Y20.7504 
G01 X-37.0450 Y20.7137 
G01 X-43.6000 Y20.7137 
G01 X-43.6887 Y20.7504 
G01 X-43.7565 Y20.8183 
G01 X-44.5530 Y21.6147 
G01 X-44.5897 Y21.7034 
G01 X-44.5897 Y21.8148 
G01 X-44.7618 Y22.2303 
G01 X-45.0797 Y22.5482 
G01 X-45.2499 Y22.6187 
G01 X-45.3386 Y22.6554 
G01 X-45.4054 Y22.7223 
G01 X-45.4275 Y22.7742 
G01 X-45.4432 Y22.8120 
G01 X-45.4432 Y22.9080 
G01 X-45.4065 Y22.9967 
G01 X-45.3396 Y23.0635 
G01 X-45.2746 Y23.0911 
G01 X-45.2499 Y23.1013 
G01 X-45.0797 Y23.1718 
G01 X-44.7618 Y23.4897 
G01 X-44.5897 Y23.9052 
G01 X-44.5897 Y24.3548 
G01 X-44.6118 Y24.4081 
G01 X-44.6234 Y24.4362 
G01 X-44.6485 Y24.4968 
G01 X-44.6485 Y24.5928 
G01 X-44.6185 Y24.6652 
G01 X-44.6118 Y24.6815 
G01 X-44.5477 Y24.7455 
G01 X-44.5439 Y24.7493 
G01 X-43.0537 Y26.2396 
G01 X-42.9650 Y26.2763 
G01 X-28.7900 Y26.2763 
G01 X-28.7013 Y26.2396 
G01 X-28.6335 Y26.1717 
G01 X-28.4636 Y26.0019 
G01 X-28.4005 Y25.9387 
G01 X-28.3958 Y25.9340 
G01 X-28.3747 Y25.8831 
G01 X-28.3590 Y25.8453 
G01 X-28.3590 Y25.7493 
G01 X-28.3958 Y25.6606 
G01 X-28.4636 Y25.5927 
G01 X-28.7044 Y25.3520 
G01 X-28.8417 Y25.0206 
G01 X-28.8417 Y23.2394 
G01 X-28.7044 Y22.9080 
G01 X-28.4508 Y22.6544 
G01 X-28.1194 Y22.5171 
G01 X-27.7606 Y22.5171 
G01 X-27.4292 Y22.6544 
G01 X-27.1756 Y22.9080 
G01 X-27.0383 Y23.2394 
G01 X-27.0383 Y25.0206 
G01 X-27.1756 Y25.3520 
G01 X-27.4292 Y25.6056 
G01 X-27.4417 Y25.6108 
G01 X-27.4923 Y25.6614 
G01 X-27.5095 Y25.6786 
G01 X-27.5336 Y25.7366 
G01 X-27.5463 Y25.7673 
G01 X-27.5463 Y25.8151 
G01 X-27.5463 Y25.8633 
G01 X-27.5463 Y26.1133 
G01 X-27.6062 Y26.2580 
G01 X-27.7849 Y26.4366 
G01 X-28.3520 Y27.0038 
G01 X-28.4967 Y27.0637 
G01 X-43.2583 Y27.0637 
G01 X-43.4030 Y27.0038 
G01 X-43.5393 Y26.8675 
G01 X-45.1007 Y25.3061 
G01 X-45.1685 Y25.2382 
G01 X-45.1827 Y25.2324 
G01 X-45.2572 Y25.2015 
G01 X-45.3532 Y25.2015 
G01 X-45.4121 Y25.2259 
G01 X-45.4419 Y25.2382 
G01 X-45.4952 Y25.2603 
G01 X-45.9448 Y25.2603 
G01 X-46.3603 Y25.0882 
G01 X-46.6782 Y24.7703 
G01 X-46.8503 Y24.3548 
G01 X-46.8503 Y23.9052 
G01 X-46.6782 Y23.4897 
G01 X-46.3603 Y23.1718 
G01 X-46.1901 Y23.1013 
G01 X-46.1681 Y23.0922 
G01 X-46.1014 Y23.0646 
G01 X-46.0335 Y22.9967 
G01 X-45.9968 Y22.9080 
G01 X-45.9968 Y22.8120 
G01 X-46.0116 Y22.7763 
G01 X-46.0335 Y22.7233 
G01 X-46.1014 Y22.6554 
G01 X-46.1901 Y22.6187 
G01 X-46.3603 Y22.5482 
G01 X-46.6782 Y22.2303 
G01 X-46.8503 Y21.8148 
G01 X-46.8503 Y21.3652 
G01 X-46.6782 Y20.9497 
G01 X-46.3603 Y20.6318 
G01 X-46.1901 Y20.5613 
G01 X-46.1681 Y20.5522 
G01 X-46.1014 Y20.5246 
G01 X-46.0335 Y20.4567 
G01 X-45.9968 Y20.3680 
G01 X-45.9968 Y20.2720 
G01 X-46.0116 Y20.2363 
G01 X-46.0335 Y20.1833 
G01 X-46.1014 Y20.1154 
G01 X-46.1901 Y20.0787 
G01 X-46.3603 Y20.0082 
G01 X-46.6782 Y19.6903 
G01 X-46.8503 Y19.2748 
G01 X-46.8503 Y18.8252 
G01 X-46.6782 Y18.4097 
G01 X-46.3603 Y18.0918 
G01 X-46.1901 Y18.0213 
G01 X-46.1681 Y18.0122 
G01 X-46.1014 Y17.9846 
G01 X-46.0335 Y17.9167 
G01 X-45.9968 Y17.8280 
G01 X-45.9968 Y17.7320 
G01 X-46.0116 Y17.6963 
G01 X-46.0335 Y17.6433 
G01 X-46.1014 Y17.5754 
G01 X-46.1901 Y17.5387 
G01 X-46.3603 Y17.4682 
G01 X-46.6782 Y17.1503 
G01 X-46.8503 Y16.7348 
G01 X-46.8503 Y16.2852 
G01 X-46.6782 Y15.8697 
G01 X-46.3603 Y15.5518 
G01 X-46.3070 Y15.5297 
G01 X-46.2183 Y15.4930 
G01 X-46.1515 Y15.4261 
G01 X-46.1137 Y15.3364 
G01 X-46.1137 Y15.1617 
G01 X-46.0538 Y15.0170 
G01 X-45.8751 Y14.8384 
G01 X-44.6730 Y13.6362 
G01 X-44.5283 Y13.5763 
G01 X-28.4967 Y13.5763 
G01 X-28.3520 Y13.6362 
G01 X-28.1734 Y13.8149 
G01 X-27.6062 Y14.3820 
G01 X-27.5463 Y14.5267 
G01 X-27.5463 Y14.7767 
G01 X-27.5463 Y14.8244 
G01 X-27.5463 Y14.8726 
G01 X-27.5338 Y14.9028 
G01 X-27.5096 Y14.9613 
G01 X-27.4928 Y14.9781 
G01 X-27.4417 Y15.0292 
G01 X-27.4292 Y15.0344 
G01 X-27.1756 Y15.2880 
G00 Z2.5400 
G00 X-27.2988 Y15.2726 
G01 Z-0.1778 F254.00 
G01 X-27.4138 Y15.1576 F508.00 
G01 X-27.5490 Y15.0672 
G01 X-27.6225 Y15.0368 
G01 X-27.6225 Y14.5632 
G01 X-27.6441 Y14.4824 
G01 X-27.6859 Y14.4101 
G01 X-28.3209 Y13.7751 
G01 X-28.3801 Y13.7159 
G01 X-28.4524 Y13.6741 
G01 X-28.5332 Y13.6525 
G01 X-44.4918 Y13.6525 
G01 X-44.5725 Y13.6741 
G01 X-44.6449 Y13.7159 
G01 X-45.9149 Y14.9859 
G01 X-45.9741 Y15.0450 
G01 X-46.0159 Y15.1174 
G01 X-46.0375 Y15.1982 
G01 X-46.0375 Y15.5048 
G01 X-46.1246 Y15.5331 
G01 X-46.2725 Y15.6085 
G01 X-46.4067 Y15.7060 
G01 X-46.5240 Y15.8233 
G01 X-46.6215 Y15.9575 
G01 X-46.6969 Y16.1054 
G01 X-46.7481 Y16.2632 
G01 X-46.7741 Y16.4270 
G01 X-46.7741 Y16.5930 
G01 X-46.7481 Y16.7568 
G01 X-46.6969 Y16.9146 
G01 X-46.6215 Y17.0625 
G01 X-46.5240 Y17.1967 
G01 X-46.4067 Y17.3140 
G01 X-46.2725 Y17.4115 
G01 X-46.1246 Y17.4869 
G01 X-45.9668 Y17.5381 
G01 X-45.8030 Y17.5641 
G01 X-45.6370 Y17.5641 
G01 X-45.4732 Y17.5381 
G01 X-45.3154 Y17.4869 
G01 X-45.1675 Y17.4115 
G01 X-45.0333 Y17.3140 
G01 X-44.9160 Y17.1967 
G01 X-44.8185 Y17.0625 
G01 X-44.7431 Y16.9146 
G01 X-44.6919 Y16.7568 
G01 X-44.6659 Y16.5930 
G01 X-44.6659 Y16.4270 
G01 X-44.6919 Y16.2632 
G01 X-44.7431 Y16.1054 
G01 X-44.8185 Y15.9575 
G01 X-44.9160 Y15.8233 
G01 X-45.0333 Y15.7060 
G01 X-45.1675 Y15.6085 
G01 X-45.3154 Y15.5331 
G01 X-45.4025 Y15.5048 
G01 X-45.4025 Y15.3715 
G01 X-44.3185 Y14.2875 
G01 X-28.7065 Y14.2875 
G01 X-28.2575 Y14.7365 
G01 X-28.2575 Y15.0368 
G01 X-28.3310 Y15.0672 
G01 X-28.4662 Y15.1576 
G01 X-28.5812 Y15.2726 
G01 X-28.6715 Y15.4078 
G01 X-28.7338 Y15.5580 
G01 X-28.7655 Y15.7175 
G01 X-28.7655 Y17.3025 
G01 X-28.7338 Y17.4620 
G01 X-28.6715 Y17.6122 
G01 X-28.5812 Y17.7474 
G01 X-28.4662 Y17.8624 
G01 X-28.3310 Y17.9527 
G01 X-28.1808 Y18.0150 
G01 X-28.0213 Y18.0467 
G01 X-27.8587 Y18.0467 
G01 X-27.6992 Y18.0150 
G01 X-27.5490 Y17.9527 
G01 X-27.4138 Y17.8624 
G01 X-27.2988 Y17.7474 
G01 X-27.2084 Y17.6122 
G01 X-27.1462 Y17.4620 
G01 X-27.1145 Y17.3025 
G01 X-27.1145 Y15.7175 
G01 X-27.1462 Y15.5580 
G01 X-27.2084 Y15.4078 
G01 X-27.2988 Y15.2726 
G00 Z2.5400 
G00 X-29.7522 Y15.3528 
G01 Z-0.1778 F254.00 
G01 X-29.6914 Y15.4722 F508.00 
G01 X-29.6500 Y15.5995 
G01 X-29.6291 Y15.7318 
G01 X-29.6291 Y16.1925 
G01 X-29.6545 Y16.1925 
G01 X-29.6545 Y15.7175 
G01 X-29.6862 Y15.5580 
G01 X-29.7484 Y15.4078 
G01 X-29.8388 Y15.2726 
G01 X-29.9538 Y15.1576 
G01 X-30.0890 Y15.0672 
G01 X-30.1625 Y15.0368 
G01 X-30.1625 Y15.0073 
G01 X-30.1534 Y15.0102 
G01 X-30.0340 Y15.0710 
G01 X-29.9257 Y15.1498 
G01 X-29.8310 Y15.2445 
G01 X-29.7522 Y15.3528 
G00 Z2.5400 
G00 X-30.7975 Y15.0368 
G01 Z-0.1778 F254.00 
G01 X-30.8710 Y15.0672 F508.00 
G01 X-31.0062 Y15.1576 
G01 X-31.1212 Y15.2726 
G01 X-31.2115 Y15.4078 
G01 X-31.2738 Y15.5580 
G01 X-31.3055 Y15.7175 
G01 X-31.3055 Y16.1925 
G01 X-31.3309 Y16.1925 
G01 X-31.3309 Y15.7318 
G01 X-31.3099 Y15.5995 
G01 X-31.2686 Y15.4722 
G01 X-31.2078 Y15.3528 
G01 X-31.1290 Y15.2445 
G01 X-31.0343 Y15.1498 
G01 X-30.9260 Y15.0710 
G01 X-30.8066 Y15.0102 
G01 X-30.7975 Y15.0073 
G01 X-30.7975 Y15.0368 
G00 Z2.5400 
G00 X-32.4657 Y15.1498 
G01 Z-0.1778 F254.00 
G01 X-32.3710 Y15.2445 F508.00 
G01 X-32.2922 Y15.3528 
G01 X-32.2314 Y15.4722 
G01 X-32.1900 Y15.5995 
G01 X-32.1691 Y15.7318 
G01 X-32.1691 Y16.1925 
G01 X-32.1945 Y16.1925 
G01 X-32.1945 Y15.7175 
G01 X-32.2262 Y15.5580 
G01 X-32.2884 Y15.4078 
G01 X-32.3788 Y15.2726 
G01 X-32.4938 Y15.1576 
G01 X-32.6290 Y15.0672 
G01 X-32.7025 Y15.0368 
G01 X-32.7025 Y15.0073 
G01 X-32.6934 Y15.0102 
G01 X-32.5740 Y15.0710 
G01 X-32.4657 Y15.1498 
G00 Z2.5400 
G00 X-33.3375 Y15.0368 
G01 Z-0.1778 F254.00 
G01 X-33.4110 Y15.0672 F508.00 
G01 X-33.5462 Y15.1576 
G01 X-33.6612 Y15.2726 
G01 X-33.7515 Y15.4078 
G01 X-33.8138 Y15.5580 
G01 X-33.8455 Y15.7175 
G01 X-33.8455 Y16.1925 
G01 X-33.8709 Y16.1925 
G01 X-33.8709 Y15.7318 
G01 X-33.8499 Y15.5995 
G01 X-33.8086 Y15.4722 
G01 X-33.7478 Y15.3528 
G01 X-33.6690 Y15.2445 
G01 X-33.5743 Y15.1498 
G01 X-33.4660 Y15.0710 
G01 X-33.3466 Y15.0102 
G01 X-33.3375 Y15.0073 
G01 X-33.3375 Y15.0368 
G00 Z2.5400 
G00 X-34.9188 Y15.2726 
G01 Z-0.1778 F254.00 
G01 X-35.0338 Y15.1576 F508.00 
G01 X-35.1690 Y15.0672 
G01 X-35.3192 Y15.0050 
G01 X-35.4787 Y14.9733 
G01 X-35.6413 Y14.9733 
G01 X-35.8008 Y15.0050 
G01 X-35.9510 Y15.0672 
G01 X-36.0862 Y15.1576 
G01 X-36.2012 Y15.2726 
G01 X-36.2915 Y15.4078 
G01 X-36.3538 Y15.5580 
G01 X-36.3855 Y15.7175 
G01 X-36.3855 Y17.3025 
G01 X-36.3538 Y17.4620 
G01 X-36.2915 Y17.6122 
G01 X-36.2012 Y17.7474 
G01 X-36.0862 Y17.8624 
G01 X-35.9510 Y17.9527 
G01 X-35.8775 Y17.9832 
G01 X-35.8775 Y18.2835 
G01 X-36.3265 Y18.7325 
G01 X-44.7148 Y18.7325 
G01 X-44.7431 Y18.6454 
G01 X-44.8185 Y18.4975 
G01 X-44.9160 Y18.3633 
G01 X-45.0333 Y18.2460 
G01 X-45.1675 Y18.1485 
G01 X-45.3154 Y18.0731 
G01 X-45.4732 Y18.0219 
G01 X-45.6370 Y17.9959 
G01 X-45.8030 Y17.9959 
G01 X-45.9668 Y18.0219 
G01 X-46.1246 Y18.0731 
G01 X-46.2725 Y18.1485 
G01 X-46.4067 Y18.2460 
G01 X-46.5240 Y18.3633 
G01 X-46.6215 Y18.4975 
G01 X-46.6969 Y18.6454 
G01 X-46.7481 Y18.8032 
G01 X-46.7741 Y18.9670 
G01 X-46.7741 Y19.1330 
G01 X-46.7481 Y19.2968 
G01 X-46.6969 Y19.4546 
G01 X-46.6215 Y19.6025 
G01 X-46.5240 Y19.7367 
G01 X-46.4067 Y19.8540 
G01 X-46.2725 Y19.9515 
G01 X-46.1246 Y20.0269 
G01 X-45.9668 Y20.0781 
G01 X-45.8030 Y20.1041 
G01 X-45.6370 Y20.1041 
G01 X-45.4732 Y20.0781 
G01 X-45.3154 Y20.0269 
G01 X-45.1675 Y19.9515 
G01 X-45.0333 Y19.8540 
G01 X-44.9160 Y19.7367 
G01 X-44.8185 Y19.6025 
G01 X-44.7431 Y19.4546 
G01 X-44.7148 Y19.3675 
G01 X-36.1532 Y19.3675 
G01 X-36.0724 Y19.3459 
G01 X-36.0001 Y19.3041 
G01 X-35.3650 Y18.6691 
G01 X-35.3059 Y18.6099 
G01 X-35.2641 Y18.5375 
G01 X-35.2425 Y18.4568 
G01 X-35.2425 Y17.9832 
G01 X-35.1690 Y17.9527 
G01 X-35.0338 Y17.8624 
G01 X-34.9188 Y17.7474 
G01 X-34.8284 Y17.6122 
G01 X-34.7662 Y17.4620 
G01 X-34.7345 Y17.3025 
G01 X-34.7345 Y15.7175 
G01 X-34.7662 Y15.5580 
G01 X-34.8284 Y15.4078 
G01 X-34.9188 Y15.2726 
G00 Z2.5400 
G00 X-37.3356 Y15.2880 
G01 Z-0.1778 F254.00 
G01 X-37.1983 Y15.6194 F508.00 
G01 X-37.1983 Y17.4006 
G01 X-37.3356 Y17.7320 
G01 X-37.5892 Y17.9856 
G01 X-37.9206 Y18.1229 
G01 X-38.2794 Y18.1229 
G01 X-38.6108 Y17.9856 
G01 X-38.8644 Y17.7320 
G01 X-39.0017 Y17.4006 
G01 X-39.0017 Y15.6194 
G01 X-38.8644 Y15.2880 
G01 X-38.6108 Y15.0344 
G01 X-38.2794 Y14.8971 
G01 X-37.9206 Y14.8971 
G01 X-37.5892 Y15.0344 
G01 X-37.3356 Y15.2880 
G00 Z2.5400 
G00 X-37.4588 Y15.2726 
G01 Z-0.1778 F254.00 
G01 X-37.5738 Y15.1576 F508.00 
G01 X-37.7090 Y15.0672 
G01 X-37.8592 Y15.0050 
G01 X-38.0187 Y14.9733 
G01 X-38.1813 Y14.9733 
G01 X-38.3408 Y15.0050 
G01 X-38.4910 Y15.0672 
G01 X-38.6262 Y15.1576 
G01 X-38.7412 Y15.2726 
G01 X-38.8315 Y15.4078 
G01 X-38.8938 Y15.5580 
G01 X-38.9255 Y15.7175 
G01 X-38.9255 Y17.3025 
G01 X-38.8938 Y17.4620 
G01 X-38.8315 Y17.6122 
G01 X-38.7412 Y17.7474 
G01 X-38.6262 Y17.8624 
G01 X-38.4910 Y17.9527 
G01 X-38.3408 Y18.0150 
G01 X-38.1813 Y18.0467 
G01 X-38.0187 Y18.0467 
G01 X-37.8592 Y18.0150 
G01 X-37.7090 Y17.9527 
G01 X-37.5738 Y17.8624 
G01 X-37.4588 Y17.7474 
G01 X-37.3685 Y17.6122 
G01 X-37.3062 Y17.4620 
G01 X-37.2745 Y17.3025 
G01 X-37.2745 Y15.7175 
G01 X-37.3062 Y15.5580 
G01 X-37.3685 Y15.4078 
G01 X-37.4588 Y15.2726 
G00 Z2.5400 
G00 X-39.8756 Y15.2880 
G01 Z-0.1778 F254.00 
G01 X-39.7383 Y15.6194 F508.00 
G01 X-39.7383 Y17.4006 
G01 X-39.8756 Y17.7320 
G01 X-40.1292 Y17.9856 
G01 X-40.4606 Y18.1229 
G01 X-40.8194 Y18.1229 
G01 X-41.1508 Y17.9856 
G01 X-41.4044 Y17.7320 
G01 X-41.5417 Y17.4006 
G01 X-41.5417 Y15.6194 
G01 X-41.4044 Y15.2880 
G01 X-41.1508 Y15.0344 
G01 X-40.8194 Y14.8971 
G01 X-40.4606 Y14.8971 
G01 X-40.1292 Y15.0344 
G01 X-39.8756 Y15.2880 
G00 Z2.5400 
G00 X-39.9988 Y15.2726 
G01 Z-0.1778 F254.00 
G01 X-40.1138 Y15.1576 F508.00 
G01 X-40.2490 Y15.0672 
G01 X-40.3992 Y15.0050 
G01 X-40.5587 Y14.9733 
G01 X-40.7213 Y14.9733 
G01 X-40.8808 Y15.0050 
G01 X-41.0310 Y15.0672 
G01 X-41.1662 Y15.1576 
G01 X-41.2812 Y15.2726 
G01 X-41.3715 Y15.4078 
G01 X-41.4338 Y15.5580 
G01 X-41.4655 Y15.7175 
G01 X-41.4655 Y17.3025 
G01 X-41.4338 Y17.4620 
G01 X-41.3715 Y17.6122 
G01 X-41.2812 Y17.7474 
G01 X-41.1662 Y17.8624 
G01 X-41.0310 Y17.9527 
G01 X-40.8808 Y18.0150 
G01 X-40.7213 Y18.0467 
G01 X-40.5587 Y18.0467 
G01 X-40.3992 Y18.0150 
G01 X-40.2490 Y17.9527 
G01 X-40.1138 Y17.8624 
G01 X-39.9988 Y17.7474 
G01 X-39.9085 Y17.6122 
G01 X-39.8462 Y17.4620 
G01 X-39.8145 Y17.3025 
G01 X-39.8145 Y15.7175 
G01 X-39.8462 Y15.5580 
G01 X-39.9085 Y15.4078 
G01 X-39.9988 Y15.2726 
G00 Z2.5400 
G00 X-40.1292 Y22.6544 
G01 Z-0.1778 F254.00 
G01 X-39.8756 Y22.9080 F508.00 
G01 X-39.7383 Y23.2394 
G01 X-39.7383 Y25.0206 
G01 X-39.8756 Y25.3520 
G01 X-40.1292 Y25.6056 
G01 X-40.4606 Y25.7429 
G01 X-40.8194 Y25.7429 
G01 X-41.1508 Y25.6056 
G01 X-41.4044 Y25.3520 
G01 X-41.5417 Y25.0206 
G01 X-41.5417 Y23.2394 
G01 X-41.4044 Y22.9080 
G01 X-41.1508 Y22.6544 
G01 X-40.8194 Y22.5171 
G01 X-40.4606 Y22.5171 
G01 X-40.1292 Y22.6544 
G00 Z2.5400 
G00 X-40.1138 Y22.7776 
G01 Z-0.1778 F254.00 
G01 X-40.2490 Y22.6872 F508.00 
G01 X-40.3992 Y22.6250 
G01 X-40.5587 Y22.5933 
G01 X-40.7213 Y22.5933 
G01 X-40.8808 Y22.6250 
G01 X-41.0310 Y22.6872 
G01 X-41.1662 Y22.7776 
G01 X-41.2812 Y22.8926 
G01 X-41.3715 Y23.0278 
G01 X-41.4338 Y23.1780 
G01 X-41.4655 Y23.3375 
G01 X-41.4655 Y24.9225 
G01 X-41.4338 Y25.0820 
G01 X-41.3715 Y25.2322 
G01 X-41.2812 Y25.3674 
G01 X-41.1662 Y25.4824 
G01 X-41.0310 Y25.5727 
G01 X-40.8808 Y25.6350 
G01 X-40.7213 Y25.6667 
G01 X-40.5587 Y25.6667 
G01 X-40.3992 Y25.6350 
G01 X-40.2490 Y25.5727 
G01 X-40.1138 Y25.4824 
G01 X-39.9988 Y25.3674 
G01 X-39.9085 Y25.2322 
G01 X-39.8462 Y25.0820 
G01 X-39.8145 Y24.9225 
G01 X-39.8145 Y23.3375 
G01 X-39.8462 Y23.1780 
G01 X-39.9085 Y23.0278 
G01 X-39.9988 Y22.8926 
G01 X-40.1138 Y22.7776 
G00 Z2.5400 
G00 X-38.8644 Y22.9080 
G01 Z-0.1778 F254.00 
G01 X-38.6108 Y22.6544 F508.00 
G01 X-38.2794 Y22.5171 
G01 X-37.9206 Y22.5171 
G01 X-37.5892 Y22.6544 
G01 X-37.3356 Y22.9080 
G01 X-37.1983 Y23.2394 
G01 X-37.1983 Y25.0206 
G01 X-37.3356 Y25.3520 
G01 X-37.5892 Y25.6056 
G01 X-37.9206 Y25.7429 
G01 X-38.2794 Y25.7429 
G01 X-38.6108 Y25.6056 
G01 X-38.8644 Y25.3520 
G01 X-39.0017 Y25.0206 
G01 X-39.0017 Y23.2394 
G01 X-38.8644 Y22.9080 
G00 Z2.5400 
G00 X-38.7412 Y22.8926 
G01 Z-0.1778 F254.00 
G01 X-38.8315 Y23.0278 F508.00 
G01 X-38.8938 Y23.1780 
G01 X-38.9255 Y23.3375 
G01 X-38.9255 Y24.9225 
G01 X-38.8938 Y25.0820 
G01 X-38.8315 Y25.2322 
G01 X-38.7412 Y25.3674 
G01 X-38.6262 Y25.4824 
G01 X-38.4910 Y25.5727 
G01 X-38.3408 Y25.6350 
G01 X-38.1813 Y25.6667 
G01 X-38.0187 Y25.6667 
G01 X-37.8592 Y25.6350 
G01 X-37.7090 Y25.5727 
G01 X-37.5738 Y25.4824 
G01 X-37.4588 Y25.3674 
G01 X-37.3685 Y25.2322 
G01 X-37.3062 Y25.0820 
G01 X-37.2745 Y24.9225 
G01 X-37.2745 Y23.3375 
G01 X-37.3062 Y23.1780 
G01 X-37.3685 Y23.0278 
G01 X-37.4588 Y22.8926 
G01 X-37.5738 Y22.7776 
G01 X-37.7090 Y22.6872 
G01 X-37.8592 Y22.6250 
G01 X-38.0187 Y22.5933 
G01 X-38.1813 Y22.5933 
G01 X-38.3408 Y22.6250 
G01 X-38.4910 Y22.6872 
G01 X-38.6262 Y22.7776 
G01 X-38.7412 Y22.8926 
G00 Z2.5400 
G00 X-36.2012 Y22.8926 
G01 Z-0.1778 F254.00 
G01 X-36.2915 Y23.0278 F508.00 
G01 X-36.3538 Y23.1780 
G01 X-36.3855 Y23.3375 
G01 X-36.3855 Y24.9225 
G01 X-36.3538 Y25.0820 
G01 X-36.2915 Y25.2322 
G01 X-36.2012 Y25.3674 
G01 X-36.0862 Y25.4824 
G01 X-35.9510 Y25.5727 
G01 X-35.8008 Y25.6350 
G01 X-35.6413 Y25.6667 
G01 X-35.4787 Y25.6667 
G01 X-35.3192 Y25.6350 
G01 X-35.1690 Y25.5727 
G01 X-35.0338 Y25.4824 
G01 X-34.9188 Y25.3674 
G01 X-34.8284 Y25.2322 
G01 X-34.7662 Y25.0820 
G01 X-34.7345 Y24.9225 
G01 X-34.7345 Y23.3375 
G01 X-34.7662 Y23.1780 
G01 X-34.8284 Y23.0278 
G01 X-34.9188 Y22.8926 
G01 X-35.0338 Y22.7776 
G01 X-35.1690 Y22.6872 
G01 X-35.2425 Y22.6568 
G01 X-35.2425 Y21.5482 
G01 X-35.2641 Y21.4674 
G01 X-35.3059 Y21.3951 
G01 X-36.6350 Y20.0659 
G01 X-36.7074 Y20.0241 
G01 X-36.7882 Y20.0025 
G01 X-43.8568 Y20.0025 
G01 X-43.9376 Y20.0241 
G01 X-44.0099 Y20.0659 
G01 X-44.0691 Y20.1251 
G01 X-44.8871 Y20.9431 
G01 X-44.9160 Y20.9033 
G01 X-45.0333 Y20.7860 
G01 X-45.1675 Y20.6885 
G01 X-45.3154 Y20.6131 
G01 X-45.4732 Y20.5619 
G01 X-45.6370 Y20.5359 
G01 X-45.8030 Y20.5359 
G01 X-45.9668 Y20.5619 
G01 X-46.1246 Y20.6131 
G01 X-46.2725 Y20.6885 
G01 X-46.4067 Y20.7860 
G01 X-46.5240 Y20.9033 
G01 X-46.6215 Y21.0375 
G01 X-46.6969 Y21.1854 
G01 X-46.7481 Y21.3432 
G01 X-46.7741 Y21.5070 
G01 X-46.7741 Y21.6730 
G01 X-46.7481 Y21.8368 
G01 X-46.6969 Y21.9946 
G01 X-46.6215 Y22.1425 
G01 X-46.5240 Y22.2767 
G01 X-46.4067 Y22.3940 
G01 X-46.2725 Y22.4915 
G01 X-46.1246 Y22.5669 
G01 X-45.9668 Y22.6181 
G01 X-45.8030 Y22.6441 
G01 X-45.6370 Y22.6441 
G01 X-45.4732 Y22.6181 
G01 X-45.3154 Y22.5669 
G01 X-45.1675 Y22.4915 
G01 X-45.0333 Y22.3940 
G01 X-44.9160 Y22.2767 
G01 X-44.8185 Y22.1425 
G01 X-44.7431 Y21.9946 
G01 X-44.6919 Y21.8368 
G01 X-44.6659 Y21.6730 
G01 X-44.6659 Y21.6199 
G01 X-43.6835 Y20.6375 
G01 X-36.9615 Y20.6375 
G01 X-35.8775 Y21.7215 
G01 X-35.8775 Y22.6568 
G01 X-35.9510 Y22.6872 
G01 X-36.0862 Y22.7776 
G01 X-36.2012 Y22.8926 
G00 Z2.5400 
G00 X-33.7844 Y22.9080 
G01 Z-0.1778 F254.00 
G01 X-33.5308 Y22.6544 F508.00 
G01 X-33.1994 Y22.5171 
G01 X-32.8406 Y22.5171 
G01 X-32.5092 Y22.6544 
G01 X-32.2556 Y22.9080 
G01 X-32.1183 Y23.2394 
G01 X-32.1183 Y25.0206 
G01 X-32.2556 Y25.3520 
G01 X-32.5092 Y25.6056 
G01 X-32.8406 Y25.7429 
G01 X-33.1994 Y25.7429 
G01 X-33.5308 Y25.6056 
G01 X-33.7844 Y25.3520 
G01 X-33.9217 Y25.0206 
G01 X-33.9217 Y23.2394 
G01 X-33.7844 Y22.9080 
G00 Z2.5400 
G00 X-33.6612 Y22.8926 
G01 Z-0.1778 F254.00 
G01 X-33.7515 Y23.0278 F508.00 
G01 X-33.8138 Y23.1780 
G01 X-33.8455 Y23.3375 
G01 X-33.8455 Y24.9225 
G01 X-33.8138 Y25.0820 
G01 X-33.7515 Y25.2322 
G01 X-33.6612 Y25.3674 
G01 X-33.5462 Y25.4824 
G01 X-33.4110 Y25.5727 
G01 X-33.2608 Y25.6350 
G01 X-33.1013 Y25.6667 
G01 X-32.9387 Y25.6667 
G01 X-32.7792 Y25.6350 
G01 X-32.6290 Y25.5727 
G01 X-32.4938 Y25.4824 
G01 X-32.3788 Y25.3674 
G01 X-32.2884 Y25.2322 
G01 X-32.2262 Y25.0820 
G01 X-32.1945 Y24.9225 
G01 X-32.1945 Y23.3375 
G01 X-32.2262 Y23.1780 
G01 X-32.2884 Y23.0278 
G01 X-32.3788 Y22.8926 
G01 X-32.4938 Y22.7776 
G01 X-32.6290 Y22.6872 
G01 X-32.7792 Y22.6250 
G01 X-32.9387 Y22.5933 
G01 X-33.1013 Y22.5933 
G01 X-33.2608 Y22.6250 
G01 X-33.4110 Y22.6872 
G01 X-33.5462 Y22.7776 
G01 X-33.6612 Y22.8926 
G00 Z2.5400 
G00 X-31.2078 Y22.9728 
G01 Z-0.1778 F254.00 
G01 X-31.1290 Y22.8645 F508.00 
G01 X-31.0343 Y22.7698 
G01 X-30.9260 Y22.6910 
G01 X-30.8066 Y22.6302 
G01 X-30.7975 Y22.6273 
G01 X-30.7975 Y22.6568 
G01 X-30.8710 Y22.6872 
G01 X-31.0062 Y22.7776 
G01 X-31.1212 Y22.8926 
G01 X-31.2115 Y23.0278 
G01 X-31.2738 Y23.1780 
G01 X-31.3055 Y23.3375 
G01 X-31.3055 Y23.8125 
G01 X-31.3309 Y23.8125 
G01 X-31.3309 Y23.3518 
G01 X-31.3099 Y23.2195 
G01 X-31.2686 Y23.0922 
G01 X-31.2078 Y22.9728 
G00 Z2.5400 
G00 X-30.1625 Y22.6568 
G01 Z-0.1778 F254.00 
G01 X-30.1625 Y22.6273 F508.00 
G01 X-30.1534 Y22.6302 
G01 X-30.0340 Y22.6910 
G01 X-29.9257 Y22.7698 
G01 X-29.8310 Y22.8645 
G01 X-29.7522 Y22.9728 
G01 X-29.6914 Y23.0922 
G01 X-29.6500 Y23.2195 
G01 X-29.6291 Y23.3518 
G01 X-29.6291 Y23.8125 
G01 X-29.6545 Y23.8125 
G01 X-29.6545 Y23.3375 
G01 X-29.6862 Y23.1780 
G01 X-29.7484 Y23.0278 
G01 X-29.8388 Y22.8926 
G01 X-29.9538 Y22.7776 
G01 X-30.0890 Y22.6872 
G01 X-30.1625 Y22.6568 
G00 Z2.5400 
G00 X-28.4662 Y22.7776 
G01 Z-0.1778 F254.00 
G01 X-28.5812 Y22.8926 F508.00 
G01 X-28.6715 Y23.0278 
G01 X-28.7338 Y23.1780 
G01 X-28.7655 Y23.3375 
G01 X-28.7655 Y24.9225 
G01 X-28.7338 Y25.0820 
G01 X-28.6715 Y25.2322 
G01 X-28.5812 Y25.3674 
G01 X-28.4662 Y25.4824 
G01 X-28.3310 Y25.5727 
G01 X-28.2575 Y25.6032 
G01 X-28.2575 Y25.9035 
G01 X-28.7065 Y26.3525 
G01 X-43.0485 Y26.3525 
G01 X-44.7847 Y24.6163 
G01 X-44.7431 Y24.5346 
G01 X-44.6919 Y24.3768 
G01 X-44.6659 Y24.2130 
G01 X-44.6659 Y24.0470 
G01 X-44.6919 Y23.8832 
G01 X-44.7431 Y23.7254 
G01 X-44.8185 Y23.5775 
G01 X-44.9160 Y23.4433 
G01 X-45.0333 Y23.3260 
G01 X-45.1675 Y23.2285 
G01 X-45.3154 Y23.1531 
G01 X-45.4732 Y23.1019 
G01 X-45.6370 Y23.0759 
G01 X-45.8030 Y23.0759 
G01 X-45.9668 Y23.1019 
G01 X-46.1246 Y23.1531 
G01 X-46.2725 Y23.2285 
G01 X-46.4067 Y23.3260 
G01 X-46.5240 Y23.4433 
G01 X-46.6215 Y23.5775 
G01 X-46.6969 Y23.7254 
G01 X-46.7481 Y23.8832 
G01 X-46.7741 Y24.0470 
G01 X-46.7741 Y24.2130 
G01 X-46.7481 Y24.3768 
G01 X-46.6969 Y24.5346 
G01 X-46.6215 Y24.6825 
G01 X-46.5240 Y24.8167 
G01 X-46.4067 Y24.9340 
G01 X-46.2725 Y25.0315 
G01 X-46.1246 Y25.1069 
G01 X-45.9668 Y25.1581 
G01 X-45.8030 Y25.1841 
G01 X-45.6370 Y25.1841 
G01 X-45.4732 Y25.1581 
G01 X-45.3154 Y25.1069 
G01 X-45.2337 Y25.0653 
G01 X-43.4341 Y26.8649 
G01 X-43.3749 Y26.9241 
G01 X-43.3025 Y26.9659 
G01 X-43.2218 Y26.9875 
G01 X-28.5332 Y26.9875 
G01 X-28.4524 Y26.9659 
G01 X-28.3801 Y26.9241 
G01 X-27.7451 Y26.2891 
G01 X-27.6859 Y26.2299 
G01 X-27.6441 Y26.1576 
G01 X-27.6225 Y26.0768 
G01 X-27.6225 Y25.6032 
G01 X-27.5490 Y25.5727 
G01 X-27.4138 Y25.4824 
G01 X-27.2988 Y25.3674 
G01 X-27.2084 Y25.2322 
G01 X-27.1462 Y25.0820 
G01 X-27.1145 Y24.9225 
G01 X-27.1145 Y23.3375 
G01 X-27.1462 Y23.1780 
G01 X-27.2084 Y23.0278 
G01 X-27.2988 Y22.8926 
G01 X-27.4138 Y22.7776 
G01 X-27.5490 Y22.6872 
G01 X-27.6992 Y22.6250 
G01 X-27.8587 Y22.5933 
G01 X-28.0213 Y22.5933 
G01 X-28.1808 Y22.6250 
G01 X-28.3310 Y22.6872 
G01 X-28.4662 Y22.7776 
G00 Z2.5400 
G00 X-26.1644 Y22.9080 
G01 Z-0.1778 F254.00 
G01 X-25.9108 Y22.6544 F508.00 
G01 X-25.5794 Y22.5171 
G01 X-25.2206 Y22.5171 
G01 X-24.8892 Y22.6544 
G01 X-24.6356 Y22.9080 
G01 X-24.4983 Y23.2394 
G01 X-24.4983 Y25.0206 
G01 X-24.6356 Y25.3520 
G01 X-24.8892 Y25.6056 
G01 X-25.2206 Y25.7429 
G01 X-25.5794 Y25.7429 
G01 X-25.9108 Y25.6056 
G01 X-26.1644 Y25.3520 
G01 X-26.3017 Y25.0206 
G01 X-26.3017 Y23.2394 
G01 X-26.1644 Y22.9080 
G00 Z2.5400 
G00 X-26.0412 Y22.8926 
G01 Z-0.1778 F254.00 
G01 X-26.1315 Y23.0278 F508.00 
G01 X-26.1938 Y23.1780 
G01 X-26.2255 Y23.3375 
G01 X-26.2255 Y24.9225 
G01 X-26.1938 Y25.0820 
G01 X-26.1315 Y25.2322 
G01 X-26.0412 Y25.3674 
G01 X-25.9262 Y25.4824 
G01 X-25.7910 Y25.5727 
G01 X-25.6408 Y25.6350 
G01 X-25.4813 Y25.6667 
G01 X-25.3187 Y25.6667 
G01 X-25.1592 Y25.6350 
G01 X-25.0090 Y25.5727 
G01 X-24.8738 Y25.4824 
G01 X-24.7588 Y25.3674 
G01 X-24.6684 Y25.2322 
G01 X-24.6062 Y25.0820 
G01 X-24.5745 Y24.9225 
G01 X-24.5745 Y23.3375 
G01 X-24.6062 Y23.1780 
G01 X-24.6684 Y23.0278 
G01 X-24.7588 Y22.8926 
G01 X-24.8738 Y22.7776 
G01 X-25.0090 Y22.6872 
G01 X-25.1592 Y22.6250 
G01 X-25.3187 Y22.5933 
G01 X-25.4813 Y22.5933 
G01 X-25.6408 Y22.6250 
G01 X-25.7910 Y22.6872 
G01 X-25.9262 Y22.7776 
G01 X-26.0412 Y22.8926 
G00 Z2.5400 
G00 X-29.6291 Y24.4475 
G01 Z-0.1778 F254.00 
G01 X-29.6291 Y24.9082 F508.00 
G01 X-29.6500 Y25.0404 
G01 X-29.6914 Y25.1678 
G01 X-29.7522 Y25.2872 
G01 X-29.8310 Y25.3955 
G01 X-29.9257 Y25.4902 
G01 X-30.0340 Y25.5690 
G01 X-30.1534 Y25.6298 
G01 X-30.1625 Y25.6327 
G01 X-30.1625 Y25.6032 
G01 X-30.0890 Y25.5727 
G01 X-29.9538 Y25.4824 
G01 X-29.8388 Y25.3674 
G01 X-29.7484 Y25.2322 
G01 X-29.6862 Y25.0820 
G01 X-29.6545 Y24.9225 
G01 X-29.6545 Y24.4475 
G01 X-29.6291 Y24.4475 
G00 Z2.5400 
G00 X-31.3055 Y24.4475 
G01 Z-0.1778 F254.00 
G01 X-31.3055 Y24.9225 F508.00 
G01 X-31.2738 Y25.0820 
G01 X-31.2115 Y25.2322 
G01 X-31.1212 Y25.3674 
G01 X-31.0062 Y25.4824 
G01 X-30.8710 Y25.5727 
G01 X-30.7975 Y25.6032 
G01 X-30.7975 Y25.6327 
G01 X-30.8066 Y25.6298 
G01 X-30.9260 Y25.5690 
G01 X-31.0343 Y25.4902 
G01 X-31.1290 Y25.3955 
G01 X-31.2078 Y25.2872 
G01 X-31.2686 Y25.1678 
G01 X-31.3099 Y25.0404 
G01 X-31.3309 Y24.9082 
G01 X-31.3309 Y24.4475 
G01 X-31.3055 Y24.4475 
G00 Z2.5400 
G00 X-31.0343 Y17.8702 
G01 Z-0.1778 F254.00 
G01 X-31.1290 Y17.7755 F508.00 
G01 X-31.2078 Y17.6672 
G01 X-31.2686 Y17.5478 
G01 X-31.3099 Y17.4204 
G01 X-31.3309 Y17.2882 
G01 X-31.3309 Y16.8275 
G01 X-31.3055 Y16.8275 
G01 X-31.3055 Y17.3025 
G01 X-31.2738 Y17.4620 
G01 X-31.2115 Y17.6122 
G01 X-31.1212 Y17.7474 
G01 X-31.0062 Y17.8624 
G01 X-30.8710 Y17.9527 
G01 X-30.7975 Y17.9832 
G01 X-30.7975 Y18.0127 
G01 X-30.8066 Y18.0098 
G01 X-30.9260 Y17.9490 
G01 X-31.0343 Y17.8702 
G00 Z2.5400 
G00 X-30.1625 Y17.9832 
G01 Z-0.1778 F254.00 
G01 X-30.0890 Y17.9527 F508.00 
G01 X-29.9538 Y17.8624 
G01 X-29.8388 Y17.7474 
G01 X-29.7484 Y17.6122 
G01 X-29.6862 Y17.4620 
G01 X-29.6545 Y17.3025 
G01 X-29.6545 Y16.8275 
G01 X-29.6291 Y16.8275 
G01 X-29.6291 Y17.2882 
G01 X-29.6500 Y17.4204 
G01 X-29.6914 Y17.5478 
G01 X-29.7522 Y17.6672 
G01 X-29.8310 Y17.7755 
G01 X-29.9257 Y17.8702 
G01 X-30.0340 Y17.9490 
G01 X-30.1534 Y18.0098 
G01 X-30.1625 Y18.0127 
G01 X-30.1625 Y17.9832 
G00 Z2.5400 
G00 X-32.3710 Y17.7755 
G01 Z-0.1778 F254.00 
G01 X-32.4657 Y17.8702 F508.00 
G01 X-32.5740 Y17.9490 
G01 X-32.6934 Y18.0098 
G01 X-32.7025 Y18.0127 
G01 X-32.7025 Y17.9832 
G01 X-32.6290 Y17.9527 
G01 X-32.4938 Y17.8624 
G01 X-32.3788 Y17.7474 
G01 X-32.2884 Y17.6122 
G01 X-32.2262 Y17.4620 
G01 X-32.1945 Y17.3025 
G01 X-32.1945 Y16.8275 
G01 X-32.1691 Y16.8275 
G01 X-32.1691 Y17.2882 
G01 X-32.1900 Y17.4204 
G01 X-32.2314 Y17.5478 
G01 X-32.2922 Y17.6672 
G01 X-32.3710 Y17.7755 
G00 Z2.5400 
G00 X-33.3375 Y17.9832 
G01 Z-0.1778 F254.00 
G01 X-33.3375 Y18.0127 F508.00 
G01 X-33.3466 Y18.0098 
G01 X-33.4660 Y17.9490 
G01 X-33.5743 Y17.8702 
G01 X-33.6690 Y17.7755 
G01 X-33.7478 Y17.6672 
G01 X-33.8086 Y17.5478 
G01 X-33.8499 Y17.4204 
G01 X-33.8709 Y17.2882 
G01 X-33.8709 Y16.8275 
G01 X-33.8455 Y16.8275 
G01 X-33.8455 Y17.3025 
G01 X-33.8138 Y17.4620 
G01 X-33.7515 Y17.6122 
G01 X-33.6612 Y17.7474 
G01 X-33.5462 Y17.8624 
G01 X-33.4110 Y17.9527 
G01 X-33.3375 Y17.9832 
G00 Z2.5400 
G00 X-29.4641 Y10.9899 
G01 Z-0.1778 F254.00 
G01 X-29.4049 Y11.0491 F508.00 
G01 X-29.3326 Y11.0909 
G01 X-29.2518 Y11.1125 
G01 X-17.2765 Y11.1125 
G01 X-13.6525 Y14.7365 
G01 X-13.6525 Y26.0768 
G01 X-13.6309 Y26.1576 
G01 X-13.5891 Y26.2299 
G01 X-13.5299 Y26.2891 
G01 X-11.0262 Y28.7928 
G01 X-11.0048 Y28.8169 
G01 X-10.9968 Y28.8222 
G01 X-10.9899 Y28.8291 
G01 X-10.9620 Y28.8452 
G01 X-10.9351 Y28.8630 
G01 X-10.9259 Y28.8660 
G01 X-10.9176 Y28.8709 
G01 X-10.8864 Y28.8792 
G01 X-9.5583 Y29.3219 
G01 X-9.5583 Y29.4868 
G01 X-9.1668 Y29.8783 
G01 X-8.6132 Y29.8783 
G01 X-8.2217 Y29.4868 
G01 X-8.2217 Y28.9332 
G01 X-8.6132 Y28.5417 
G01 X-9.1668 Y28.5417 
G01 X-9.3478 Y28.7227 
G01 X-10.6235 Y28.2975 
G01 X-13.0175 Y25.9035 
G01 X-13.0175 Y14.5632 
G01 X-13.0391 Y14.4824 
G01 X-13.0809 Y14.4101 
G01 X-16.8909 Y10.6000 
G01 X-16.9501 Y10.5409 
G01 X-17.0224 Y10.4991 
G01 X-17.1032 Y10.4775 
G01 X-28.8925 Y10.4775 
G01 X-28.8925 Y8.6252 
G01 X-28.8054 Y8.5969 
G01 X-28.6575 Y8.5215 
G01 X-28.5233 Y8.4240 
G01 X-28.4060 Y8.3067 
G01 X-28.3085 Y8.1725 
G01 X-28.2331 Y8.0246 
G01 X-28.1819 Y7.8668 
G01 X-28.1559 Y7.7030 
G01 X-28.1559 Y7.5370 
G01 X-28.1819 Y7.3732 
G01 X-28.2331 Y7.2154 
G01 X-28.3085 Y7.0675 
G01 X-28.4060 Y6.9333 
G01 X-28.5233 Y6.8160 
G01 X-28.6575 Y6.7185 
G01 X-28.8054 Y6.6431 
G01 X-28.9632 Y6.5919 
G01 X-29.1270 Y6.5659 
G01 X-29.2930 Y6.5659 
